nxshell/qtbased/image-editor/libimagevisualresult/filter_cube/black.CUBE
#Created by: Adobe Photoshop Export Color Lookup Plugin
TITLE "相机滤镜调试.psd"
#LUT size
LUT_3D_SIZE 5
#data domain
#LUT data points
DOMAIN_MIN 0.000000 0.000000 0.000000
DOMAIN_MAX 0.903226 0.903226 0.903226
0.000000 0.000000 0.000000
0.067627 0.067627 0.067627
0.166260 0.166260 0.166260
0.295715 0.295715 0.295715
0.464447 0.464447 0.464447
0.067627 0.067627 0.067627
0.067627 0.067627 0.067627
0.166260 0.166260 0.166260
0.295715 0.295715 0.295715
0.464447 0.464447 0.464447
0.166260 0.166260 0.166260
0.166260 0.166260 0.166260
0.166260 0.166260 0.166260
0.295715 0.295715 0.295715
0.464447 0.464447 0.464447
0.295715 0.295715 0.295715
0.295715 0.295715 0.295715
0.295715 0.295715 0.295715
0.295715 0.295715 0.295715
0.464447 0.464447 0.464447
0.464447 0.464447 0.464447
0.464447 0.464447 0.464447
0.464447 0.464447 0.464447
0.464447 0.464447 0.464447
0.464447 0.464447 0.464447
0.067627 0.067627 0.067627
0.067627 0.067627 0.067627
0.166260 0.166260 0.166260
0.295715 0.295715 0.295715
0.464447 0.464447 0.464447
0.067627 0.067627 0.067627
0.166260 0.166260 0.166260
0.295685 0.295685 0.295685
0.464447 0.464447 0.464447
0.634949 0.634949 0.634949
0.166260 0.166260 0.166260
0.295685 0.295685 0.295685
0.295685 0.295685 0.295685
0.464447 0.464447 0.464447
0.634949 0.634949 0.634949
0.295715 0.295715 0.295715
0.464447 0.464447 0.464447
0.464447 0.464447 0.464447
0.464447 0.464447 0.464447
0.634949 0.634949 0.634949
0.464447 0.464447 0.464447
0.634949 0.634949 0.634949
0.634949 0.634949 0.634949
0.634949 0.634949 0.634949
0.634949 0.634949 0.634949
0.166260 0.166260 0.166260
0.166260 0.166260 0.166260
0.166260 0.166260 0.166260
0.295715 0.295715 0.295715
0.464447 0.464447 0.464447
0.166260 0.166260 0.166260
0.295685 0.295685 0.295685
0.295685 0.295685 0.295685
0.464447 0.464447 0.464447
0.634949 0.634949 0.634949
0.166260 0.166260 0.166260
0.295685 0.295685 0.295685
0.464447 0.464447 0.464447
0.634949 0.634949 0.634949
0.771545 0.771545 0.771545
0.295715 0.295715 0.295715
0.464447 0.464447 0.464447
0.634949 0.634949 0.634949
0.634949 0.634949 0.634949
0.771545 0.771545 0.771545
0.464447 0.464447 0.464447
0.634949 0.634949 0.634949
0.771545 0.771545 0.771545
0.771545 0.771545 0.771545
0.771545 0.771545 0.771545
0.295715 0.295715 0.295715
0.295715 0.295715 0.295715
0.295715 0.295715 0.295715
0.295715 0.295715 0.295715
0.464447 0.464447 0.464447
0.295715 0.295715 0.295715
0.464447 0.464447 0.464447
0.464447 0.464447 0.464447
0.464447 0.464447 0.464447
0.634949 0.634949 0.634949
0.295715 0.295715 0.295715
0.464447 0.464447 0.464447
0.634949 0.634949 0.634949
0.634949 0.634949 0.634949
0.771545 0.771545 0.771545
0.295715 0.295715 0.295715
0.464447 0.464447 0.464447
0.634949 0.634949 0.634949
0.771576 0.771576 0.771576
0.880280 0.880280 0.880280
0.464447 0.464447 0.464447
0.634949 0.634949 0.634949
0.771545 0.771545 0.771545
0.880280 0.880280 0.880280
0.880280 0.880280 0.880280
0.464447 0.464447 0.464447
0.464447 0.464447 0.464447
0.464447 0.464447 0.464447
0.464447 0.464447 0.464447
0.464447 0.464447 0.464447
0.464447 0.464447 0.464447
0.634949 0.634949 0.634949
0.634949 0.634949 0.634949
0.634949 0.634949 0.634949
0.634949 0.634949 0.634949
0.464447 0.464447 0.464447
0.634949 0.634949 0.634949
0.771545 0.771545 0.771545
0.771545 0.771545 0.771545
0.771545 0.771545 0.771545
0.464447 0.464447 0.464447
0.634949 0.634949 0.634949
0.771545 0.771545 0.771545
0.880280 0.880280 0.880280
0.880280 0.880280 0.880280
0.464447 0.464447 0.464447
0.634949 0.634949 0.634949
0.771545 0.771545 0.771545
0.880280 0.880280 0.880280
0.973267 0.973267 0.973267
