nxshell/qtbased/image-editor/libimagevisualresult/filter_cube/black.CUBE
#Created by: Adobe Photoshop Export Color Lookup Plugin
TITLE "相机滤镜调试.psd"
#LUT size
LUT_3D_SIZE 32
#data domain
DOMAIN_MIN 0.0 0.0 0.0
DOMAIN_MAX 1.0 1.0 1.0
#LUT data points
0.000000 0.000000 0.000000
0.000000 0.000000 0.000000
0.006531 0.006531 0.006531
0.018494 0.018494 0.018494
0.030548 0.030548 0.030548
0.042694 0.042694 0.042694
0.055054 0.055054 0.055054
0.067627 0.067627 0.067627
0.080505 0.080505 0.080505
0.093658 0.093658 0.093658
0.107208 0.107208 0.107208
0.121185 0.121185 0.121185
0.135681 0.135681 0.135681
0.150665 0.150665 0.150665
0.166260 0.166260 0.166260
0.182434 0.182434 0.182434
0.199341 0.199341 0.199341
0.216980 0.216980 0.216980
0.235352 0.235352 0.235352
0.254608 0.254608 0.254608
0.274689 0.274689 0.274689
0.295715 0.295715 0.295715
0.317719 0.317719 0.317719
0.340698 0.340698 0.340698
0.364441 0.364441 0.364441
0.388885 0.388885 0.388885
0.413757 0.413757 0.413757
0.439026 0.439026 0.439026
0.464447 0.464447 0.464447
0.489960 0.489960 0.489960
0.515289 0.515289 0.515289
0.540375 0.540375 0.540375
0.000000 0.000000 0.000000
0.000000 0.000000 0.000000
0.006531 0.006531 0.006531
0.018494 0.018494 0.018494
0.030548 0.030548 0.030548
0.042694 0.042694 0.042694
0.055054 0.055054 0.055054
0.067627 0.067627 0.067627
0.080505 0.080505 0.080505
0.093658 0.093658 0.093658
0.107208 0.107208 0.107208
0.121185 0.121185 0.121185
0.135681 0.135681 0.135681
0.150665 0.150665 0.150665
0.166260 0.166260 0.166260
0.182434 0.182434 0.182434
0.199341 0.199341 0.199341
0.216980 0.216980 0.216980
0.235352 0.235352 0.235352
0.254608 0.254608 0.254608
0.274689 0.274689 0.274689
0.295715 0.295715 0.295715
0.317719 0.317719 0.317719
0.340698 0.340698 0.340698
0.364441 0.364441 0.364441
0.388885 0.388885 0.388885
0.413757 0.413757 0.413757
0.439026 0.439026 0.439026
0.464447 0.464447 0.464447
0.489960 0.489960 0.489960
0.515289 0.515289 0.515289
0.540375 0.540375 0.540375
0.006531 0.006531 0.006531
0.006531 0.006531 0.006531
0.006531 0.006531 0.006531
0.018494 0.018494 0.018494
0.030548 0.030548 0.030548
0.042694 0.042694 0.042694
0.055054 0.055054 0.055054
0.067627 0.067627 0.067627
0.080505 0.080505 0.080505
0.093658 0.093658 0.093658
0.107208 0.107208 0.107208
0.121185 0.121185 0.121185
0.135681 0.135681 0.135681
0.150665 0.150665 0.150665
0.166260 0.166260 0.166260
0.182434 0.182434 0.182434
0.199341 0.199341 0.199341
0.216980 0.216980 0.216980
0.235352 0.235352 0.235352
0.254608 0.254608 0.254608
0.274689 0.274689 0.274689
0.295715 0.295715 0.295715
0.317719 0.317719 0.317719
0.340698 0.340698 0.340698
0.364441 0.364441 0.364441
0.388885 0.388885 0.388885
0.413757 0.413757 0.413757
0.439026 0.439026 0.439026
0.464447 0.464447 0.464447
0.489960 0.489960 0.489960
0.515289 0.515289 0.515289
0.540375 0.540375 0.540375
0.018494 0.018494 0.018494
0.018494 0.018494 0.018494
0.018494 0.018494 0.018494
0.018494 0.018494 0.018494
0.030548 0.030548 0.030548
0.042694 0.042694 0.042694
0.055054 0.055054 0.055054
0.067627 0.067627 0.067627
0.080505 0.080505 0.080505
0.093658 0.093658 0.093658
0.107208 0.107208 0.107208
0.121185 0.121185 0.121185
0.135681 0.135681 0.135681
0.150665 0.150665 0.150665
0.166260 0.166260 0.166260
0.182434 0.182434 0.182434
0.199341 0.199341 0.199341
0.216980 0.216980 0.216980
0.235352 0.235352 0.235352
0.254608 0.254608 0.254608
0.274689 0.274689 0.274689
0.295715 0.295715 0.295715
0.317719 0.317719 0.317719
0.340698 0.340698 0.340698
0.364441 0.364441 0.364441
0.388885 0.388885 0.388885
0.413757 0.413757 0.413757
0.439026 0.439026 0.439026
0.464447 0.464447 0.464447
0.489960 0.489960 0.489960
0.515289 0.515289 0.515289
0.540375 0.540375 0.540375
0.030548 0.030548 0.030548
0.030548 0.030548 0.030548
0.030548 0.030548 0.030548
0.030548 0.030548 0.030548
0.030548 0.030548 0.030548
0.042694 0.042694 0.042694
0.055054 0.055054 0.055054
0.067627 0.067627 0.067627
0.080505 0.080505 0.080505
0.093658 0.093658 0.093658
0.107208 0.107208 0.107208
0.121185 0.121185 0.121185
0.135681 0.135681 0.135681
0.150665 0.150665 0.150665
0.166260 0.166260 0.166260
0.182434 0.182434 0.182434
0.199341 0.199341 0.199341
0.216980 0.216980 0.216980
0.235352 0.235352 0.235352
0.254608 0.254608 0.254608
0.274689 0.274689 0.274689
0.295715 0.295715 0.295715
0.317719 0.317719 0.317719
0.340698 0.340698 0.340698
0.364441 0.364441 0.364441
0.388885 0.388885 0.388885
0.413757 0.413757 0.413757
0.439026 0.439026 0.439026
0.464447 0.464447 0.464447
0.489960 0.489960 0.489960
0.515289 0.515289 0.515289
0.540375 0.540375 0.540375
0.042694 0.042694 0.042694
0.042694 0.042694 0.042694
0.042694 0.042694 0.042694
0.042694 0.042694 0.042694
0.042694 0.042694 0.042694
0.042694 0.042694 0.042694
0.055054 0.055054 0.055054
0.067627 0.067627 0.067627
0.080505 0.080505 0.080505
0.093658 0.093658 0.093658
0.107208 0.107208 0.107208
0.121185 0.121185 0.121185
0.135681 0.135681 0.135681
0.150665 0.150665 0.150665
0.166260 0.166260 0.166260
0.182434 0.182434 0.182434
0.199341 0.199341 0.199341
0.216980 0.216980 0.216980
0.235352 0.235352 0.235352
0.254608 0.254608 0.254608
0.274689 0.274689 0.274689
0.295715 0.295715 0.295715
0.317719 0.317719 0.317719
0.340698 0.340698 0.340698
0.364441 0.364441 0.364441
0.388885 0.388885 0.388885
0.413757 0.413757 0.413757
0.439026 0.439026 0.439026
0.464447 0.464447 0.464447
0.489960 0.489960 0.489960
0.515289 0.515289 0.515289
0.540375 0.540375 0.540375
0.055054 0.055054 0.055054
0.055054 0.055054 0.055054
0.055054 0.055054 0.055054
0.055054 0.055054 0.055054
0.055054 0.055054 0.055054
0.055054 0.055054 0.055054
0.055054 0.055054 0.055054
0.067627 0.067627 0.067627
0.080505 0.080505 0.080505
0.093658 0.093658 0.093658
0.107208 0.107208 0.107208
0.121185 0.121185 0.121185
0.135681 0.135681 0.135681
0.150665 0.150665 0.150665
0.166260 0.166260 0.166260
0.182434 0.182434 0.182434
0.199341 0.199341 0.199341
0.216980 0.216980 0.216980
0.235352 0.235352 0.235352
0.254608 0.254608 0.254608
0.274689 0.274689 0.274689
0.295715 0.295715 0.295715
0.317719 0.317719 0.317719
0.340698 0.340698 0.340698
0.364441 0.364441 0.364441
0.388885 0.388885 0.388885
0.413757 0.413757 0.413757
0.439026 0.439026 0.439026
0.464447 0.464447 0.464447
0.489960 0.489960 0.489960
0.515289 0.515289 0.515289
0.540375 0.540375 0.540375
0.067627 0.067627 0.067627
0.067627 0.067627 0.067627
0.067627 0.067627 0.067627
0.067627 0.067627 0.067627
0.067627 0.067627 0.067627
0.067627 0.067627 0.067627
0.067627 0.067627 0.067627
0.067627 0.067627 0.067627
0.080505 0.080505 0.080505
0.093658 0.093658 0.093658
0.107208 0.107208 0.107208
0.121185 0.121185 0.121185
0.135681 0.135681 0.135681
0.150665 0.150665 0.150665
0.166260 0.166260 0.166260
0.182434 0.182434 0.182434
0.199341 0.199341 0.199341
0.216980 0.216980 0.216980
0.235352 0.235352 0.235352
0.254608 0.254608 0.254608
0.274689 0.274689 0.274689
0.295715 0.295715 0.295715
0.317719 0.317719 0.317719
0.340698 0.340698 0.340698
0.364441 0.364441 0.364441
0.388885 0.388885 0.388885
0.413757 0.413757 0.413757
0.439026 0.439026 0.439026
0.464447 0.464447 0.464447
0.489960 0.489960 0.489960
0.515289 0.515289 0.515289
0.540375 0.540375 0.540375
0.080505 0.080505 0.080505
0.080505 0.080505 0.080505
0.080505 0.080505 0.080505
0.080505 0.080505 0.080505
0.080505 0.080505 0.080505
0.080505 0.080505 0.080505
0.080505 0.080505 0.080505
0.080505 0.080505 0.080505
0.080505 0.080505 0.080505
0.093658 0.093658 0.093658
0.107208 0.107208 0.107208
0.121185 0.121185 0.121185
0.135681 0.135681 0.135681
0.150665 0.150665 0.150665
0.166260 0.166260 0.166260
0.182434 0.182434 0.182434
0.199341 0.199341 0.199341
0.216980 0.216980 0.216980
0.235352 0.235352 0.235352
0.254608 0.254608 0.254608
0.274689 0.274689 0.274689
0.295715 0.295715 0.295715
0.317719 0.317719 0.317719
0.340698 0.340698 0.340698
0.364441 0.364441 0.364441
0.388885 0.388885 0.388885
0.413757 0.413757 0.413757
0.439026 0.439026 0.439026
0.464447 0.464447 0.464447
0.489960 0.489960 0.489960
0.515289 0.515289 0.515289
0.540375 0.540375 0.540375
0.093658 0.093658 0.093658
0.093658 0.093658 0.093658
0.093658 0.093658 0.093658
0.093658 0.093658 0.093658
0.093658 0.093658 0.093658
0.093658 0.093658 0.093658
0.093658 0.093658 0.093658
0.093658 0.093658 0.093658
0.093658 0.093658 0.093658
0.093658 0.093658 0.093658
0.107208 0.107208 0.107208
0.121185 0.121185 0.121185
0.135681 0.135681 0.135681
0.150665 0.150665 0.150665
0.166260 0.166260 0.166260
0.182434 0.182434 0.182434
0.199341 0.199341 0.199341
0.216980 0.216980 0.216980
0.235352 0.235352 0.235352
0.254608 0.254608 0.254608
0.274689 0.274689 0.274689
0.295715 0.295715 0.295715
0.317719 0.317719 0.317719
0.340698 0.340698 0.340698
0.364441 0.364441 0.364441
0.388885 0.388885 0.388885
0.413757 0.413757 0.413757
0.439026 0.439026 0.439026
0.464447 0.464447 0.464447
0.489960 0.489960 0.489960
0.515289 0.515289 0.515289
0.540375 0.540375 0.540375
0.107208 0.107208 0.107208
0.107208 0.107208 0.107208
0.107208 0.107208 0.107208
0.107208 0.107208 0.107208
0.107208 0.107208 0.107208
0.107208 0.107208 0.107208
0.107208 0.107208 0.107208
0.107208 0.107208 0.107208
0.107208 0.107208 0.107208
0.107208 0.107208 0.107208
0.107208 0.107208 0.107208
0.121185 0.121185 0.121185
0.135681 0.135681 0.135681
0.150665 0.150665 0.150665
0.166260 0.166260 0.166260
0.182434 0.182434 0.182434
0.199341 0.199341 0.199341
0.216980 0.216980 0.216980
0.235352 0.235352 0.235352
0.254608 0.254608 0.254608
0.274689 0.274689 0.274689
0.295715 0.295715 0.295715
0.317719 0.317719 0.317719
0.340698 0.340698 0.340698
0.364441 0.364441 0.364441
0.388885 0.388885 0.388885
0.413757 0.413757 0.413757
0.439026 0.439026 0.439026
0.464447 0.464447 0.464447
0.489960 0.489960 0.489960
0.515289 0.515289 0.515289
0.540375 0.540375 0.540375
0.121185 0.121185 0.121185
0.121185 0.121185 0.121185
0.121185 0.121185 0.121185
0.121185 0.121185 0.121185
0.121185 0.121185 0.121185
0.121185 0.121185 0.121185
0.121185 0.121185 0.121185
0.121185 0.121185 0.121185
0.121185 0.121185 0.121185
0.121185 0.121185 0.121185
0.121185 0.121185 0.121185
0.121185 0.121185 0.121185
0.135681 0.135681 0.135681
0.150665 0.150665 0.150665
0.166260 0.166260 0.166260
0.182434 0.182434 0.182434
0.199341 0.199341 0.199341
0.216980 0.216980 0.216980
0.235352 0.235352 0.235352
0.254608 0.254608 0.254608
0.274689 0.274689 0.274689
0.295715 0.295715 0.295715
0.317719 0.317719 0.317719
0.340698 0.340698 0.340698
0.364441 0.364441 0.364441
0.388885 0.388885 0.388885
0.413757 0.413757 0.413757
0.439026 0.439026 0.439026
0.464447 0.464447 0.464447
0.489960 0.489960 0.489960
0.515289 0.515289 0.515289
0.540375 0.540375 0.540375
0.135681 0.135681 0.135681
0.135681 0.135681 0.135681
0.135681 0.135681 0.135681
0.135681 0.135681 0.135681
0.135681 0.135681 0.135681
0.135681 0.135681 0.135681
0.135681 0.135681 0.135681
0.135681 0.135681 0.135681
0.135681 0.135681 0.135681
0.135681 0.135681 0.135681
0.135681 0.135681 0.135681
0.135681 0.135681 0.135681
0.135681 0.135681 0.135681
0.150665 0.150665 0.150665
0.166260 0.166260 0.166260
0.182434 0.182434 0.182434
0.199341 0.199341 0.199341
0.216980 0.216980 0.216980
0.235352 0.235352 0.235352
0.254608 0.254608 0.254608
0.274689 0.274689 0.274689
0.295715 0.295715 0.295715
0.317719 0.317719 0.317719
0.340698 0.340698 0.340698
0.364441 0.364441 0.364441
0.388885 0.388885 0.388885
0.413757 0.413757 0.413757
0.439026 0.439026 0.439026
0.464447 0.464447 0.464447
0.489960 0.489960 0.489960
0.515289 0.515289 0.515289
0.540375 0.540375 0.540375
0.150665 0.150665 0.150665
0.150665 0.150665 0.150665
0.150665 0.150665 0.150665
0.150665 0.150665 0.150665
0.150665 0.150665 0.150665
0.150665 0.150665 0.150665
0.150665 0.150665 0.150665
0.150665 0.150665 0.150665
0.150665 0.150665 0.150665
0.150665 0.150665 0.150665
0.150665 0.150665 0.150665
0.150665 0.150665 0.150665
0.150665 0.150665 0.150665
0.150665 0.150665 0.150665
0.166260 0.166260 0.166260
0.182434 0.182434 0.182434
0.199341 0.199341 0.199341
0.216980 0.216980 0.216980
0.235352 0.235352 0.235352
0.254608 0.254608 0.254608
0.274689 0.274689 0.274689
0.295715 0.295715 0.295715
0.317719 0.317719 0.317719
0.340698 0.340698 0.340698
0.364441 0.364441 0.364441
0.388885 0.388885 0.388885
0.413757 0.413757 0.413757
0.439026 0.439026 0.439026
0.464447 0.464447 0.464447
0.489960 0.489960 0.489960
0.515289 0.515289 0.515289
0.540375 0.540375 0.540375
0.166260 0.166260 0.166260
0.166260 0.166260 0.166260
0.166260 0.166260 0.166260
0.166260 0.166260 0.166260
0.166260 0.166260 0.166260
0.166260 0.166260 0.166260
0.166260 0.166260 0.166260
0.166260 0.166260 0.166260
0.166260 0.166260 0.166260
0.166260 0.166260 0.166260
0.166260 0.166260 0.166260
0.166260 0.166260 0.166260
0.166260 0.166260 0.166260
0.166260 0.166260 0.166260
0.166260 0.166260 0.166260
0.182434 0.182434 0.182434
0.199341 0.199341 0.199341
0.216980 0.216980 0.216980
0.235352 0.235352 0.235352
0.254608 0.254608 0.254608
0.274689 0.274689 0.274689
0.295715 0.295715 0.295715
0.317719 0.317719 0.317719
0.340698 0.340698 0.340698
0.364441 0.364441 0.364441
0.388885 0.388885 0.388885
0.413757 0.413757 0.413757
0.439026 0.439026 0.439026
0.464447 0.464447 0.464447
0.489960 0.489960 0.489960
0.515289 0.515289 0.515289
0.540375 0.540375 0.540375
0.182434 0.182434 0.182434
0.182434 0.182434 0.182434
0.182434 0.182434 0.182434
0.182434 0.182434 0.182434
0.182434 0.182434 0.182434
0.182434 0.182434 0.182434
0.182434 0.182434 0.182434
0.182434 0.182434 0.182434
0.182434 0.182434 0.182434
0.182434 0.182434 0.182434
0.182434 0.182434 0.182434
0.182434 0.182434 0.182434
0.182434 0.182434 0.182434
0.182434 0.182434 0.182434
0.182434 0.182434 0.182434
0.182434 0.182434 0.182434
0.199341 0.199341 0.199341
0.216980 0.216980 0.216980
0.235352 0.235352 0.235352
0.254608 0.254608 0.254608
0.274689 0.274689 0.274689
0.295715 0.295715 0.295715
0.317719 0.317719 0.317719
0.340698 0.340698 0.340698
0.364441 0.364441 0.364441
0.388885 0.388885 0.388885
0.413757 0.413757 0.413757
0.439026 0.439026 0.439026
0.464447 0.464447 0.464447
0.489960 0.489960 0.489960
0.515289 0.515289 0.515289
0.540375 0.540375 0.540375
0.199341 0.199341 0.199341
0.199341 0.199341 0.199341
0.199341 0.199341 0.199341
0.199341 0.199341 0.199341
0.199341 0.199341 0.199341
0.199341 0.199341 0.199341
0.199341 0.199341 0.199341
0.199341 0.199341 0.199341
0.199341 0.199341 0.199341
0.199341 0.199341 0.199341
0.199341 0.199341 0.199341
0.199341 0.199341 0.199341
0.199341 0.199341 0.199341
0.199341 0.199341 0.199341
0.199341 0.199341 0.199341
0.199341 0.199341 0.199341
0.199341 0.199341 0.199341
0.216980 0.216980 0.216980
0.235352 0.235352 0.235352
0.254608 0.254608 0.254608
0.274689 0.274689 0.274689
0.295715 0.295715 0.295715
0.317719 0.317719 0.317719
0.340698 0.340698 0.340698
0.364441 0.364441 0.364441
0.388885 0.388885 0.388885
0.413757 0.413757 0.413757
0.439026 0.439026 0.439026
0.464447 0.464447 0.464447
0.489960 0.489960 0.489960
0.515289 0.515289 0.515289
0.540375 0.540375 0.540375
0.216980 0.216980 0.216980
0.216980 0.216980 0.216980
0.216980 0.216980 0.216980
0.216980 0.216980 0.216980
0.216980 0.216980 0.216980
0.216980 0.216980 0.216980
0.216980 0.216980 0.216980
0.216980 0.216980 0.216980
0.216980 0.216980 0.216980
0.216980 0.216980 0.216980
0.216980 0.216980 0.216980
0.216980 0.216980 0.216980
0.216980 0.216980 0.216980
0.216980 0.216980 0.216980
0.216980 0.216980 0.216980
0.216980 0.216980 0.216980
0.216980 0.216980 0.216980
0.216980 0.216980 0.216980
0.235352 0.235352 0.235352
0.254608 0.254608 0.254608
0.274689 0.274689 0.274689
0.295715 0.295715 0.295715
0.317719 0.317719 0.317719
0.340698 0.340698 0.340698
0.364441 0.364441 0.364441
0.388885 0.388885 0.388885
0.413757 0.413757 0.413757
0.439026 0.439026 0.439026
0.464447 0.464447 0.464447
0.489960 0.489960 0.489960
0.515289 0.515289 0.515289
0.540375 0.540375 0.540375
0.235352 0.235352 0.235352
0.235352 0.235352 0.235352
0.235352 0.235352 0.235352
0.235352 0.235352 0.235352
0.235352 0.235352 0.235352
0.235352 0.235352 0.235352
0.235352 0.235352 0.235352
0.235352 0.235352 0.235352
0.235352 0.235352 0.235352
0.235352 0.235352 0.235352
0.235352 0.235352 0.235352
0.235352 0.235352 0.235352
0.235352 0.235352 0.235352
0.235352 0.235352 0.235352
0.235352 0.235352 0.235352
0.235352 0.235352 0.235352
0.235352 0.235352 0.235352
0.235352 0.235352 0.235352
0.235352 0.235352 0.235352
0.254608 0.254608 0.254608
0.274689 0.274689 0.274689
0.295715 0.295715 0.295715
0.317719 0.317719 0.317719
0.340698 0.340698 0.340698
0.364441 0.364441 0.364441
0.388885 0.388885 0.388885
0.413757 0.413757 0.413757
0.439026 0.439026 0.439026
0.464447 0.464447 0.464447
0.489960 0.489960 0.489960
0.515289 0.515289 0.515289
0.540375 0.540375 0.540375
0.254608 0.254608 0.254608
0.254608 0.254608 0.254608
0.254608 0.254608 0.254608
0.254608 0.254608 0.254608
0.254608 0.254608 0.254608
0.254608 0.254608 0.254608
0.254608 0.254608 0.254608
0.254608 0.254608 0.254608
0.254608 0.254608 0.254608
0.254608 0.254608 0.254608
0.254608 0.254608 0.254608
0.254608 0.254608 0.254608
0.254608 0.254608 0.254608
0.254608 0.254608 0.254608
0.254608 0.254608 0.254608
0.254608 0.254608 0.254608
0.254608 0.254608 0.254608
0.254608 0.254608 0.254608
0.254608 0.254608 0.254608
0.254608 0.254608 0.254608
0.274689 0.274689 0.274689
0.295715 0.295715 0.295715
0.317719 0.317719 0.317719
0.340698 0.340698 0.340698
0.364441 0.364441 0.364441
0.388885 0.388885 0.388885
0.413757 0.413757 0.413757
0.439026 0.439026 0.439026
0.464447 0.464447 0.464447
0.489960 0.489960 0.489960
0.515289 0.515289 0.515289
0.540375 0.540375 0.540375
0.274689 0.274689 0.274689
0.274689 0.274689 0.274689
0.274689 0.274689 0.274689
0.274689 0.274689 0.274689
0.274689 0.274689 0.274689
0.274689 0.274689 0.274689
0.274689 0.274689 0.274689
0.274689 0.274689 0.274689
0.274689 0.274689 0.274689
0.274689 0.274689 0.274689
0.274689 0.274689 0.274689
0.274689 0.274689 0.274689
0.274689 0.274689 0.274689
0.274689 0.274689 0.274689
0.274689 0.274689 0.274689
0.274689 0.274689 0.274689
0.274689 0.274689 0.274689
0.274689 0.274689 0.274689
0.274689 0.274689 0.274689
0.274689 0.274689 0.274689
0.274689 0.274689 0.274689
0.295715 0.295715 0.295715
0.317719 0.317719 0.317719
0.340698 0.340698 0.340698
0.364441 0.364441 0.364441
0.388885 0.388885 0.388885
0.413757 0.413757 0.413757
0.439026 0.439026 0.439026
0.464447 0.464447 0.464447
0.489960 0.489960 0.489960
0.515289 0.515289 0.515289
0.540375 0.540375 0.540375
0.295715 0.295715 0.295715
0.295715 0.295715 0.295715
0.295715 0.295715 0.295715
0.295715 0.295715 0.295715
0.295715 0.295715 0.295715
0.295715 0.295715 0.295715
0.295715 0.295715 0.295715
0.295715 0.295715 0.295715
0.295715 0.295715 0.295715
0.295715 0.295715 0.295715
0.295715 0.295715 0.295715
0.295715 0.295715 0.295715
0.295715 0.295715 0.295715
0.295715 0.295715 0.295715
0.295715 0.295715 0.295715
0.295715 0.295715 0.295715
0.295715 0.295715 0.295715
0.295715 0.295715 0.295715
0.295715 0.295715 0.295715
0.295715 0.295715 0.295715
0.295715 0.295715 0.295715
0.295715 0.295715 0.295715
0.317719 0.317719 0.317719
0.340698 0.340698 0.340698
0.364441 0.364441 0.364441
0.388885 0.388885 0.388885
0.413757 0.413757 0.413757
0.439026 0.439026 0.439026
0.464447 0.464447 0.464447
0.489960 0.489960 0.489960
0.515289 0.515289 0.515289
0.540375 0.540375 0.540375
0.317719 0.317719 0.317719
0.317719 0.317719 0.317719
0.317719 0.317719 0.317719
0.317719 0.317719 0.317719
0.317719 0.317719 0.317719
0.317719 0.317719 0.317719
0.317719 0.317719 0.317719
0.317719 0.317719 0.317719
0.317719 0.317719 0.317719
0.317719 0.317719 0.317719
0.317719 0.317719 0.317719
0.317719 0.317719 0.317719
0.317719 0.317719 0.317719
0.317719 0.317719 0.317719
0.317719 0.317719 0.317719
0.317719 0.317719 0.317719
0.317719 0.317719 0.317719
0.317719 0.317719 0.317719
0.317719 0.317719 0.317719
0.317719 0.317719 0.317719
0.317719 0.317719 0.317719
0.317719 0.317719 0.317719
0.317719 0.317719 0.317719
0.340698 0.340698 0.340698
0.364441 0.364441 0.364441
0.388885 0.388885 0.388885
0.413757 0.413757 0.413757
0.439026 0.439026 0.439026
0.464447 0.464447 0.464447
0.489960 0.489960 0.489960
0.515289 0.515289 0.515289
0.540375 0.540375 0.540375
0.340698 0.340698 0.340698
0.340698 0.340698 0.340698
0.340698 0.340698 0.340698
0.340698 0.340698 0.340698
0.340698 0.340698 0.340698
0.340698 0.340698 0.340698
0.340698 0.340698 0.340698
0.340698 0.340698 0.340698
0.340698 0.340698 0.340698
0.340698 0.340698 0.340698
0.340698 0.340698 0.340698
0.340698 0.340698 0.340698
0.340698 0.340698 0.340698
0.340698 0.340698 0.340698
0.340698 0.340698 0.340698
0.340698 0.340698 0.340698
0.340698 0.340698 0.340698
0.340698 0.340698 0.340698
0.340698 0.340698 0.340698
0.340698 0.340698 0.340698
0.340698 0.340698 0.340698
0.340698 0.340698 0.340698
0.340698 0.340698 0.340698
0.340698 0.340698 0.340698
0.364441 0.364441 0.364441
0.388885 0.388885 0.388885
0.413757 0.413757 0.413757
0.439026 0.439026 0.439026
0.464447 0.464447 0.464447
0.489960 0.489960 0.489960
0.515289 0.515289 0.515289
0.540375 0.540375 0.540375
0.364441 0.364441 0.364441
0.364441 0.364441 0.364441
0.364441 0.364441 0.364441
0.364441 0.364441 0.364441
0.364441 0.364441 0.364441
0.364441 0.364441 0.364441
0.364441 0.364441 0.364441
0.364441 0.364441 0.364441
0.364441 0.364441 0.364441
0.364441 0.364441 0.364441
0.364441 0.364441 0.364441
0.364441 0.364441 0.364441
0.364441 0.364441 0.364441
0.364441 0.364441 0.364441
0.364441 0.364441 0.364441
0.364441 0.364441 0.364441
0.364441 0.364441 0.364441
0.364441 0.364441 0.364441
0.364441 0.364441 0.364441
0.364441 0.364441 0.364441
0.364441 0.364441 0.364441
0.364441 0.364441 0.364441
0.364441 0.364441 0.364441
0.364441 0.364441 0.364441
0.364441 0.364441 0.364441
0.388885 0.388885 0.388885
0.413757 0.413757 0.413757
0.439026 0.439026 0.439026
0.464447 0.464447 0.464447
0.489960 0.489960 0.489960
0.515289 0.515289 0.515289
0.540375 0.540375 0.540375
0.388885 0.388885 0.388885
0.388885 0.388885 0.388885
0.388885 0.388885 0.388885
0.388885 0.388885 0.388885
0.388885 0.388885 0.388885
0.388885 0.388885 0.388885
0.388885 0.388885 0.388885
0.388885 0.388885 0.388885
0.388885 0.388885 0.388885
0.388885 0.388885 0.388885
0.388885 0.388885 0.388885
0.388885 0.388885 0.388885
0.388885 0.388885 0.388885
0.388885 0.388885 0.388885
0.388885 0.388885 0.388885
0.388885 0.388885 0.388885
0.388885 0.388885 0.388885
0.388885 0.388885 0.388885
0.388885 0.388885 0.388885
0.388885 0.388885 0.388885
0.388885 0.388885 0.388885
0.388885 0.388885 0.388885
0.388885 0.388885 0.388885
0.388885 0.388885 0.388885
0.388885 0.388885 0.388885
0.388885 0.388885 0.388885
0.413757 0.413757 0.413757
0.439026 0.439026 0.439026
0.464447 0.464447 0.464447
0.489960 0.489960 0.489960
0.515289 0.515289 0.515289
0.540375 0.540375 0.540375
0.413757 0.413757 0.413757
0.413757 0.413757 0.413757
0.413757 0.413757 0.413757
0.413757 0.413757 0.413757
0.413757 0.413757 0.413757
0.413757 0.413757 0.413757
0.413757 0.413757 0.413757
0.413757 0.413757 0.413757
0.413757 0.413757 0.413757
0.413757 0.413757 0.413757
0.413757 0.413757 0.413757
0.413757 0.413757 0.413757
0.413757 0.413757 0.413757
0.413757 0.413757 0.413757
0.413757 0.413757 0.413757
0.413757 0.413757 0.413757
0.413757 0.413757 0.413757
0.413757 0.413757 0.413757
0.413757 0.413757 0.413757
0.413757 0.413757 0.413757
0.413757 0.413757 0.413757
0.413757 0.413757 0.413757
0.413757 0.413757 0.413757
0.413757 0.413757 0.413757
0.413757 0.413757 0.413757
0.413757 0.413757 0.413757
0.413757 0.413757 0.413757
0.439026 0.439026 0.439026
0.464447 0.464447 0.464447
0.489960 0.489960 0.489960
0.515289 0.515289 0.515289
0.540375 0.540375 0.540375
0.439026 0.439026 0.439026
0.439026 0.439026 0.439026
0.439026 0.439026 0.439026
0.439026 0.439026 0.439026
0.439026 0.439026 0.439026
0.439026 0.439026 0.439026
0.439026 0.439026 0.439026
0.439026 0.439026 0.439026
0.439026 0.439026 0.439026
0.439026 0.439026 0.439026
0.439026 0.439026 0.439026
0.439026 0.439026 0.439026
0.439026 0.439026 0.439026
0.439026 0.439026 0.439026
0.439026 0.439026 0.439026
0.439026 0.439026 0.439026
0.439026 0.439026 0.439026
0.439026 0.439026 0.439026
