nxshell/qtbased/image-editor/libimagevisualresult/filter_cube/black.CUBE
#Created by: Adobe Photoshop Export Color Lookup Plugin
TITLE "相机滤镜调试.psd"
#LUT size
LUT_3D_SIZE 8
#data domain
#LUT data points
DOMAIN_MIN 0.000000 0.000000 0.000000
DOMAIN_MAX 0.903226 0.903226 0.903226
0.000000 0.000000 0.000000
0.030548 0.030548 0.030548
0.080505 0.080505 0.080505
0.135681 0.135681 0.135681
0.199341 0.199341 0.199341
0.274689 0.274689 0.274689
0.364441 0.364441 0.364441
0.464447 0.464447 0.464447
0.030548 0.030548 0.030548
0.030548 0.030548 0.030548
0.080505 0.080505 0.080505
0.135681 0.135681 0.135681
0.199341 0.199341 0.199341
0.274689 0.274689 0.274689
0.364441 0.364441 0.364441
0.464447 0.464447 0.464447
0.080505 0.080505 0.080505
0.080505 0.080505 0.080505
0.080505 0.080505 0.080505
0.135681 0.135681 0.135681
0.199341 0.199341 0.199341
0.274689 0.274689 0.274689
0.364441 0.364441 0.364441
0.464447 0.464447 0.464447
0.135681 0.135681 0.135681
0.135681 0.135681 0.135681
0.135681 0.135681 0.135681
0.135681 0.135681 0.135681
0.199341 0.199341 0.199341
0.274689 0.274689 0.274689
0.364441 0.364441 0.364441
0.464447 0.464447 0.464447
0.199341 0.199341 0.199341
0.199341 0.199341 0.199341
0.199341 0.199341 0.199341
0.199341 0.199341 0.199341
0.199341 0.199341 0.199341
0.274689 0.274689 0.274689
0.364441 0.364441 0.364441
0.464447 0.464447 0.464447
0.274689 0.274689 0.274689
0.274689 0.274689 0.274689
0.274689 0.274689 0.274689
0.274689 0.274689 0.274689
0.274689 0.274689 0.274689
0.274689 0.274689 0.274689
0.364441 0.364441 0.364441
0.464447 0.464447 0.464447
0.364441 0.364441 0.364441
0.364441 0.364441 0.364441
0.364441 0.364441 0.364441
0.364441 0.364441 0.364441
0.364441 0.364441 0.364441
0.364441 0.364441 0.364441
0.364441 0.364441 0.364441
0.464447 0.464447 0.464447
0.464447 0.464447 0.464447
0.464447 0.464447 0.464447
0.464447 0.464447 0.464447
0.464447 0.464447 0.464447
0.464447 0.464447 0.464447
0.464447 0.464447 0.464447
0.464447 0.464447 0.464447
0.464447 0.464447 0.464447
0.030548 0.030548 0.030548
0.030548 0.030548 0.030548
0.080505 0.080505 0.080505
0.135681 0.135681 0.135681
0.199341 0.199341 0.199341
0.274689 0.274689 0.274689
0.364441 0.364441 0.364441
0.464447 0.464447 0.464447
0.030548 0.030548 0.030548
0.080505 0.080505 0.080505
0.135681 0.135681 0.135681
0.199341 0.199341 0.199341
0.274689 0.274689 0.274689
0.364441 0.364441 0.364441
0.464447 0.464447 0.464447
0.565002 0.565002 0.565002
0.080505 0.080505 0.080505
0.135681 0.135681 0.135681
0.135681 0.135681 0.135681
0.199341 0.199341 0.199341
0.274689 0.274689 0.274689
0.364441 0.364441 0.364441
0.464447 0.464447 0.464447
0.565002 0.565002 0.565002
0.135681 0.135681 0.135681
0.199341 0.199341 0.199341
0.199341 0.199341 0.199341
0.199341 0.199341 0.199341
0.274689 0.274689 0.274689
0.364441 0.364441 0.364441
0.464447 0.464447 0.464447
0.565002 0.565002 0.565002
0.199341 0.199341 0.199341
0.274689 0.274689 0.274689
0.274689 0.274689 0.274689
0.274689 0.274689 0.274689
0.274689 0.274689 0.274689
0.364441 0.364441 0.364441
0.464447 0.464447 0.464447
0.565002 0.565002 0.565002
0.274689 0.274689 0.274689
0.364441 0.364441 0.364441
0.364441 0.364441 0.364441
0.364441 0.364441 0.364441
0.364441 0.364441 0.364441
0.364441 0.364441 0.364441
0.464447 0.464447 0.464447
0.565002 0.565002 0.565002
0.364441 0.364441 0.364441
0.464447 0.464447 0.464447
0.464447 0.464447 0.464447
0.464447 0.464447 0.464447
0.464447 0.464447 0.464447
0.464447 0.464447 0.464447
0.464447 0.464447 0.464447
0.565002 0.565002 0.565002
0.464447 0.464447 0.464447
0.565002 0.565002 0.565002
0.565002 0.565002 0.565002
0.565002 0.565002 0.565002
0.565002 0.565002 0.565002
0.565002 0.565002 0.565002
0.565002 0.565002 0.565002
0.565002 0.565002 0.565002
0.080505 0.080505 0.080505
0.080505 0.080505 0.080505
0.080505 0.080505 0.080505
0.135681 0.135681 0.135681
0.199341 0.199341 0.199341
0.274689 0.274689 0.274689
0.364441 0.364441 0.364441
0.464447 0.464447 0.464447
0.080505 0.080505 0.080505
0.135681 0.135681 0.135681
0.135681 0.135681 0.135681
0.199341 0.199341 0.199341
0.274689 0.274689 0.274689
0.364441 0.364441 0.364441
0.464447 0.464447 0.464447
0.565002 0.565002 0.565002
0.080505 0.080505 0.080505
0.135681 0.135681 0.135681
0.199341 0.199341 0.199341
0.274689 0.274689 0.274689
0.364441 0.364441 0.364441
0.464447 0.464447 0.464447
0.565002 0.565002 0.565002
0.656616 0.656616 0.656616
0.135681 0.135681 0.135681
0.199341 0.199341 0.199341
0.274689 0.274689 0.274689
0.274689 0.274689 0.274689
0.364441 0.364441 0.364441
0.464447 0.464447 0.464447
0.565002 0.565002 0.565002
0.656616 0.656616 0.656616
0.199341 0.199341 0.199341
0.274689 0.274689 0.274689
0.364441 0.364441 0.364441
0.364441 0.364441 0.364441
0.364441 0.364441 0.364441
0.464447 0.464447 0.464447
0.565002 0.565002 0.565002
0.656616 0.656616 0.656616
0.274689 0.274689 0.274689
0.364441 0.364441 0.364441
0.464447 0.464447 0.464447
0.464447 0.464447 0.464447
0.464447 0.464447 0.464447
0.464447 0.464447 0.464447
0.565002 0.565002 0.565002
0.656616 0.656616 0.656616
0.364441 0.364441 0.364441
0.464447 0.464447 0.464447
0.565002 0.565002 0.565002
0.565002 0.565002 0.565002
0.565002 0.565002 0.565002
0.565002 0.565002 0.565002
0.565002 0.565002 0.565002
0.656616 0.656616 0.656616
0.464447 0.464447 0.464447
0.565002 0.565002 0.565002
0.656616 0.656616 0.656616
0.656616 0.656616 0.656616
0.656616 0.656616 0.656616
0.656616 0.656616 0.656616
0.656616 0.656616 0.656616
0.656616 0.656616 0.656616
0.135681 0.135681 0.135681
0.135681 0.135681 0.135681
0.135681 0.135681 0.135681
0.135681 0.135681 0.135681
0.199341 0.199341 0.199341
0.274689 0.274689 0.274689
0.364441 0.364441 0.364441
0.464447 0.464447 0.464447
0.135681 0.135681 0.135681
0.199341 0.199341 0.199341
0.199341 0.199341 0.199341
0.199341 0.199341 0.199341
0.274689 0.274689 0.274689
0.364441 0.364441 0.364441
0.464447 0.464447 0.464447
0.565002 0.565002 0.565002
0.135681 0.135681 0.135681
0.199341 0.199341 0.199341
0.274689 0.274689 0.274689
0.274689 0.274689 0.274689
0.364441 0.364441 0.364441
0.464447 0.464447 0.464447
0.565002 0.565002 0.565002
0.656616 0.656616 0.656616
0.135681 0.135681 0.135681
0.199341 0.199341 0.199341
0.274689 0.274689 0.274689
0.364441 0.364441 0.364441
0.464447 0.464447 0.464447
0.565002 0.565002 0.565002
0.656616 0.656616 0.656616
0.735901 0.735901 0.735901
0.199341 0.199341 0.199341
0.274689 0.274689 0.274689
0.364441 0.364441 0.364441
0.464447 0.464447 0.464447
0.464447 0.464447 0.464447
0.565002 0.565002 0.565002
0.656616 0.656616 0.656616
0.735901 0.735901 0.735901
0.274689 0.274689 0.274689
0.364441 0.364441 0.364441
0.464447 0.464447 0.464447
0.565002 0.565002 0.565002
0.565002 0.565002 0.565002
0.565002 0.565002 0.565002
0.656616 0.656616 0.656616
0.735901 0.735901 0.735901
0.364441 0.364441 0.364441
0.464447 0.464447 0.464447
0.565002 0.565002 0.565002
0.656616 0.656616 0.656616
0.656616 0.656616 0.656616
0.656616 0.656616 0.656616
0.656616 0.656616 0.656616
0.735901 0.735901 0.735901
0.464447 0.464447 0.464447
0.565002 0.565002 0.565002
0.656616 0.656616 0.656616
0.735901 0.735901 0.735901
0.735901 0.735901 0.735901
0.735901 0.735901 0.735901
0.735901 0.735901 0.735901
0.735901 0.735901 0.735901
0.199341 0.199341 0.199341
0.199341 0.199341 0.199341
0.199341 0.199341 0.199341
0.199341 0.199341 0.199341
0.199341 0.199341 0.199341
0.274689 0.274689 0.274689
0.364441 0.364441 0.364441
0.464447 0.464447 0.464447
0.199341 0.199341 0.199341
0.274689 0.274689 0.274689
0.274689 0.274689 0.274689
0.274689 0.274689 0.274689
0.274689 0.274689 0.274689
0.364441 0.364441 0.364441
0.464447 0.464447 0.464447
0.565002 0.565002 0.565002
0.199341 0.199341 0.199341
0.274689 0.274689 0.274689
0.364441 0.364441 0.364441
0.364441 0.364441 0.364441
0.364441 0.364441 0.364441
0.464447 0.464447 0.464447
0.565002 0.565002 0.565002
0.656616 0.656616 0.656616
0.199341 0.199341 0.199341
0.274689 0.274689 0.274689
0.364441 0.364441 0.364441
0.464447 0.464447 0.464447
0.464447 0.464447 0.464447
0.565002 0.565002 0.565002
0.656616 0.656616 0.656616
0.735901 0.735901 0.735901
0.199341 0.199341 0.199341
0.274689 0.274689 0.274689
0.364441 0.364441 0.364441
0.464447 0.464447 0.464447
0.565063 0.565063 0.565063
0.656647 0.656647 0.656647
0.735931 0.735931 0.735931
0.804962 0.804962 0.804962
0.274689 0.274689 0.274689
0.364441 0.364441 0.364441
0.464447 0.464447 0.464447
0.565002 0.565002 0.565002
0.656647 0.656647 0.656647
0.656647 0.656647 0.656647
0.735931 0.735931 0.735931
0.804962 0.804962 0.804962
0.364441 0.364441 0.364441
0.464447 0.464447 0.464447
0.565002 0.565002 0.565002
0.656616 0.656616 0.656616
0.735931 0.735931 0.735931
0.735931 0.735931 0.735931
0.735931 0.735931 0.735931
0.804962 0.804962 0.804962
0.464447 0.464447 0.464447
0.565002 0.565002 0.565002
0.656616 0.656616 0.656616
0.735901 0.735901 0.735901
0.804962 0.804962 0.804962
0.804962 0.804962 0.804962
0.804962 0.804962 0.804962
0.804962 0.804962 0.804962
0.274689 0.274689 0.274689
0.274689 0.274689 0.274689
0.274689 0.274689 0.274689
0.274689 0.274689 0.274689
0.274689 0.274689 0.274689
0.274689 0.274689 0.274689
0.364441 0.364441 0.364441
0.464447 0.464447 0.464447
0.274689 0.274689 0.274689
0.364441 0.364441 0.364441
0.364441 0.364441 0.364441
0.364441 0.364441 0.364441
0.364441 0.364441 0.364441
0.364441 0.364441 0.364441
0.464447 0.464447 0.464447
0.565002 0.565002 0.565002
0.274689 0.274689 0.274689
0.364441 0.364441 0.364441
0.464447 0.464447 0.464447
0.464447 0.464447 0.464447
0.464447 0.464447 0.464447
0.464447 0.464447 0.464447
0.565002 0.565002 0.565002
0.656616 0.656616 0.656616
0.274689 0.274689 0.274689
0.364441 0.364441 0.364441
0.464447 0.464447 0.464447
0.565002 0.565002 0.565002
0.565002 0.565002 0.565002
0.565002 0.565002 0.565002
0.656616 0.656616 0.656616
0.735901 0.735901 0.735901
0.274689 0.274689 0.274689
0.364441 0.364441 0.364441
0.464447 0.464447 0.464447
0.565002 0.565002 0.565002
0.656647 0.656647 0.656647
0.656647 0.656647 0.656647
0.735931 0.735931 0.735931
0.804962 0.804962 0.804962
0.274689 0.274689 0.274689
0.364441 0.364441 0.364441
0.464447 0.464447 0.464447
0.565002 0.565002 0.565002
0.656647 0.656647 0.656647
0.735931 0.735931 0.735931
0.804962 0.804962 0.804962
0.866028 0.866028 0.866028
0.364441 0.364441 0.364441
0.464447 0.464447 0.464447
0.565002 0.565002 0.565002
0.656616 0.656616 0.656616
0.735931 0.735931 0.735931
0.804962 0.804962 0.804962
0.804962 0.804962 0.804962
0.866028 0.866028 0.866028
0.464447 0.464447 0.464447
0.565002 0.565002 0.565002
0.656616 0.656616 0.656616
0.735901 0.735901 0.735901
0.804962 0.804962 0.804962
0.866028 0.866028 0.866028
0.866028 0.866028 0.866028
0.866028 0.866028 0.866028
0.364441 0.364441 0.364441
0.364441 0.364441 0.364441
0.364441 0.364441 0.364441
0.364441 0.364441 0.364441
0.364441 0.364441 0.364441
0.364441 0.364441 0.364441
0.364441 0.364441 0.364441
0.464447 0.464447 0.464447
0.364441 0.364441 0.364441
0.464447 0.464447 0.464447
0.464447 0.464447 0.464447
0.464447 0.464447 0.464447
0.464447 0.464447 0.464447
0.464447 0.464447 0.464447
0.464447 0.464447 0.464447
0.565002 0.565002 0.565002
0.364441 0.364441 0.364441
0.464447 0.464447 0.464447
0.565002 0.565002 0.565002
0.565002 0.565002 0.565002
0.565002 0.565002 0.565002
0.565002 0.565002 0.565002
0.565002 0.565002 0.565002
0.656616 0.656616 0.656616
0.364441 0.364441 0.364441
0.464447 0.464447 0.464447
0.565002 0.565002 0.565002
0.656616 0.656616 0.656616
0.656616 0.656616 0.656616
0.656616 0.656616 0.656616
0.656616 0.656616 0.656616
0.735901 0.735901 0.735901
0.364441 0.364441 0.364441
0.464447 0.464447 0.464447
0.565002 0.565002 0.565002
0.656616 0.656616 0.656616
0.735931 0.735931 0.735931
0.735931 0.735931 0.735931
0.735931 0.735931 0.735931
0.804962 0.804962 0.804962
0.364441 0.364441 0.364441
0.464447 0.464447 0.464447
0.565002 0.565002 0.565002
0.656616 0.656616 0.656616
0.735931 0.735931 0.735931
0.804962 0.804962 0.804962
0.804962 0.804962 0.804962
0.866028 0.866028 0.866028
0.364441 0.364441 0.364441
0.464447 0.464447 0.464447
0.565002 0.565002 0.565002
0.656616 0.656616 0.656616
0.735931 0.735931 0.735931
0.804962 0.804962 0.804962
0.866028 0.866028 0.866028
0.921356 0.921356 0.921356
0.464447 0.464447 0.464447
0.565002 0.565002 0.565002
0.656616 0.656616 0.656616
0.735901 0.735901 0.735901
0.804962 0.804962 0.804962
0.866028 0.866028 0.866028
0.921356 0.921356 0.921356
0.921356 0.921356 0.921356
0.464447 0.464447 0.464447
0.464447 0.464447 0.464447
0.464447 0.464447 0.464447
0.464447 0.464447 0.464447
0.464447 0.464447 0.464447
0.464447 0.464447 0.464447
0.464447 0.464447 0.464447
0.464447 0.464447 0.464447
0.464447 0.464447 0.464447
0.565002 0.565002 0.565002
0.565002 0.565002 0.565002
0.565002 0.565002 0.565002
0.565002 0.565002 0.565002
0.565002 0.565002 0.565002
0.565002 0.565002 0.565002
0.565002 0.565002 0.565002
0.464447 0.464447 0.464447
0.565002 0.565002 0.565002
0.656616 0.656616 0.656616
0.656616 0.656616 0.656616
0.656616 0.656616 0.656616
0.656616 0.656616 0.656616
0.656616 0.656616 0.656616
0.656616 0.656616 0.656616
0.464447 0.464447 0.464447
0.565002 0.565002 0.565002
0.656616 0.656616 0.656616
0.735901 0.735901 0.735901
0.735901 0.735901 0.735901
0.735901 0.735901 0.735901
0.735901 0.735901 0.735901
0.735901 0.735901 0.735901
0.464447 0.464447 0.464447
0.565002 0.565002 0.565002
0.656616 0.656616 0.656616
0.735901 0.735901 0.735901
0.804962 0.804962 0.804962
0.804962 0.804962 0.804962
0.804962 0.804962 0.804962
0.804962 0.804962 0.804962
0.464447 0.464447 0.464447
0.565002 0.565002 0.565002
0.656616 0.656616 0.656616
0.735901 0.735901 0.735901
0.804962 0.804962 0.804962
0.866028 0.866028 0.866028
0.866028 0.866028 0.866028
0.866028 0.866028 0.866028
0.464447 0.464447 0.464447
0.565002 0.565002 0.565002
0.656616 0.656616 0.656616
0.735901 0.735901 0.735901
0.804962 0.804962 0.804962
0.866028 0.866028 0.866028
0.921356 0.921356 0.921356
0.921356 0.921356 0.921356
0.464447 0.464447 0.464447
0.565002 0.565002 0.565002
0.656616 0.656616 0.656616
0.735901 0.735901 0.735901
0.804962 0.804962 0.804962
0.866028 0.866028 0.866028
0.921356 0.921356 0.921356
0.973267 0.973267 0.973267
