nxshell/qtbased/image-editor/libimagevisualresult/filter_cube/classic.CUBE
#Created by: Adobe Photoshop Export Color Lookup Plugin
TITLE "相机滤镜调试.psd"
#LUT size
LUT_3D_SIZE 32
#data domain
DOMAIN_MIN 0.0 0.0 0.0
DOMAIN_MAX 1.0 1.0 1.0
#LUT data points
0.000000 0.000000 0.000000
0.000000 0.000000 0.000000
0.000000 0.000000 0.000000
0.000000 0.000000 0.000000
0.000000 0.000000 0.000000
0.000000 0.000000 0.000000
0.038330 0.000000 0.000000
0.101105 0.000000 0.000000
0.158386 0.000000 0.000000
0.212189 0.000000 0.000000
0.262787 0.000000 0.000000
0.311218 0.000000 0.000000
0.357666 0.000000 0.000000
0.402344 0.000000 0.000000
0.445587 0.000000 0.000000
0.487427 0.000000 0.000000
0.528137 0.000000 0.000000
0.567963 0.000000 0.000000
0.606567 0.000000 0.000000
0.644440 0.000000 0.000000
0.681549 0.000000 0.000000
0.717590 0.000000 0.000000
0.753143 0.000000 0.000000
0.788116 0.000000 0.000000
0.822388 0.000000 0.000000
0.856110 0.000000 0.000000
0.889221 0.000000 0.000000
0.921783 0.000000 0.000000
0.954010 0.000000 0.000000
0.985840 0.000000 0.000000
1.000000 0.000000 0.000000
1.000000 0.000000 0.000000
0.000000 0.000000 0.000000
0.000000 0.000000 0.000000
0.000000 0.000000 0.000000
0.000000 0.000000 0.000000
0.000000 0.000000 0.000000
0.000000 0.000000 0.000000
0.038330 0.000000 0.000000
0.101105 0.000000 0.000000
0.158386 0.000000 0.000000
0.212189 0.000000 0.000000
0.262787 0.000000 0.000000
0.311218 0.000000 0.000000
0.357666 0.000000 0.000000
0.402344 0.000000 0.000000
0.445587 0.000000 0.000000
0.487427 0.000000 0.000000
0.528137 0.000000 0.000000
0.567963 0.000000 0.000000
0.606567 0.000000 0.000000
0.644440 0.000000 0.000000
0.681549 0.000000 0.000000
0.717590 0.000000 0.000000
0.753143 0.000000 0.000000
0.788116 0.000000 0.000000
0.822388 0.000000 0.000000
0.856110 0.000000 0.000000
0.889221 0.000000 0.000000
0.921783 0.000000 0.000000
0.954010 0.000000 0.000000
0.985840 0.000000 0.000000
1.000000 0.000000 0.000000
1.000000 0.000000 0.000000
0.000000 0.000000 0.000000
0.000000 0.000000 0.000000
0.000000 0.000000 0.000000
0.000000 0.000000 0.000000
0.000000 0.000000 0.000000
0.000000 0.000000 0.000000
0.038330 0.000000 0.000000
0.101105 0.000000 0.000000
0.158386 0.000000 0.000000
0.212189 0.000000 0.000000
0.262787 0.000000 0.000000
0.311218 0.000000 0.000000
0.357666 0.000000 0.000000
0.402344 0.000000 0.000000
0.445587 0.000000 0.000000
0.487427 0.000000 0.000000
0.528137 0.000000 0.000000
0.567963 0.000000 0.000000
0.606567 0.000000 0.000000
0.644440 0.000000 0.000000
0.681549 0.000000 0.000000
0.717590 0.000000 0.000000
0.753143 0.000000 0.000000
0.788116 0.000000 0.000000
0.822388 0.000000 0.000000
0.856110 0.000000 0.000000
0.889221 0.000000 0.000000
0.921783 0.000000 0.000000
0.954010 0.000000 0.000000
0.985840 0.001526 0.000000
1.000000 0.013153 0.000000
1.000000 0.023926 0.000000
0.000000 0.000000 0.000000
0.000000 0.000000 0.000000
0.000000 0.000000 0.000000
0.000000 0.000000 0.000000
0.000000 0.000000 0.000000
0.000000 0.000000 0.000000
0.038330 0.000000 0.000000
0.101105 0.000000 0.000000
0.158386 0.000000 0.000000
0.212189 0.000000 0.000000
0.262787 0.000000 0.000000
0.311218 0.000000 0.000000
0.357666 0.000000 0.000000
0.402344 0.000000 0.000000
0.445587 0.000000 0.000000
0.487427 0.000000 0.000000
0.528137 0.000000 0.000000
0.567963 0.000000 0.000000
0.606567 0.000000 0.000000
0.644440 0.000000 0.000000
0.681549 0.000000 0.000000
0.717590 0.000000 0.000000
0.753143 0.000000 0.000000
0.788116 0.000000 0.000000
0.822388 0.000000 0.000000
0.856110 0.010559 0.000000
0.889221 0.022247 0.000000
0.921783 0.033020 0.000000
0.954010 0.043823 0.000000
0.985840 0.054138 0.000000
1.000000 0.064209 0.000000
1.000000 0.074158 0.000000
0.000000 0.000000 0.000000
0.000000 0.000000 0.000000
0.000000 0.000000 0.000000
0.000000 0.000000 0.000000
0.000000 0.000000 0.000000
0.000000 0.000000 0.000000
0.038330 0.000000 0.000000
0.101105 0.000000 0.000000
0.158386 0.000000 0.000000
0.212189 0.000000 0.000000
0.262787 0.000000 0.000000
0.311218 0.000000 0.000000
0.357666 0.000000 0.000000
0.402344 0.000000 0.000000
0.445587 0.000000 0.000000
0.487427 0.000000 0.000000
0.528137 0.000000 0.000000
0.567963 0.000000 0.000000
0.606567 0.000000 0.000000
0.644440 0.000000 0.000000
0.681549 0.001251 0.000000
0.717590 0.014679 0.000000
0.753143 0.026825 0.000000
0.788116 0.038208 0.000000
0.822388 0.049438 0.000000
0.856110 0.059937 0.000000
0.889221 0.070557 0.000000
0.921783 0.080658 0.000000
0.954010 0.090820 0.000000
0.985840 0.100494 0.000000
1.000000 0.110321 0.000000
1.000000 0.119751 0.000000
0.000000 0.000000 0.000000
0.000000 0.000000 0.000000
0.000000 0.000000 0.000000
0.000000 0.000000 0.000000
0.000000 0.000000 0.000000
0.000000 0.000000 0.000000
0.038330 0.000000 0.000000
0.101105 0.000000 0.000000
0.158386 0.000000 0.000000
0.212189 0.000000 0.000000
0.262787 0.000000 0.000000
0.311218 0.000000 0.000000
0.357666 0.000000 0.000000
0.402344 0.000000 0.000000
0.445587 0.000000 0.000000
0.487427 0.000000 0.000000
0.528137 0.000000 0.000000
0.567963 0.013672 0.000000
0.606567 0.026764 0.000000
0.644440 0.039032 0.000000
0.681549 0.050568 0.000000
0.717590 0.062195 0.000000
0.753143 0.073273 0.000000
0.788116 0.084076 0.000000
0.822388 0.094788 0.000000
0.856110 0.105133 0.000000
0.889221 0.115234 0.000000
0.921783 0.125031 0.000000
0.954010 0.134918 0.000000
0.985840 0.144531 0.000000
1.000000 0.153900 0.000000
1.000000 0.163177 0.000000
0.000000 0.000000 0.000000
0.000000 0.000000 0.000000
0.000000 0.000000 0.000000
0.000000 0.000000 0.000000
0.000000 0.000000 0.000000
0.000000 0.000000 0.000000
0.038330 0.000000 0.000000
0.101105 0.000000 0.000000
0.158386 0.000000 0.000000
0.212189 0.000000 0.000000
0.262787 0.000000 0.000000
0.311218 0.000000 0.000000
0.357666 0.000000 0.000000
0.402344 0.007141 0.000000
0.445587 0.021698 0.000000
0.487427 0.035248 0.000000
0.528137 0.048157 0.000000
0.567963 0.060120 0.000000
0.606567 0.072357 0.000000
0.644440 0.083801 0.000000
0.681549 0.095154 0.000000
0.717590 0.105988 0.000000
0.753143 0.116913 0.000000
0.788116 0.127411 0.000000
0.822388 0.137543 0.000000
0.856110 0.147736 0.000000
0.889221 0.157593 0.000000
0.921783 0.166992 0.000000
0.954010 0.176544 0.000000
0.985840 0.186218 0.000000
1.000000 0.195496 0.000000
1.000000 0.204773 0.000000
0.000000 0.000000 0.000000
0.000000 0.000000 0.000000
0.000000 0.000000 0.000000
0.000000 0.000000 0.000000
0.000000 0.000000 0.000000
0.000000 0.000000 0.000000
0.038330 0.000000 0.000000
0.101105 0.000000 0.000000
0.158386 0.000000 0.000000
0.212189 0.000000 0.000000
0.262787 0.010101 0.000000
0.311218 0.025787 0.000000
0.357666 0.039978 0.000000
0.402344 0.053833 0.000000
0.445587 0.066895 0.000000
0.487427 0.079559 0.000000
0.528137 0.091644 0.000000
0.567963 0.103516 0.000000
0.606567 0.115051 0.000000
0.644440 0.126343 0.000000
0.681549 0.137268 0.000000
0.717590 0.148010 0.000000
0.753143 0.158386 0.000000
0.788116 0.168762 0.000000
0.822388 0.178619 0.000000
0.856110 0.188690 0.000000
0.889221 0.198303 0.000000
0.921783 0.207977 0.000000
0.954010 0.217285 0.000000
0.985840 0.226593 0.000000
1.000000 0.235901 0.000000
1.000000 0.244965 0.000000
0.000000 0.000000 0.000000
0.000000 0.000000 0.000000
0.000000 0.000000 0.000000
0.000000 0.000000 0.000000
0.000000 0.000000 0.000000
0.000000 0.000000 0.000000
0.038330 0.000000 0.000000
0.101105 0.006836 0.000000
0.158386 0.024628 0.000000
0.212189 0.040558 0.000000
0.262787 0.055664 0.000000
0.311218 0.069946 0.000000
0.357666 0.083374 0.000000
0.402344 0.096497 0.000000
0.445587 0.109192 0.000000
0.487427 0.121277 0.000000
0.528137 0.133118 0.000000
0.567963 0.144775 0.000000
0.606567 0.155975 0.000000
0.644440 0.166840 0.000000
0.681549 0.177582 0.000000
0.717590 0.188263 0.000000
0.753143 0.198425 0.000000
0.788116 0.208618 0.000000
0.822388 0.218475 0.000000
0.856110 0.228302 0.000000
0.889221 0.238037 0.000000
0.921783 0.247528 0.000000
0.954010 0.256653 0.000000
0.985840 0.265991 0.000000
1.000000 0.274902 0.000000
1.000000 0.283844 0.000000
0.000000 0.034027 0.000000
0.000000 0.034027 0.000000
0.000000 0.034027 0.000000
0.000000 0.034027 0.000000
0.000000 0.034027 0.000000
0.000000 0.034027 0.000000
0.038330 0.035187 0.000000
0.101105 0.052246 0.000000
0.158386 0.068268 0.000000
0.212189 0.083313 0.000000
0.262787 0.097687 0.000000
0.311218 0.111328 0.000000
0.357666 0.124481 0.000000
0.402344 0.137390 0.000000
0.445587 0.149567 0.000000
0.487427 0.161499 0.000000
0.528137 0.173340 0.000000
0.567963 0.184662 0.000000
0.606567 0.195496 0.000000
0.644440 0.206390 0.000000
0.681549 0.217102 0.000000
0.717590 0.227295 0.000000
0.753143 0.237640 0.000000
0.788116 0.247742 0.000000
0.822388 0.257385 0.000000
0.856110 0.267151 0.000000
0.889221 0.276550 0.000000
0.921783 0.285889 0.000000
0.954010 0.295349 0.000000
0.985840 0.304352 0.000000
1.000000 0.313263 0.000000
1.000000 0.322174 0.000000
0.000000 0.091156 0.000000
0.000000 0.091156 0.000000
0.000000 0.091156 0.000000
0.000000 0.091156 0.000000
0.000000 0.091156 0.000000
0.000000 0.091156 0.000000
0.052460 0.091156 0.000000
0.101105 0.093933 0.000000
0.158386 0.109344 0.000000
0.212189 0.123962 0.000000
0.262787 0.137909 0.000000
0.311218 0.151306 0.000000
0.357666 0.164154 0.000000
0.402344 0.176605 0.000000
0.445587 0.188843 0.000000
0.487427 0.200592 0.000000
0.528137 0.212128 0.000000
0.567963 0.223145 0.000000
0.606567 0.234100 0.000000
0.644440 0.244843 0.000000
0.681549 0.255463 0.000000
0.717590 0.265656 0.000000
0.753143 0.275787 0.000000
0.788116 0.285706 0.000000
0.822388 0.295410 0.000000
0.856110 0.304901 0.000000
0.889221 0.314453 0.000000
0.921783 0.323639 0.000000
0.954010 0.332794 0.000000
0.985840 0.341644 0.000000
1.000000 0.350616 0.000000
1.000000 0.359558 0.000000
0.000000 0.145355 0.000000
0.000000 0.145355 0.000000
0.000000 0.145355 0.000000
0.000000 0.145355 0.000000
0.000000 0.145355 0.000000
0.016815 0.145355 0.000000
0.067505 0.145355 0.000000
0.112976 0.145355 0.000000
0.158386 0.148651 0.000000
0.212189 0.163177 0.000000
0.262787 0.176819 0.000000
0.311218 0.190033 0.000000
0.357666 0.202911 0.000000
0.402344 0.215118 0.000000
0.445587 0.227051 0.000000
0.487427 0.238647 0.000000
0.528137 0.250061 0.000000
0.567963 0.260895 0.000000
0.606567 0.271851 0.000000
0.644440 0.282410 0.000000
0.681549 0.292938 0.000000
0.717590 0.302979 0.000000
0.753143 0.313019 0.000000
0.788116 0.322845 0.000000
0.822388 0.332581 0.000000
0.856110 0.341827 0.000000
0.889221 0.351227 0.000000
0.921783 0.360291 0.000000
0.954010 0.369537 0.000000
0.985840 0.378326 0.000000
1.000000 0.387115 0.000000
1.000000 0.395844 0.000000
0.000000 0.197357 0.000000
0.000000 0.197357 0.000000
0.000000 0.197357 0.000000
0.000000 0.197357 0.000000
0.000000 0.197357 0.000000
0.032379 0.197357 0.000000
0.082092 0.197357 0.000000
0.127075 0.197357 0.000000
0.168823 0.197357 0.000000
0.212189 0.201355 0.000000
0.262787 0.214783 0.000000
0.311218 0.227844 0.000000
0.357666 0.240417 0.000000
0.402344 0.252441 0.000000
0.445587 0.264465 0.000000
0.487427 0.276001 0.000000
0.528137 0.287201 0.000000
0.567963 0.297943 0.000000
0.606567 0.308868 0.000000
0.644440 0.319214 0.000000
0.681549 0.329681 0.000000
0.717590 0.339783 0.000000
0.753143 0.349548 0.000000
0.788116 0.359436 0.000000
0.822388 0.368805 0.000000
0.856110 0.378204 0.000000
0.889221 0.387543 0.000000
0.921783 0.396698 0.000000
0.954010 0.405701 0.000000
0.985840 0.414490 0.000000
1.000000 0.423279 0.000000
1.000000 0.431885 0.000000
0.000000 0.248169 0.000000
0.000000 0.248169 0.000000
0.000000 0.248169 0.000000
0.000000 0.248169 0.000000
0.000000 0.248169 0.000000
0.047577 0.248169 0.000000
0.096497 0.248169 0.000000
0.140869 0.248169 0.000000
0.182465 0.248169 0.000000
0.221649 0.248169 0.000000
0.262787 0.252014 0.000000
0.311218 0.264923 0.000000
0.357666 0.277405 0.000000
0.402344 0.289246 0.000000
0.445587 0.301178 0.000000
0.487427 0.312531 0.000000
0.528137 0.323730 0.000000
0.567963 0.334503 0.000000
0.606567 0.345154 0.000000
0.644440 0.355530 0.000000
0.681549 0.365692 0.000000
0.717590 0.375824 0.000000
0.753143 0.385590 0.000000
0.788116 0.395294 0.000000
0.822388 0.404724 0.000000
0.856110 0.414062 0.000000
0.889221 0.423340 0.000000
0.921783 0.432312 0.000000
0.954010 0.441437 0.000000
0.985840 0.450195 0.000000
1.000000 0.458923 0.000000
1.000000 0.467468 0.000000
0.000000 0.297516 0.000000
0.000000 0.297516 0.000000
0.000000 0.297516 0.000000
0.000000 0.297516 0.000000
0.006561 0.297516 0.000000
0.062134 0.297516 0.000000
0.110321 0.297516 0.000000
0.154694 0.297516 0.000000
0.195740 0.297516 0.000000
0.234802 0.297516 0.000000
0.272003 0.297516 0.000000
0.311218 0.301178 0.000000
0.357666 0.313629 0.000000
0.402344 0.325439 0.000000
0.445587 0.337097 0.000000
0.487427 0.348450 0.000000
0.528137 0.359589 0.000000
0.567963 0.370148 0.000000
0.606567 0.380768 0.000000
0.644440 0.391205 0.000000
0.681549 0.401306 0.000000
0.717590 0.411285 0.000000
0.753143 0.421173 0.000000
0.788116 0.430725 0.000000
0.822388 0.439911 0.000000
0.856110 0.449280 0.000000
0.889221 0.458435 0.000000
0.921783 0.467468 0.000000
0.954010 0.476379 0.000000
0.985840 0.485138 0.000000
1.000000 0.493835 0.000000
1.000000 0.502502 0.000000
0.000000 0.346191 0.000000
0.000000 0.346191 0.000000
0.000000 0.346191 0.000000
0.000000 0.346191 0.000000
0.022522 0.346191 0.000000
0.076508 0.346191 0.000000
0.124237 0.346191 0.000000
0.168030 0.346191 0.000000
0.209076 0.346191 0.000000
0.248047 0.346191 0.000000
0.285095 0.346191 0.000000
0.320496 0.346191 0.000000
0.357666 0.349182 0.000000
0.402344 0.360962 0.000000
0.445587 0.372528 0.000000
0.487427 0.383942 0.000000
0.528137 0.394989 0.000000
0.567963 0.405396 0.000000
0.606567 0.415955 0.000000
0.644440 0.426178 0.000000
0.681549 0.436401 0.000000
0.717590 0.446198 0.000000
0.753143 0.456024 0.000000
0.788116 0.465546 0.000000
0.822388 0.474854 0.000000
0.856110 0.484070 0.000000
0.889221 0.493286 0.000000
0.921783 0.502228 0.000000
0.954010 0.511139 0.000000
0.985840 0.519897 0.000000
1.000000 0.528564 0.000000
1.000000 0.537140 0.000000
0.000000 0.394012 0.000000
0.000000 0.394012 0.000000
0.000000 0.394012 0.000000
0.000000 0.394012 0.000000
0.037781 0.394012 0.000000
0.090363 0.394012 0.000000
0.137909 0.394012 0.000000
0.181396 0.394012 0.000000
0.222351 0.394012 0.000000
0.260773 0.394012 0.000000
0.297821 0.394012 0.000000
0.333069 0.394012 0.000000
0.367340 0.394012 0.000000
0.402344 0.395966 0.000000
0.445587 0.407562 0.000000
0.487427 0.418854 0.000000
0.528137 0.429749 0.000000
0.567963 0.440216 0.000000
0.606567 0.450775 0.000000
0.644440 0.461029 0.000000
0.681549 0.470947 0.000000
0.717590 0.480743 0.000000
0.753143 0.490540 0.000000
0.788116 0.500183 0.000000
0.822388 0.509583 0.000000
0.856110 0.518585 0.000000
0.889221 0.527649 0.000000
0.921783 0.536560 0.000000
0.954010 0.545258 0.000000
0.985840 0.553986 0.000000
1.000000 0.562561 0.000000
1.000000 0.571167 0.000000
0.000000 0.440826 0.000000
0.000000 0.440826 0.000000
0.000000 0.440826 0.000000
0.000000 0.440826 0.000000
0.052094 0.440826 0.000000
0.104187 0.440826 0.000000
0.151062 0.440826 0.000000
0.194641 0.440826 0.000000
0.235107 0.440826 0.000000
0.273804 0.440826 0.000000
0.310547 0.440826 0.000000
0.345886 0.440826 0.000000
0.379730 0.440826 0.000000
0.412598 0.440826 0.000000
0.445587 0.442078 0.000000
0.487427 0.453247 0.000000
0.528137 0.464172 0.000000
0.567963 0.474731 0.000000
0.606567 0.484955 0.000000
0.644440 0.495270 0.000000
0.681549 0.505096 0.000000
0.717590 0.514954 0.000000
0.753143 0.524689 0.000000
0.788116 0.534119 0.000000
0.822388 0.543579 0.000000
0.856110 0.552551 0.000000
0.889221 0.561584 0.000000
0.921783 0.570679 0.000000
0.954010 0.579407 0.000000
0.985840 0.588135 0.000000
1.000000 0.596680 0.000000
1.000000 0.605133 0.000000
0.000000 0.487183 0.000000
0.000000 0.487183 0.000000
0.000000 0.487183 0.000000
0.006104 0.487183 0.000000
0.066284 0.487183 0.000000
0.117737 0.487183 0.000000
0.164307 0.487183 0.000000
0.207367 0.487183 0.000000
0.248047 0.487183 0.000000
0.286469 0.487183 0.000000
0.323090 0.487183 0.000000
0.358276 0.487183 0.000000
0.392059 0.487183 0.000000
0.424866 0.487183 0.000000
0.456635 0.487183 0.000000
0.487427 0.487244 0.000000
0.528137 0.498016 0.000000
0.567963 0.508667 0.000000
0.606567 0.518860 0.000000
0.644440 0.528931 0.000000
0.681549 0.538879 0.000000
0.717590 0.548767 0.000000
0.753143 0.558167 0.000000
0.788116 0.567719 0.000000
0.822388 0.576904 0.000000
0.856110 0.586090 0.000000
0.889221 0.595245 0.000000
0.921783 0.603973 0.000000
0.954010 0.612701 0.000000
0.985840 0.621429 0.000000
1.000000 0.629913 0.000000
1.000000 0.638519 0.000000
0.000000 0.532928 0.000000
0.000000 0.532928 0.000000
0.000000 0.532928 0.000000
0.021484 0.532928 0.000000
0.080048 0.532928 0.000000
0.130951 0.532928 0.000000
0.177216 0.532928 0.000000
0.220306 0.532928 0.000000
0.260590 0.532928 0.000000
0.298950 0.532928 0.000000
0.335480 0.532928 0.000000
0.370575 0.532928 0.000000
0.404358 0.532928 0.000000
0.437012 0.532928 0.000000
0.468628 0.532928 0.000000
0.499573 0.532928 0.000000
0.529358 0.532928 0.000000
0.567963 0.542267 0.000000
0.606567 0.552551 0.000000
0.644440 0.562469 0.000000
0.681549 0.572296 0.000000
0.717590 0.581940 0.000000
0.753143 0.591522 0.000000
0.788116 0.600952 0.000000
0.822388 0.610168 0.000000
0.856110 0.619537 0.000000
0.889221 0.628387 0.000000
0.921783 0.637085 0.000000
0.954010 0.645874 0.000000
0.985840 0.654572 0.000000
1.000000 0.662964 0.000000
1.000000 0.671478 0.000000
0.000000 0.578094 0.000000
0.000000 0.578094 0.000000
0.000000 0.578094 0.000000
0.036407 0.578094 0.000000
0.093597 0.578094 0.000000
0.144135 0.578094 0.000000
0.190216 0.578094 0.000000
0.232788 0.578094 0.000000
0.273285 0.578094 0.000000
0.311340 0.578094 0.000000
0.347961 0.578094 0.000000
0.382721 0.578094 0.000000
0.416565 0.578094 0.000000
0.449036 0.578094 0.000000
0.480865 0.578094 0.000000
0.511292 0.578094 0.000000
0.541504 0.578094 0.000000
0.570618 0.578094 0.000000
0.606567 0.585541 0.000000
0.644440 0.595612 0.000000
0.681549 0.605621 0.000000
0.717590 0.615051 0.000000
0.753143 0.624542 0.000000
0.788116 0.634033 0.000000
0.822388 0.643036 0.000000
0.856110 0.652344 0.000000
0.889221 0.661316 0.000000
0.921783 0.670135 0.000000
0.954010 0.678680 0.000000
0.985840 0.687347 0.000000
1.000000 0.695679 0.000000
1.000000 0.704102 0.000000
0.000000 0.622803 0.000000
0.000000 0.622803 0.000000
0.000000 0.622803 0.000000
0.050262 0.622803 0.000000
0.107208 0.622803 0.000000
0.157288 0.622803 0.000000
0.203094 0.622803 0.000000
0.245514 0.622803 0.000000
0.285828 0.622803 0.000000
0.323761 0.622803 0.000000
0.359985 0.622803 0.000000
0.395111 0.622803 0.000000
0.428802 0.622803 0.000000
0.461029 0.622803 0.000000
0.492706 0.622803 0.000000
0.523438 0.622803 0.000000
0.553406 0.622803 0.000000
0.582428 0.622803 0.000000
0.610931 0.622803 0.000000
0.644440 0.628510 0.000000
0.681549 0.638336 0.000000
0.717590 0.648041 0.000000
0.753143 0.657471 0.000000
0.788116 0.666565 0.000000
0.822388 0.675812 0.000000
0.856110 0.684784 0.000000
0.889221 0.693604 0.000000
0.921783 0.702515 0.000000
0.954010 0.711121 0.000000
0.985840 0.719757 0.000000
1.000000 0.728333 0.000000
1.000000 0.736542 0.000000
0.000000 0.666779 0.000000
0.000000 0.666779 0.000000
0.000000 0.666779 0.000000
0.064362 0.666779 0.000000
0.120270 0.666779 0.000000
0.169922 0.666779 0.000000
0.215485 0.666779 0.000000
0.258087 0.666779 0.000000
0.297821 0.666779 0.000000
0.335907 0.666779 0.000000
0.372284 0.666779 0.000000
0.407074 0.666779 0.000000
0.440521 0.666779 0.000000
0.473114 0.666779 0.000000
0.504547 0.666779 0.000000
0.535248 0.666779 0.000000
0.564911 0.666779 0.000000
0.594208 0.666779 0.000000
0.622742 0.666779 0.000000
0.650269 0.666779 0.000000
0.681549 0.670776 0.000000
0.717590 0.680450 0.000000
0.753143 0.689819 0.000000
0.788116 0.699219 0.000000
0.822388 0.708252 0.000000
0.856110 0.717316 0.000000
0.889221 0.725952 0.000000
0.921783 0.734802 0.000000
0.954010 0.743439 0.000000
0.985840 0.751801 0.000000
1.000000 0.760315 0.000000
1.000000 0.768738 0.000000
0.000000 0.710510 0.000000
0.000000 0.710510 0.000000
0.005188 0.710510 0.000000
0.077881 0.710510 0.000000
0.133118 0.710510 0.000000
0.182648 0.710510 0.000000
0.228119 0.710510 0.000000
0.270233 0.710510 0.000000
0.310181 0.710510 0.000000
0.348206 0.710510 0.000000
0.384430 0.710510 0.000000
0.419098 0.710510 0.000000
0.452484 0.710510 0.000000
0.484894 0.710510 0.000000
0.516449 0.710510 0.000000
0.546844 0.710510 0.000000
0.576721 0.710510 0.000000
0.605835 0.710510 0.000000
0.634216 0.710510 0.000000
0.661926 0.710510 0.000000
0.689301 0.710510 0.000000
0.717590 0.712311 0.000000
0.753143 0.721863 0.000000
0.788116 0.731049 0.000000
0.822388 0.740326 0.000000
0.856110 0.749420 0.000000
0.889221 0.758240 0.000000
0.921783 0.766754 0.000000
0.954010 0.775421 0.000000
0.985840 0.783997 0.000000
1.000000 0.792358 0.000000
1.000000 0.800690 0.000000
0.000000 0.753967 0.000000
0.000000 0.753967 0.000000
0.020050 0.753967 0.000000
0.091095 0.753967 0.000000
0.146362 0.753967 0.000000
0.195251 0.753967 0.000000
0.240540 0.753967 0.000000
0.282532 0.753967 0.000000
0.322540 0.753967 0.000000
0.360107 0.753967 0.000000
0.396088 0.753967 0.000000
0.430969 0.753967 0.000000
0.464508 0.753967 0.000000
0.496765 0.753967 0.000000
0.527985 0.753967 0.000000
0.558624 0.753967 0.000000
0.588318 0.753967 0.000000
0.617432 0.753967 0.000000
0.645813 0.753967 0.000000
0.673645 0.753967 0.000000
0.700592 0.753967 0.000000
0.727173 0.753967 0.000000
0.753326 0.753967 0.000000
0.788116 0.763092 0.000000
0.822388 0.772095 0.000000
0.856110 0.781097 0.000000
0.889221 0.789795 0.000000
0.921783 0.798615 0.000000
0.954010 0.807312 0.000000
0.985840 0.815552 0.000000
1.000000 0.824127 0.000000
1.000000 0.832336 0.000000
0.000000 0.796936 0.000000
0.000000 0.796936 0.000000
0.034515 0.796936 0.000000
0.104248 0.796936 0.000000
0.158844 0.796936 0.000000
0.207794 0.796936 0.000000
0.252747 0.796936 0.000000
0.294800 0.796936 0.000000
0.334259 0.796936 0.000000
0.371979 0.796936 0.000000
0.408112 0.796936 0.000000
0.442810 0.796936 0.000000
0.476135 0.796936 0.000000
0.508667 0.796936 0.000000
0.539825 0.796936 0.000000
0.570496 0.796936 0.000000
0.600067 0.796936 0.000000
0.629150 0.796936 0.000000
0.657379 0.796936 0.000000
0.684906 0.796936 0.000000
0.712158 0.796936 0.000000
0.738800 0.796936 0.000000
0.764771 0.796936 0.000000
0.790497 0.796936 0.000000
0.822388 0.803528 0.000000
0.856110 0.812500 0.000000
0.889221 0.821320 0.000000
0.921783 0.829895 0.000000
0.954010 0.838562 0.000000
0.985840 0.847107 0.000000
1.000000 0.855316 0.000000
1.000000 0.863678 0.000000
0.000000 0.839569 0.000000
0.000000 0.839569 0.000000
0.048706 0.839569 0.000000
0.117279 0.839569 0.000000
0.171478 0.839569 0.000000
0.220367 0.839569 0.000000
0.265045 0.839569 0.000000
0.306702 0.839569 0.000000
0.346558 0.839569 0.000000
0.384125 0.839569 0.000000
0.419952 0.839569 0.000000
0.454651 0.839569 0.000000
0.487946 0.839569 0.000000
0.519897 0.839569 0.000000
0.551483 0.839569 0.000000
0.581757 0.839569 0.000000
0.611450 0.839569 0.000000
0.640350 0.839569 0.000000
0.668671 0.839569 0.000000
0.696411 0.839569 0.000000
0.723480 0.839569 0.000000
0.750153 0.839569 0.000000
0.776093 0.839569 0.000000
0.801788 0.839569 0.000000
0.827148 0.839569 0.000000
0.856110 0.843994 0.000000
0.889221 0.852905 0.000000
0.921783 0.861328 0.000000
0.954010 0.869904 0.000000
0.985840 0.878387 0.000000
1.000000 0.886871 0.000000
1.000000 0.895142 0.000000
0.000000 0.881866 0.000000
0.000000 0.881866 0.000000
0.062042 0.881866 0.000000
0.130035 0.881866 0.000000
0.184143 0.881866 0.000000
0.232513 0.881866 0.000000
0.277222 0.881866 0.000000
0.318970 0.881866 0.000000
0.358337 0.881866 0.000000
0.395844 0.881866 0.000000
0.431641 0.881866 0.000000
0.466217 0.881866 0.000000
0.499634 0.881866 0.000000
0.531677 0.881866 0.000000
0.562836 0.881866 0.000000
0.593353 0.881866 0.000000
0.623077 0.881866 0.000000
0.651733 0.881866 0.000000
