nxshell/qtbased/image-editor/libimagevisualresult/filter_cube/classic.CUBE
#Created by: Adobe Photoshop Export Color Lookup Plugin
TITLE "相机滤镜调试.psd"
#LUT size
LUT_3D_SIZE 5
#data domain
#LUT data points
DOMAIN_MIN 0.000000 0.000000 0.000000
DOMAIN_MAX 0.903226 0.903226 0.903226
0.000000 0.000000 0.000000
0.101105 0.000000 0.000000
0.445587 0.000000 0.000000
0.717590 0.000000 0.000000
0.954010 0.000000 0.000000
0.000000 0.000000 0.000000
0.101105 0.000000 0.000000
0.445587 0.066895 0.000000
0.717590 0.148010 0.000000
0.954010 0.217285 0.000000
0.000000 0.297516 0.000000
0.154694 0.297516 0.000000
0.445587 0.337097 0.000000
0.717590 0.411285 0.000000
0.954010 0.476379 0.000000
0.000000 0.622803 0.000000
0.245514 0.622803 0.000000
0.492706 0.622803 0.000000
0.717590 0.648041 0.000000
0.954010 0.711121 0.000000
0.000000 0.923737 0.000000
0.330872 0.923737 0.000000
0.574463 0.923737 0.000000
0.772491 0.923737 0.000000
0.954010 0.931732 0.000000
0.000000 0.000000 0.000000
0.101105 0.000000 0.000000
0.445587 0.000000 0.000000
0.717590 0.000000 0.000000
0.954010 0.000000 0.014374
0.000000 0.000000 0.000000
0.147461 0.013000 0.000000
0.487579 0.114105 0.000000
0.758545 0.193054 0.000000
0.994080 0.261414 0.064484
0.000000 0.297516 0.000000
0.199585 0.340912 0.000000
0.487579 0.379913 0.000000
0.758545 0.453613 0.000000
0.994080 0.518585 0.064484
0.000000 0.622803 0.000000
0.289185 0.663849 0.000000
0.534637 0.663849 0.000000
0.758545 0.688934 0.000000
0.994080 0.751923 0.064484
0.000000 0.923737 0.003113
0.373749 0.963715 0.054810
0.615723 0.963715 0.054810
0.812958 0.963715 0.054810
0.994080 0.971771 0.064484
0.000000 0.000000 0.000000
0.101105 0.000000 0.004456
0.445587 0.000000 0.106995
0.717590 0.000000 0.185944
0.954010 0.000000 0.254761
0.000000 0.000000 0.000000
0.217224 0.089813 0.129120
0.552612 0.185120 0.222809
0.821472 0.261780 0.298767
1.000000 0.329010 0.365448
0.000000 0.297516 0.063599
0.281464 0.420197 0.195435
0.565094 0.458679 0.236145
0.833832 0.531433 0.311951
1.000000 0.595673 0.378204
0.000000 0.622803 0.158325
0.369293 0.739807 0.285400
0.611694 0.739807 0.285400
0.833832 0.764771 0.311951
1.000000 0.827423 0.378204
0.000000 0.923737 0.245972
0.452606 1.000000 0.369720
0.691925 1.000000 0.369720
0.887909 1.000000 0.369720
1.000000 1.000000 0.378204
0.000000 0.000000 0.389801
0.180145 0.000000 0.389801
0.445587 0.000000 0.404602
0.717590 0.000000 0.477753
0.954010 0.000000 0.542633
0.000000 0.049866 0.389801
0.292999 0.169281 0.497711
0.552612 0.185120 0.512207
0.821472 0.261780 0.584503
1.000000 0.329010 0.648346
0.000000 0.322296 0.389801
0.336334 0.473663 0.539581
0.641876 0.536530 0.602112
0.908661 0.608490 0.673523
1.000000 0.672241 0.736603
0.000000 0.622803 0.452179
0.399231 0.768372 0.600525
0.711182 0.838104 0.671722
0.931305 0.862793 0.696716
1.000000 0.925079 0.759857
0.000000 0.923737 0.534180
0.482056 1.000000 0.681274
0.790955 1.000000 0.751526
0.985260 1.000000 0.751526
1.000000 1.000000 0.759857
0.000000 0.000000 0.841339
0.307312 0.000000 0.841339
0.551971 0.000000 0.841339
0.750702 0.000000 0.841339
0.954010 0.000000 0.871063
0.000000 0.184479 0.841339
0.416809 0.296844 0.944183
0.657532 0.296844 0.944183
0.853943 0.296844 0.944183
1.000000 0.329010 0.973724
0.000000 0.445343 0.841339
0.459167 0.593903 0.984253
0.745819 0.641632 1.000000
0.940948 0.641632 1.000000
1.000000 0.672241 1.000000
0.000000 0.681030 0.841339
0.459167 0.825806 0.984253
0.783081 0.909302 1.000000
1.000000 0.954132 1.000000
1.000000 0.983826 1.000000
0.000000 0.923737 0.863220
0.482056 1.000000 1.000000
0.804932 1.000000 1.000000
1.000000 1.000000 1.000000
1.000000 1.000000 1.000000
