nxshell/qtbased/image-editor/libimagevisualresult/filter_cube/classic.CUBE
#Created by: Adobe Photoshop Export Color Lookup Plugin
TITLE "相机滤镜调试.psd"
#LUT size
LUT_3D_SIZE 8
#data domain
#LUT data points
DOMAIN_MIN 0.000000 0.000000 0.000000
DOMAIN_MAX 0.903226 0.903226 0.903226
0.000000 0.000000 0.000000
0.000000 0.000000 0.000000
0.158386 0.000000 0.000000
0.357666 0.000000 0.000000
0.528137 0.000000 0.000000
0.681549 0.000000 0.000000
0.822388 0.000000 0.000000
0.954010 0.000000 0.000000
0.000000 0.000000 0.000000
0.000000 0.000000 0.000000
0.158386 0.000000 0.000000
0.357666 0.000000 0.000000
0.528137 0.000000 0.000000
0.681549 0.001251 0.000000
0.822388 0.049438 0.000000
0.954010 0.090820 0.000000
0.000000 0.000000 0.000000
0.000000 0.000000 0.000000
0.158386 0.024628 0.000000
0.357666 0.083374 0.000000
0.528137 0.133118 0.000000
0.681549 0.177582 0.000000
0.822388 0.218475 0.000000
0.954010 0.256653 0.000000
0.000000 0.197357 0.000000
0.000000 0.197357 0.000000
0.168823 0.197357 0.000000
0.357666 0.240417 0.000000
0.528137 0.287201 0.000000
0.681549 0.329681 0.000000
0.822388 0.368805 0.000000
0.954010 0.405701 0.000000
0.000000 0.394012 0.000000
0.037781 0.394012 0.000000
0.222351 0.394012 0.000000
0.367340 0.394012 0.000000
0.528137 0.429749 0.000000
0.681549 0.470947 0.000000
0.822388 0.509583 0.000000
0.954010 0.545258 0.000000
0.000000 0.578094 0.000000
0.093597 0.578094 0.000000
0.273285 0.578094 0.000000
0.416565 0.578094 0.000000
0.541504 0.578094 0.000000
0.681549 0.605621 0.000000
0.822388 0.643036 0.000000
0.954010 0.678680 0.000000
0.000000 0.753967 0.000000
0.146362 0.753967 0.000000
0.322540 0.753967 0.000000
0.464508 0.753967 0.000000
0.588318 0.753967 0.000000
0.700592 0.753967 0.000000
0.822388 0.772095 0.000000
0.954010 0.807312 0.000000
0.000000 0.923737 0.000000
0.196259 0.923737 0.000000
0.370087 0.923737 0.000000
0.511017 0.923737 0.000000
0.634155 0.923737 0.000000
0.745911 0.923737 0.000000
0.849213 0.923737 0.000000
0.954010 0.931732 0.000000
0.000000 0.000000 0.000000
0.000000 0.000000 0.000000
0.158386 0.000000 0.000000
0.357666 0.000000 0.000000
0.528137 0.000000 0.000000
0.681549 0.000000 0.000000
0.822388 0.000000 0.000000
0.954010 0.000000 0.000000
0.000000 0.000000 0.000000
0.000000 0.000000 0.000000
0.177795 0.000000 0.000000
0.376007 0.000000 0.000000
0.545959 0.000000 0.000000
0.699066 0.024841 0.000000
0.839752 0.070160 0.000000
0.971100 0.110779 0.000000
0.000000 0.000000 0.000000
0.000000 0.000000 0.000000
0.177795 0.046234 0.000000
0.376007 0.103577 0.000000
0.545959 0.152740 0.000000
0.699066 0.196838 0.000000
0.839752 0.237457 0.000000
0.971100 0.275482 0.000000
0.000000 0.197357 0.000000
0.000000 0.216431 0.000000
0.188049 0.216431 0.000000
0.376007 0.259399 0.000000
0.545959 0.305634 0.000000
0.699066 0.348022 0.000000
0.839752 0.386932 0.000000
0.971100 0.423767 0.000000
0.000000 0.394012 0.000000
0.058929 0.412170 0.000000
0.241302 0.412170 0.000000
0.385651 0.412170 0.000000
0.545959 0.447845 0.000000
0.699066 0.488922 0.000000
0.839752 0.527313 0.000000
0.971100 0.563202 0.000000
0.000000 0.578094 0.000000
0.113708 0.595856 0.000000
0.291931 0.595856 0.000000
0.434784 0.595856 0.000000
0.559204 0.595856 0.000000
0.699066 0.623199 0.000000
0.839752 0.660736 0.000000
0.971100 0.696198 0.000000
0.000000 0.753967 0.000000
0.165649 0.771332 0.000000
0.340851 0.771332 0.000000
0.482483 0.771332 0.000000
0.605896 0.771332 0.000000
0.718079 0.771332 0.000000
0.839752 0.789429 0.000000
0.971100 0.824493 0.000000
0.000000 0.923737 0.000000
0.215302 0.940887 0.000000
0.388153 0.940887 0.000000
0.528931 0.940887 0.000000
0.651794 0.940887 0.000000
0.763428 0.940887 0.000000
0.866486 0.940887 0.000000
0.971100 0.948792 0.000000
0.000000 0.000000 0.000000
0.000000 0.000000 0.000000
0.158386 0.000000 0.000000
0.357666 0.000000 0.000000
0.528137 0.000000 0.000000
0.681549 0.000000 0.000000
0.822388 0.000000 0.000488
0.954010 0.000000 0.046326
0.000000 0.000000 0.000000
0.000000 0.000000 0.000000
0.213562 0.000000 0.000000
0.409882 0.000000 0.000000
0.579224 0.015320 0.000000
0.731537 0.064362 0.017914
0.871796 0.107849 0.063721
1.000000 0.147583 0.104797
0.000000 0.000000 0.000000
0.000000 0.035461 0.000000
0.213562 0.084747 0.000000
0.409882 0.140259 0.000000
0.579224 0.188629 0.000000
0.731537 0.232361 0.017914
0.871796 0.272491 0.063721
1.000000 0.310181 0.104797
0.000000 0.197357 0.000000
0.039154 0.251556 0.000000
0.223419 0.251556 0.000000
0.409882 0.294037 0.000000
0.579224 0.340088 0.000000
0.731537 0.382050 0.017914
0.871796 0.421112 0.063721
1.000000 0.457611 0.104797
0.000000 0.394012 0.000000
0.096771 0.445831 0.000000
0.276123 0.445831 0.000000
0.419403 0.445831 0.000000
0.579224 0.481354 0.000000
0.731537 0.522186 0.017914
0.871796 0.560608 0.063721
1.000000 0.596375 0.104797
0.000000 0.578094 0.000000
0.150208 0.628693 0.000000
0.326294 0.628693 0.000000
0.468201 0.628693 0.000000
0.592255 0.628693 0.000000
0.731537 0.655975 0.017914
0.871796 0.693329 0.063721
1.000000 0.728668 0.104797
0.000000 0.753967 0.000000
0.201294 0.803589 0.041779
0.375031 0.803589 0.041779
0.515839 0.803589 0.041779
0.638977 0.803589 0.041779
0.750763 0.803589 0.041779
0.871796 0.821655 0.063721
1.000000 0.856689 0.104797
0.000000 0.923737 0.036407
0.250610 0.972687 0.095398
0.422119 0.972687 0.095398
0.562134 0.972687 0.095398
0.684540 0.972687 0.095398
0.795715 0.972687 0.095398
0.898499 0.972687 0.095398
1.000000 0.980835 0.104797
0.000000 0.000000 0.000000
0.000000 0.000000 0.000000
0.158386 0.000000 0.000000
0.357666 0.000000 0.000000
0.528137 0.000000 0.052734
0.681549 0.000000 0.099670
0.822388 0.000000 0.141907
0.954010 0.000000 0.181061
0.000000 0.000000 0.000000
0.000000 0.000000 0.000000
0.228241 0.000000 0.017029
0.423889 0.000000 0.076508
0.592896 0.032318 0.126404
0.744995 0.080109 0.171082
0.885315 0.123138 0.212250
1.000000 0.162659 0.250366
0.000000 0.000000 0.000000
0.028809 0.085968 0.000000
0.259399 0.133118 0.052673
0.453796 0.187347 0.109650
0.622131 0.234741 0.158600
0.773773 0.278046 0.202850
0.913544 0.317535 0.243256
1.000000 0.354828 0.281158
0.000000 0.197357 0.000000
0.089600 0.296906 0.063812
0.269196 0.296906 0.063812
0.453796 0.338928 0.109650
0.622131 0.384613 0.158600
0.773773 0.426239 0.202850
0.913544 0.464935 0.243256
1.000000 0.501190 0.281158
0.000000 0.394012 0.009644
0.144897 0.489502 0.120026
0.321167 0.489502 0.120026
0.463257 0.489502 0.120026
0.622131 0.524811 0.158600
0.773773 0.565521 0.202850
0.913544 0.603424 0.243256
1.000000 0.639221 0.281158
0.000000 0.578094 0.068115
0.197083 0.671356 0.173065
0.370880 0.671356 0.173065
0.511719 0.671356 0.173065
0.635101 0.671356 0.173065
0.773773 0.698547 0.202850
0.913544 0.735809 0.243256
1.000000 0.771057 0.281158
0.000000 0.753967 0.121460
0.247345 0.845581 0.223480
0.419159 0.845581 0.223480
0.559052 0.845581 0.223480
0.681671 0.845581 0.223480
0.792877 0.845581 0.223480
0.913544 0.863586 0.243256
1.000000 0.898499 0.281158
0.000000 0.923737 0.172089
0.296021 1.000000 0.272430
0.466064 1.000000 0.272430
0.605072 1.000000 0.272430
0.726929 1.000000 0.272430
0.837585 1.000000 0.272430
0.940247 1.000000 0.272430
1.000000 1.000000 0.281158
0.000000 0.000000 0.090698
0.000000 0.000000 0.090698
0.158386 0.000000 0.109070
0.357666 0.000000 0.163849
0.528137 0.000000 0.211761
0.681549 0.000000 0.255005
0.822388 0.000000 0.294922
0.954010 0.000000 0.332581
0.000000 0.000000 0.090698
0.024841 0.000000 0.162598
0.228241 0.000000 0.180084
0.423889 0.000000 0.233368
0.592896 0.032318 0.280151
0.744995 0.080109 0.322784
0.885315 0.123138 0.362000
1.000000 0.162659 0.398987
0.000000 0.003815 0.090698
0.069458 0.124176 0.203094
0.286072 0.160980 0.238770
0.479492 0.214600 0.291107
0.647339 0.261719 0.337341
0.798615 0.304596 0.379242
0.938019 0.343903 0.418243
1.000000 0.380951 0.454834
0.000000 0.197357 0.119476
0.098694 0.305420 0.230438
0.323090 0.350494 0.276245
0.505676 0.391815 0.318207
0.673004 0.437134 0.364166
0.823914 0.478424 0.405884
0.963043 0.516815 0.444702
1.000000 0.552795 0.481110
0.000000 0.394012 0.174103
0.153656 0.497589 0.282715
0.374298 0.541199 0.327972
0.515137 0.541199 0.327972
0.673004 0.576263 0.364166
0.823914 0.616730 0.405884
0.963043 0.654388 0.444702
1.000000 0.689941 0.481110
0.000000 0.578094 0.225647
0.205719 0.679260 0.332886
0.423523 0.721893 0.377716
0.563263 0.721893 0.377716
0.685791 0.721893 0.377716
0.823914 0.749023 0.405884
0.963043 0.786041 0.444702
1.000000 0.821136 0.481110
0.000000 0.753967 0.275604
0.255829 0.853394 0.381439
0.471375 0.895477 0.425812
0.610291 0.895477 0.425812
0.732239 0.895477 0.425812
0.842926 0.895477 0.425812
0.963043 0.913269 0.444702
1.000000 0.947998 0.481110
0.000000 0.923737 0.323822
0.304352 1.000000 0.428680
0.518066 1.000000 0.472748
0.656158 1.000000 0.472748
0.777222 1.000000 0.472748
0.887451 1.000000 0.472748
0.989716 1.000000 0.472748
1.000000 1.000000 0.481110
0.000000 0.000000 0.328766
0.017120 0.000000 0.328766
0.204437 0.000000 0.328766
0.357666 0.000000 0.336334
0.528137 0.000000 0.382233
0.681549 0.000000 0.423828
0.822388 0.000000 0.462402
0.954010 0.000000 0.498871
0.000000 0.000000 0.328766
0.093445 0.000000 0.395416
0.273041 0.000000 0.395416
0.423889 0.000000 0.403076
0.592896 0.032318 0.448303
0.744995 0.080109 0.489471
0.885315 0.123138 0.527679
1.000000 0.162659 0.563568
0.000000 0.074860 0.328766
0.135376 0.188110 0.433563
0.330322 0.206787 0.451263
0.479492 0.214600 0.458679
0.647339 0.261719 0.503540
0.798615 0.304596 0.544586
0.938019 0.343903 0.582428
1.000000 0.380951 0.618134
0.000000 0.232513 0.328766
0.135376 0.339661 0.433563
0.373688 0.400818 0.493774
0.531433 0.417999 0.510712
0.698181 0.463074 0.555176
0.848755 0.504120 0.595978
0.987701 0.542450 0.633636
1.000000 0.578400 0.669189
0.000000 0.394012 0.346069
0.153656 0.497589 0.450500
0.390778 0.557281 0.510529
0.573578 0.599518 0.553284
0.730499 0.634338 0.588196
0.880615 0.674530 0.628632
1.000000 0.712036 0.666138
1.000000 0.747314 0.701569
0.000000 0.578094 0.395538
0.205719 0.679260 0.499390
0.439850 0.737732 0.558990
0.621735 0.779175 0.601227
0.743286 0.779175 0.601227
0.880615 0.806030 0.628632
1.000000 0.843140 0.666138
1.000000 0.878082 0.701569
0.000000 0.753967 0.443726
0.255829 0.853394 0.546509
0.487579 0.911133 0.605774
0.668121 0.951996 0.648041
0.789368 0.951996 0.648041
0.899506 0.951996 0.648041
1.000000 0.969910 0.666138
1.000000 1.000000 0.701569
0.000000 0.923737 0.490356
0.304352 1.000000 0.592590
0.534119 1.000000 0.651581
0.713684 1.000000 0.693390
0.834442 1.000000 0.693390
0.944183 1.000000 0.693390
1.000000 1.000000 0.693390
1.000000 1.000000 0.701569
0.000000 0.000000 0.578156
0.093658 0.000000 0.578156
0.273102 0.000000 0.578156
0.416626 0.000000 0.578156
0.541382 0.000000 0.578156
0.681549 0.000000 0.605621
0.822388 0.000000 0.643280
0.954010 0.000000 0.678680
0.000000 0.000000 0.578156
0.165527 0.048279 0.642273
0.340729 0.048279 0.642273
0.482361 0.048279 0.642273
0.605896 0.048279 0.642273
0.744995 0.080109 0.669586
0.885315 0.123138 0.707184
1.000000 0.162659 0.742371
0.000000 0.147736 0.578156
0.205719 0.257324 0.679260
0.397003 0.275665 0.696411
0.537323 0.275665 0.696411
0.660217 0.275665 0.696411
0.798615 0.304596 0.723602
0.938019 0.343903 0.760651
1.000000 0.380951 0.795715
0.000000 0.300873 0.578156
0.205719 0.406219 0.679260
0.439850 0.466614 0.737732
0.588806 0.476318 0.747040
0.710999 0.476318 0.747040
0.848755 0.504120 0.774048
0.987701 0.542450 0.811096
1.000000 0.578400 0.846039
0.000000 0.443054 0.578156
0.205719 0.545959 0.679260
0.439850 0.605377 0.737732
0.628967 0.654755 0.786377
0.759827 0.663971 0.795471
0.896759 0.691162 0.822388
1.000000 0.728394 0.859406
1.000000 0.763611 0.894196
0.000000 0.578156 0.578156
0.205719 0.679260 0.679260
0.439850 0.737732 0.737732
0.628967 0.786316 0.786377
0.793884 0.829498 0.829559
0.943359 0.869202 0.869263
1.000000 0.905914 0.905975
1.000000 0.940582 0.940582
0.000000 0.753967 0.624847
0.255829 0.853394 0.725769
0.487579 0.911133 0.783813
0.675354 0.959045 0.832275
0.839752 1.000000 0.875366
0.962189 1.000000 0.887970
1.000000 1.000000 0.905914
1.000000 1.000000 0.940643
0.000000 0.923737 0.670471
0.304352 1.000000 0.770721
0.534119 1.000000 0.828705
0.720856 1.000000 0.877167
0.884583 1.000000 0.920105
1.000000 1.000000 0.932648
1.000000 1.000000 0.932648
1.000000 1.000000 0.940643
0.000000 0.000000 0.841339
0.171906 0.000000 0.841339
0.346985 0.000000 0.841339
0.488312 0.000000 0.841339
0.612000 0.000000 0.841339
0.723938 0.000000 0.841339
0.827545 0.000000 0.841339
0.954010 0.000000 0.871063
0.000000 0.055450 0.841339
0.241486 0.128754 0.903931
0.413330 0.128754 0.903931
0.553497 0.128754 0.903931
0.675995 0.128754 0.903931
0.787292 0.128754 0.903931
0.890076 0.128754 0.903931
1.000000 0.162659 0.933746
0.000000 0.223938 0.841339
0.280731 0.331360 0.940094
0.468964 0.349365 0.956879
0.607910 0.349365 0.956879
0.729980 0.349365 0.956879
0.840546 0.349365 0.956879
0.943146 0.349365 0.956879
1.000000 0.380951 0.986542
0.000000 0.374115 0.841339
0.280731 0.478119 0.940094
0.511414 0.537933 0.997253
0.659027 0.547516 1.000000
0.780396 0.547516 1.000000
0.890594 0.547516 1.000000
0.992706 0.547516 1.000000
1.000000 0.578400 1.000000
0.000000 0.514587 0.841339
0.280731 0.616486 0.940094
0.511414 0.675293 0.997253
0.698822 0.724365 1.000000
0.828583 0.733582 1.000000
0.938416 0.733582 1.000000
1.000000 0.733582 1.000000
1.000000 0.763611 1.000000
0.000000 0.648468 0.841339
0.280731 0.748840 0.940094
0.511414 0.806824 0.997253
0.698822 0.855194 1.000000
0.862640 0.898132 1.000000
0.984924 0.911011 1.000000
1.000000 0.911011 1.000000
1.000000 0.940582 1.000000
0.000000 0.777100 0.841339
0.280731 0.876526 0.940094
0.511414 0.933929 0.997253
0.698822 0.981720 1.000000
0.862640 1.000000 1.000000
1.000000 1.000000 1.000000
1.000000 1.000000 1.000000
1.000000 1.000000 1.000000
0.000000 0.923737 0.863220
0.304352 1.000000 0.961914
0.534119 1.000000 1.000000
0.720856 1.000000 1.000000
0.884583 1.000000 1.000000
1.000000 1.000000 1.000000
1.000000 1.000000 1.000000
1.000000 1.000000 1.000000
