nxshell/qtbased/image-editor/libimagevisualresult/filter_cube/gray.CUBE
#Created by: Adobe Photoshop Export Color Lookup Plugin
TITLE "相机滤镜调试.psd"
#LUT size
LUT_3D_SIZE 5
#data domain
#LUT data points
DOMAIN_MIN 0.000000 0.000000 0.000000
DOMAIN_MAX 0.903226 0.903226 0.903226
0.000000 0.000000 0.000000
0.112885 0.112885 0.112885
0.225800 0.225800 0.225800
0.338715 0.338715 0.338715
0.451599 0.451599 0.451599
0.112885 0.112885 0.112885
0.112885 0.112885 0.112885
0.225800 0.225800 0.225800
0.338715 0.338715 0.338715
0.451599 0.451599 0.451599
0.225800 0.225800 0.225800
0.225800 0.225800 0.225800
0.225800 0.225800 0.225800
0.338715 0.338715 0.338715
0.451599 0.451599 0.451599
0.338715 0.338715 0.338715
0.338715 0.338715 0.338715
0.338715 0.338715 0.338715
0.338715 0.338715 0.338715
0.451599 0.451599 0.451599
0.451599 0.451599 0.451599
0.451599 0.451599 0.451599
0.451599 0.451599 0.451599
0.451599 0.451599 0.451599
0.451599 0.451599 0.451599
0.112885 0.112885 0.112885
0.112885 0.112885 0.112885
0.225800 0.225800 0.225800
0.338715 0.338715 0.338715
0.451599 0.451599 0.451599
0.112885 0.112885 0.112885
0.225800 0.225800 0.225800
0.338684 0.338684 0.338684
0.451599 0.451599 0.451599
0.564514 0.564514 0.564514
0.225800 0.225800 0.225800
0.338684 0.338684 0.338684
0.338684 0.338684 0.338684
0.451599 0.451599 0.451599
0.564514 0.564514 0.564514
0.338715 0.338715 0.338715
0.451599 0.451599 0.451599
0.451599 0.451599 0.451599
0.451599 0.451599 0.451599
0.564514 0.564514 0.564514
0.451599 0.451599 0.451599
0.564514 0.564514 0.564514
0.564514 0.564514 0.564514
0.564514 0.564514 0.564514
0.564514 0.564514 0.564514
0.225800 0.225800 0.225800
0.225800 0.225800 0.225800
0.225800 0.225800 0.225800
0.338715 0.338715 0.338715
0.451599 0.451599 0.451599
0.225800 0.225800 0.225800
0.338684 0.338684 0.338684
0.338684 0.338684 0.338684
0.451599 0.451599 0.451599
0.564514 0.564514 0.564514
0.225800 0.225800 0.225800
0.338684 0.338684 0.338684
0.451599 0.451599 0.451599
0.564514 0.564514 0.564514
0.677399 0.677399 0.677399
0.338715 0.338715 0.338715
0.451599 0.451599 0.451599
0.564514 0.564514 0.564514
0.564514 0.564514 0.564514
0.677399 0.677399 0.677399
0.451599 0.451599 0.451599
0.564514 0.564514 0.564514
0.677399 0.677399 0.677399
0.677399 0.677399 0.677399
0.677399 0.677399 0.677399
0.338715 0.338715 0.338715
0.338715 0.338715 0.338715
0.338715 0.338715 0.338715
0.338715 0.338715 0.338715
0.451599 0.451599 0.451599
0.338715 0.338715 0.338715
0.451599 0.451599 0.451599
0.451599 0.451599 0.451599
0.451599 0.451599 0.451599
0.564514 0.564514 0.564514
0.338715 0.338715 0.338715
0.451599 0.451599 0.451599
0.564514 0.564514 0.564514
0.564514 0.564514 0.564514
0.677399 0.677399 0.677399
0.338715 0.338715 0.338715
0.451599 0.451599 0.451599
0.564514 0.564514 0.564514
0.677429 0.677429 0.677429
0.790314 0.790314 0.790314
0.451599 0.451599 0.451599
0.564514 0.564514 0.564514
0.677399 0.677399 0.677399
0.790314 0.790314 0.790314
0.790314 0.790314 0.790314
0.451599 0.451599 0.451599
0.451599 0.451599 0.451599
0.451599 0.451599 0.451599
0.451599 0.451599 0.451599
0.451599 0.451599 0.451599
0.451599 0.451599 0.451599
0.564514 0.564514 0.564514
0.564514 0.564514 0.564514
0.564514 0.564514 0.564514
0.564514 0.564514 0.564514
0.451599 0.451599 0.451599
0.564514 0.564514 0.564514
0.677399 0.677399 0.677399
0.677399 0.677399 0.677399
0.677399 0.677399 0.677399
0.451599 0.451599 0.451599
0.564514 0.564514 0.564514
0.677399 0.677399 0.677399
0.790314 0.790314 0.790314
0.790314 0.790314 0.790314
0.451599 0.451599 0.451599
0.564514 0.564514 0.564514
0.677399 0.677399 0.677399
0.790314 0.790314 0.790314
0.903229 0.903229 0.903229
