nxshell/qtbased/image-editor/libimagevisualresult/filter_cube/gray.CUBE
#Created by: Adobe Photoshop Export Color Lookup Plugin
TITLE "相机滤镜调试.psd"
#LUT size
LUT_3D_SIZE 8
#data domain
#LUT data points
DOMAIN_MIN 0.000000 0.000000 0.000000
DOMAIN_MAX 0.903226 0.903226 0.903226
0.000000 0.000000 0.000000
0.064514 0.064514 0.064514
0.129028 0.129028 0.129028
0.193542 0.193542 0.193542
0.258057 0.258057 0.258057
0.322571 0.322571 0.322571
0.387085 0.387085 0.387085
0.451599 0.451599 0.451599
0.064514 0.064514 0.064514
0.064514 0.064514 0.064514
0.129028 0.129028 0.129028
0.193542 0.193542 0.193542
0.258057 0.258057 0.258057
0.322571 0.322571 0.322571
0.387085 0.387085 0.387085
0.451599 0.451599 0.451599
0.129028 0.129028 0.129028
0.129028 0.129028 0.129028
0.129028 0.129028 0.129028
0.193542 0.193542 0.193542
0.258057 0.258057 0.258057
0.322571 0.322571 0.322571
0.387085 0.387085 0.387085
0.451599 0.451599 0.451599
0.193542 0.193542 0.193542
0.193542 0.193542 0.193542
0.193542 0.193542 0.193542
0.193542 0.193542 0.193542
0.258057 0.258057 0.258057
0.322571 0.322571 0.322571
0.387085 0.387085 0.387085
0.451599 0.451599 0.451599
0.258057 0.258057 0.258057
0.258057 0.258057 0.258057
0.258057 0.258057 0.258057
0.258057 0.258057 0.258057
0.258057 0.258057 0.258057
0.322571 0.322571 0.322571
0.387085 0.387085 0.387085
0.451599 0.451599 0.451599
0.322571 0.322571 0.322571
0.322571 0.322571 0.322571
0.322571 0.322571 0.322571
0.322571 0.322571 0.322571
0.322571 0.322571 0.322571
0.322571 0.322571 0.322571
0.387085 0.387085 0.387085
0.451599 0.451599 0.451599
0.387085 0.387085 0.387085
0.387085 0.387085 0.387085
0.387085 0.387085 0.387085
0.387085 0.387085 0.387085
0.387085 0.387085 0.387085
0.387085 0.387085 0.387085
0.387085 0.387085 0.387085
0.451599 0.451599 0.451599
0.451599 0.451599 0.451599
0.451599 0.451599 0.451599
0.451599 0.451599 0.451599
0.451599 0.451599 0.451599
0.451599 0.451599 0.451599
0.451599 0.451599 0.451599
0.451599 0.451599 0.451599
0.451599 0.451599 0.451599
0.064514 0.064514 0.064514
0.064514 0.064514 0.064514
0.129028 0.129028 0.129028
0.193542 0.193542 0.193542
0.258057 0.258057 0.258057
0.322571 0.322571 0.322571
0.387085 0.387085 0.387085
0.451599 0.451599 0.451599
0.064514 0.064514 0.064514
0.129028 0.129028 0.129028
0.193542 0.193542 0.193542
0.258057 0.258057 0.258057
0.322571 0.322571 0.322571
0.387085 0.387085 0.387085
0.451599 0.451599 0.451599
0.516113 0.516113 0.516113
0.129028 0.129028 0.129028
0.193542 0.193542 0.193542
0.193542 0.193542 0.193542
0.258057 0.258057 0.258057
0.322571 0.322571 0.322571
0.387085 0.387085 0.387085
0.451599 0.451599 0.451599
0.516113 0.516113 0.516113
0.193542 0.193542 0.193542
0.258057 0.258057 0.258057
0.258057 0.258057 0.258057
0.258057 0.258057 0.258057
0.322571 0.322571 0.322571
0.387085 0.387085 0.387085
0.451599 0.451599 0.451599
0.516113 0.516113 0.516113
0.258057 0.258057 0.258057
0.322571 0.322571 0.322571
0.322571 0.322571 0.322571
0.322571 0.322571 0.322571
0.322571 0.322571 0.322571
0.387085 0.387085 0.387085
0.451599 0.451599 0.451599
0.516113 0.516113 0.516113
0.322571 0.322571 0.322571
0.387085 0.387085 0.387085
0.387085 0.387085 0.387085
0.387085 0.387085 0.387085
0.387085 0.387085 0.387085
0.387085 0.387085 0.387085
0.451599 0.451599 0.451599
0.516113 0.516113 0.516113
0.387085 0.387085 0.387085
0.451599 0.451599 0.451599
0.451599 0.451599 0.451599
0.451599 0.451599 0.451599
0.451599 0.451599 0.451599
0.451599 0.451599 0.451599
0.451599 0.451599 0.451599
0.516113 0.516113 0.516113
0.451599 0.451599 0.451599
0.516113 0.516113 0.516113
0.516113 0.516113 0.516113
0.516113 0.516113 0.516113
0.516113 0.516113 0.516113
0.516113 0.516113 0.516113
0.516113 0.516113 0.516113
0.516113 0.516113 0.516113
0.129028 0.129028 0.129028
0.129028 0.129028 0.129028
0.129028 0.129028 0.129028
0.193542 0.193542 0.193542
0.258057 0.258057 0.258057
0.322571 0.322571 0.322571
0.387085 0.387085 0.387085
0.451599 0.451599 0.451599
0.129028 0.129028 0.129028
0.193542 0.193542 0.193542
0.193542 0.193542 0.193542
0.258057 0.258057 0.258057
0.322571 0.322571 0.322571
0.387085 0.387085 0.387085
0.451599 0.451599 0.451599
0.516113 0.516113 0.516113
0.129028 0.129028 0.129028
0.193542 0.193542 0.193542
0.258057 0.258057 0.258057
0.322571 0.322571 0.322571
0.387085 0.387085 0.387085
0.451599 0.451599 0.451599
0.516113 0.516113 0.516113
0.580627 0.580627 0.580627
0.193542 0.193542 0.193542
0.258057 0.258057 0.258057
0.322571 0.322571 0.322571
0.322571 0.322571 0.322571
0.387085 0.387085 0.387085
0.451599 0.451599 0.451599
0.516113 0.516113 0.516113
0.580627 0.580627 0.580627
0.258057 0.258057 0.258057
0.322571 0.322571 0.322571
0.387085 0.387085 0.387085
0.387085 0.387085 0.387085
0.387085 0.387085 0.387085
0.451599 0.451599 0.451599
0.516113 0.516113 0.516113
0.580627 0.580627 0.580627
0.322571 0.322571 0.322571
0.387085 0.387085 0.387085
0.451599 0.451599 0.451599
0.451599 0.451599 0.451599
0.451599 0.451599 0.451599
0.451599 0.451599 0.451599
0.516113 0.516113 0.516113
0.580627 0.580627 0.580627
0.387085 0.387085 0.387085
0.451599 0.451599 0.451599
0.516113 0.516113 0.516113
0.516113 0.516113 0.516113
0.516113 0.516113 0.516113
0.516113 0.516113 0.516113
0.516113 0.516113 0.516113
0.580627 0.580627 0.580627
0.451599 0.451599 0.451599
0.516113 0.516113 0.516113
0.580627 0.580627 0.580627
0.580627 0.580627 0.580627
0.580627 0.580627 0.580627
0.580627 0.580627 0.580627
0.580627 0.580627 0.580627
0.580627 0.580627 0.580627
0.193542 0.193542 0.193542
0.193542 0.193542 0.193542
0.193542 0.193542 0.193542
0.193542 0.193542 0.193542
0.258057 0.258057 0.258057
0.322571 0.322571 0.322571
0.387085 0.387085 0.387085
0.451599 0.451599 0.451599
0.193542 0.193542 0.193542
0.258057 0.258057 0.258057
0.258057 0.258057 0.258057
0.258057 0.258057 0.258057
0.322571 0.322571 0.322571
0.387085 0.387085 0.387085
0.451599 0.451599 0.451599
0.516113 0.516113 0.516113
0.193542 0.193542 0.193542
0.258057 0.258057 0.258057
0.322571 0.322571 0.322571
0.322571 0.322571 0.322571
0.387085 0.387085 0.387085
0.451599 0.451599 0.451599
0.516113 0.516113 0.516113
0.580627 0.580627 0.580627
0.193542 0.193542 0.193542
0.258057 0.258057 0.258057
0.322571 0.322571 0.322571
0.387085 0.387085 0.387085
0.451599 0.451599 0.451599
0.516113 0.516113 0.516113
0.580627 0.580627 0.580627
0.645142 0.645142 0.645142
0.258057 0.258057 0.258057
0.322571 0.322571 0.322571
0.387085 0.387085 0.387085
0.451599 0.451599 0.451599
0.451599 0.451599 0.451599
0.516113 0.516113 0.516113
0.580627 0.580627 0.580627
0.645142 0.645142 0.645142
0.322571 0.322571 0.322571
0.387085 0.387085 0.387085
0.451599 0.451599 0.451599
0.516113 0.516113 0.516113
0.516113 0.516113 0.516113
0.516113 0.516113 0.516113
0.580627 0.580627 0.580627
0.645142 0.645142 0.645142
0.387085 0.387085 0.387085
0.451599 0.451599 0.451599
0.516113 0.516113 0.516113
0.580627 0.580627 0.580627
0.580627 0.580627 0.580627
0.580627 0.580627 0.580627
0.580627 0.580627 0.580627
0.645142 0.645142 0.645142
0.451599 0.451599 0.451599
0.516113 0.516113 0.516113
0.580627 0.580627 0.580627
0.645142 0.645142 0.645142
0.645142 0.645142 0.645142
0.645142 0.645142 0.645142
0.645142 0.645142 0.645142
0.645142 0.645142 0.645142
0.258057 0.258057 0.258057
0.258057 0.258057 0.258057
0.258057 0.258057 0.258057
0.258057 0.258057 0.258057
0.258057 0.258057 0.258057
0.322571 0.322571 0.322571
0.387085 0.387085 0.387085
0.451599 0.451599 0.451599
0.258057 0.258057 0.258057
0.322571 0.322571 0.322571
0.322571 0.322571 0.322571
0.322571 0.322571 0.322571
0.322571 0.322571 0.322571
0.387085 0.387085 0.387085
0.451599 0.451599 0.451599
0.516113 0.516113 0.516113
0.258057 0.258057 0.258057
0.322571 0.322571 0.322571
0.387085 0.387085 0.387085
0.387085 0.387085 0.387085
0.387085 0.387085 0.387085
0.451599 0.451599 0.451599
0.516113 0.516113 0.516113
0.580627 0.580627 0.580627
0.258057 0.258057 0.258057
0.322571 0.322571 0.322571
0.387085 0.387085 0.387085
0.451599 0.451599 0.451599
0.451599 0.451599 0.451599
0.516113 0.516113 0.516113
0.580627 0.580627 0.580627
0.645142 0.645142 0.645142
0.258057 0.258057 0.258057
0.322571 0.322571 0.322571
0.387085 0.387085 0.387085
0.451599 0.451599 0.451599
0.516144 0.516144 0.516144
0.580658 0.580658 0.580658
0.645172 0.645172 0.645172
0.709686 0.709686 0.709686
0.322571 0.322571 0.322571
0.387085 0.387085 0.387085
0.451599 0.451599 0.451599
0.516113 0.516113 0.516113
0.580658 0.580658 0.580658
0.580658 0.580658 0.580658
0.645172 0.645172 0.645172
0.709686 0.709686 0.709686
0.387085 0.387085 0.387085
0.451599 0.451599 0.451599
0.516113 0.516113 0.516113
0.580627 0.580627 0.580627
0.645172 0.645172 0.645172
0.645172 0.645172 0.645172
0.645172 0.645172 0.645172
0.709686 0.709686 0.709686
0.451599 0.451599 0.451599
0.516113 0.516113 0.516113
0.580627 0.580627 0.580627
0.645142 0.645142 0.645142
0.709686 0.709686 0.709686
0.709686 0.709686 0.709686
0.709686 0.709686 0.709686
0.709686 0.709686 0.709686
0.322571 0.322571 0.322571
0.322571 0.322571 0.322571
0.322571 0.322571 0.322571
0.322571 0.322571 0.322571
0.322571 0.322571 0.322571
0.322571 0.322571 0.322571
0.387085 0.387085 0.387085
0.451599 0.451599 0.451599
0.322571 0.322571 0.322571
0.387085 0.387085 0.387085
0.387085 0.387085 0.387085
0.387085 0.387085 0.387085
0.387085 0.387085 0.387085
0.387085 0.387085 0.387085
0.451599 0.451599 0.451599
0.516113 0.516113 0.516113
0.322571 0.322571 0.322571
0.387085 0.387085 0.387085
0.451599 0.451599 0.451599
0.451599 0.451599 0.451599
0.451599 0.451599 0.451599
0.451599 0.451599 0.451599
0.516113 0.516113 0.516113
0.580627 0.580627 0.580627
0.322571 0.322571 0.322571
0.387085 0.387085 0.387085
0.451599 0.451599 0.451599
0.516113 0.516113 0.516113
0.516113 0.516113 0.516113
0.516113 0.516113 0.516113
0.580627 0.580627 0.580627
0.645142 0.645142 0.645142
0.322571 0.322571 0.322571
0.387085 0.387085 0.387085
0.451599 0.451599 0.451599
0.516113 0.516113 0.516113
0.580658 0.580658 0.580658
0.580658 0.580658 0.580658
0.645172 0.645172 0.645172
0.709686 0.709686 0.709686
0.322571 0.322571 0.322571
0.387085 0.387085 0.387085
0.451599 0.451599 0.451599
0.516113 0.516113 0.516113
0.580658 0.580658 0.580658
0.645172 0.645172 0.645172
0.709686 0.709686 0.709686
0.774200 0.774200 0.774200
0.387085 0.387085 0.387085
0.451599 0.451599 0.451599
0.516113 0.516113 0.516113
0.580627 0.580627 0.580627
0.645172 0.645172 0.645172
0.709686 0.709686 0.709686
0.709686 0.709686 0.709686
0.774200 0.774200 0.774200
0.451599 0.451599 0.451599
0.516113 0.516113 0.516113
0.580627 0.580627 0.580627
0.645142 0.645142 0.645142
0.709686 0.709686 0.709686
0.774200 0.774200 0.774200
0.774200 0.774200 0.774200
0.774200 0.774200 0.774200
0.387085 0.387085 0.387085
0.387085 0.387085 0.387085
0.387085 0.387085 0.387085
0.387085 0.387085 0.387085
0.387085 0.387085 0.387085
0.387085 0.387085 0.387085
0.387085 0.387085 0.387085
0.451599 0.451599 0.451599
0.387085 0.387085 0.387085
0.451599 0.451599 0.451599
0.451599 0.451599 0.451599
0.451599 0.451599 0.451599
0.451599 0.451599 0.451599
0.451599 0.451599 0.451599
0.451599 0.451599 0.451599
0.516113 0.516113 0.516113
0.387085 0.387085 0.387085
0.451599 0.451599 0.451599
0.516113 0.516113 0.516113
0.516113 0.516113 0.516113
0.516113 0.516113 0.516113
0.516113 0.516113 0.516113
0.516113 0.516113 0.516113
0.580627 0.580627 0.580627
0.387085 0.387085 0.387085
0.451599 0.451599 0.451599
0.516113 0.516113 0.516113
0.580627 0.580627 0.580627
0.580627 0.580627 0.580627
0.580627 0.580627 0.580627
0.580627 0.580627 0.580627
0.645142 0.645142 0.645142
0.387085 0.387085 0.387085
0.451599 0.451599 0.451599
0.516113 0.516113 0.516113
0.580627 0.580627 0.580627
0.645172 0.645172 0.645172
0.645172 0.645172 0.645172
0.645172 0.645172 0.645172
0.709686 0.709686 0.709686
0.387085 0.387085 0.387085
0.451599 0.451599 0.451599
0.516113 0.516113 0.516113
0.580627 0.580627 0.580627
0.645172 0.645172 0.645172
0.709686 0.709686 0.709686
0.709686 0.709686 0.709686
0.774200 0.774200 0.774200
0.387085 0.387085 0.387085
0.451599 0.451599 0.451599
0.516113 0.516113 0.516113
0.580627 0.580627 0.580627
0.645172 0.645172 0.645172
0.709686 0.709686 0.709686
0.774200 0.774200 0.774200
0.838715 0.838715 0.838715
0.451599 0.451599 0.451599
0.516113 0.516113 0.516113
0.580627 0.580627 0.580627
0.645142 0.645142 0.645142
0.709686 0.709686 0.709686
0.774200 0.774200 0.774200
0.838715 0.838715 0.838715
0.838715 0.838715 0.838715
0.451599 0.451599 0.451599
0.451599 0.451599 0.451599
0.451599 0.451599 0.451599
0.451599 0.451599 0.451599
0.451599 0.451599 0.451599
0.451599 0.451599 0.451599
0.451599 0.451599 0.451599
0.451599 0.451599 0.451599
0.451599 0.451599 0.451599
0.516113 0.516113 0.516113
0.516113 0.516113 0.516113
0.516113 0.516113 0.516113
0.516113 0.516113 0.516113
0.516113 0.516113 0.516113
0.516113 0.516113 0.516113
0.516113 0.516113 0.516113
0.451599 0.451599 0.451599
0.516113 0.516113 0.516113
0.580627 0.580627 0.580627
0.580627 0.580627 0.580627
0.580627 0.580627 0.580627
0.580627 0.580627 0.580627
0.580627 0.580627 0.580627
0.580627 0.580627 0.580627
0.451599 0.451599 0.451599
0.516113 0.516113 0.516113
0.580627 0.580627 0.580627
0.645142 0.645142 0.645142
0.645142 0.645142 0.645142
0.645142 0.645142 0.645142
0.645142 0.645142 0.645142
0.645142 0.645142 0.645142
0.451599 0.451599 0.451599
0.516113 0.516113 0.516113
0.580627 0.580627 0.580627
0.645142 0.645142 0.645142
0.709686 0.709686 0.709686
0.709686 0.709686 0.709686
0.709686 0.709686 0.709686
0.709686 0.709686 0.709686
0.451599 0.451599 0.451599
0.516113 0.516113 0.516113
0.580627 0.580627 0.580627
0.645142 0.645142 0.645142
0.709686 0.709686 0.709686
0.774200 0.774200 0.774200
0.774200 0.774200 0.774200
0.774200 0.774200 0.774200
0.451599 0.451599 0.451599
0.516113 0.516113 0.516113
0.580627 0.580627 0.580627
0.645142 0.645142 0.645142
0.709686 0.709686 0.709686
0.774200 0.774200 0.774200
0.838715 0.838715 0.838715
0.838715 0.838715 0.838715
0.451599 0.451599 0.451599
0.516113 0.516113 0.516113
0.580627 0.580627 0.580627
0.645142 0.645142 0.645142
0.709686 0.709686 0.709686
0.774200 0.774200 0.774200
0.838715 0.838715 0.838715
0.903229 0.903229 0.903229
