nxshell/qtbased/image-editor/libimagevisualresult/filter_cube/gray.CUBE
#Created by: Adobe Photoshop Export Color Lookup Plugin
TITLE "相机滤镜调试.psd"
#LUT size
LUT_3D_SIZE 32
#data domain
DOMAIN_MIN 0.0 0.0 0.0
DOMAIN_MAX 1.0 1.0 1.0
#LUT data points
0.000000 0.000000 0.000000
0.016113 0.016113 0.016113
0.032257 0.032257 0.032257
0.048370 0.048370 0.048370
0.064514 0.064514 0.064514
0.080627 0.080627 0.080627
0.096771 0.096771 0.096771
0.112885 0.112885 0.112885
0.129028 0.129028 0.129028
0.145142 0.145142 0.145142
0.161285 0.161285 0.161285
0.177399 0.177399 0.177399
0.193542 0.193542 0.193542
0.209656 0.209656 0.209656
0.225800 0.225800 0.225800
0.241913 0.241913 0.241913
0.258057 0.258057 0.258057
0.274200 0.274200 0.274200
0.290314 0.290314 0.290314
0.306458 0.306458 0.306458
0.322571 0.322571 0.322571
0.338715 0.338715 0.338715
0.354828 0.354828 0.354828
0.370972 0.370972 0.370972
0.387085 0.387085 0.387085
0.403229 0.403229 0.403229
0.419342 0.419342 0.419342
0.435486 0.435486 0.435486
0.451599 0.451599 0.451599
0.467743 0.467743 0.467743
0.483856 0.483856 0.483856
0.500000 0.500000 0.500000
0.016113 0.016113 0.016113
0.016113 0.016113 0.016113
0.032257 0.032257 0.032257
0.048370 0.048370 0.048370
0.064514 0.064514 0.064514
0.080627 0.080627 0.080627
0.096771 0.096771 0.096771
0.112885 0.112885 0.112885
0.129028 0.129028 0.129028
0.145142 0.145142 0.145142
0.161285 0.161285 0.161285
0.177399 0.177399 0.177399
0.193542 0.193542 0.193542
0.209656 0.209656 0.209656
0.225800 0.225800 0.225800
0.241913 0.241913 0.241913
0.258057 0.258057 0.258057
0.274200 0.274200 0.274200
0.290314 0.290314 0.290314
0.306458 0.306458 0.306458
0.322571 0.322571 0.322571
0.338715 0.338715 0.338715
0.354828 0.354828 0.354828
0.370972 0.370972 0.370972
0.387085 0.387085 0.387085
0.403229 0.403229 0.403229
0.419342 0.419342 0.419342
0.435486 0.435486 0.435486
0.451599 0.451599 0.451599
0.467743 0.467743 0.467743
0.483856 0.483856 0.483856
0.500000 0.500000 0.500000
0.032257 0.032257 0.032257
0.032257 0.032257 0.032257
0.032257 0.032257 0.032257
0.048370 0.048370 0.048370
0.064514 0.064514 0.064514
0.080627 0.080627 0.080627
0.096771 0.096771 0.096771
0.112885 0.112885 0.112885
0.129028 0.129028 0.129028
0.145142 0.145142 0.145142
0.161285 0.161285 0.161285
0.177399 0.177399 0.177399
0.193542 0.193542 0.193542
0.209656 0.209656 0.209656
0.225800 0.225800 0.225800
0.241913 0.241913 0.241913
0.258057 0.258057 0.258057
0.274200 0.274200 0.274200
0.290314 0.290314 0.290314
0.306458 0.306458 0.306458
0.322571 0.322571 0.322571
0.338715 0.338715 0.338715
0.354828 0.354828 0.354828
0.370972 0.370972 0.370972
0.387085 0.387085 0.387085
0.403229 0.403229 0.403229
0.419342 0.419342 0.419342
0.435486 0.435486 0.435486
0.451599 0.451599 0.451599
0.467743 0.467743 0.467743
0.483856 0.483856 0.483856
0.500000 0.500000 0.500000
0.048370 0.048370 0.048370
0.048370 0.048370 0.048370
0.048370 0.048370 0.048370
0.048370 0.048370 0.048370
0.064514 0.064514 0.064514
0.080627 0.080627 0.080627
0.096771 0.096771 0.096771
0.112885 0.112885 0.112885
0.129028 0.129028 0.129028
0.145142 0.145142 0.145142
0.161285 0.161285 0.161285
0.177399 0.177399 0.177399
0.193542 0.193542 0.193542
0.209656 0.209656 0.209656
0.225800 0.225800 0.225800
0.241913 0.241913 0.241913
0.258057 0.258057 0.258057
0.274200 0.274200 0.274200
0.290314 0.290314 0.290314
0.306458 0.306458 0.306458
0.322571 0.322571 0.322571
0.338715 0.338715 0.338715
0.354828 0.354828 0.354828
0.370972 0.370972 0.370972
0.387085 0.387085 0.387085
0.403229 0.403229 0.403229
0.419342 0.419342 0.419342
0.435486 0.435486 0.435486
0.451599 0.451599 0.451599
0.467743 0.467743 0.467743
0.483856 0.483856 0.483856
0.500000 0.500000 0.500000
0.064514 0.064514 0.064514
0.064514 0.064514 0.064514
0.064514 0.064514 0.064514
0.064514 0.064514 0.064514
0.064514 0.064514 0.064514
0.080627 0.080627 0.080627
0.096771 0.096771 0.096771
0.112885 0.112885 0.112885
0.129028 0.129028 0.129028
0.145142 0.145142 0.145142
0.161285 0.161285 0.161285
0.177399 0.177399 0.177399
0.193542 0.193542 0.193542
0.209656 0.209656 0.209656
0.225800 0.225800 0.225800
0.241913 0.241913 0.241913
0.258057 0.258057 0.258057
0.274200 0.274200 0.274200
0.290314 0.290314 0.290314
0.306458 0.306458 0.306458
0.322571 0.322571 0.322571
0.338715 0.338715 0.338715
0.354828 0.354828 0.354828
0.370972 0.370972 0.370972
0.387085 0.387085 0.387085
0.403229 0.403229 0.403229
0.419342 0.419342 0.419342
0.435486 0.435486 0.435486
0.451599 0.451599 0.451599
0.467743 0.467743 0.467743
0.483856 0.483856 0.483856
0.500000 0.500000 0.500000
0.080627 0.080627 0.080627
0.080627 0.080627 0.080627
0.080627 0.080627 0.080627
0.080627 0.080627 0.080627
0.080627 0.080627 0.080627
0.080627 0.080627 0.080627
0.096771 0.096771 0.096771
0.112885 0.112885 0.112885
0.129028 0.129028 0.129028
0.145142 0.145142 0.145142
0.161285 0.161285 0.161285
0.177399 0.177399 0.177399
0.193542 0.193542 0.193542
0.209656 0.209656 0.209656
0.225800 0.225800 0.225800
0.241913 0.241913 0.241913
0.258057 0.258057 0.258057
0.274200 0.274200 0.274200
0.290314 0.290314 0.290314
0.306458 0.306458 0.306458
0.322571 0.322571 0.322571
0.338715 0.338715 0.338715
0.354828 0.354828 0.354828
0.370972 0.370972 0.370972
0.387085 0.387085 0.387085
0.403229 0.403229 0.403229
0.419342 0.419342 0.419342
0.435486 0.435486 0.435486
0.451599 0.451599 0.451599
0.467743 0.467743 0.467743
0.483856 0.483856 0.483856
0.500000 0.500000 0.500000
0.096771 0.096771 0.096771
0.096771 0.096771 0.096771
0.096771 0.096771 0.096771
0.096771 0.096771 0.096771
0.096771 0.096771 0.096771
0.096771 0.096771 0.096771
0.096771 0.096771 0.096771
0.112885 0.112885 0.112885
0.129028 0.129028 0.129028
0.145142 0.145142 0.145142
0.161285 0.161285 0.161285
0.177399 0.177399 0.177399
0.193542 0.193542 0.193542
0.209656 0.209656 0.209656
0.225800 0.225800 0.225800
0.241913 0.241913 0.241913
0.258057 0.258057 0.258057
0.274200 0.274200 0.274200
0.290314 0.290314 0.290314
0.306458 0.306458 0.306458
0.322571 0.322571 0.322571
0.338715 0.338715 0.338715
0.354828 0.354828 0.354828
0.370972 0.370972 0.370972
0.387085 0.387085 0.387085
0.403229 0.403229 0.403229
0.419342 0.419342 0.419342
0.435486 0.435486 0.435486
0.451599 0.451599 0.451599
0.467743 0.467743 0.467743
0.483856 0.483856 0.483856
0.500000 0.500000 0.500000
0.112885 0.112885 0.112885
0.112885 0.112885 0.112885
0.112885 0.112885 0.112885
0.112885 0.112885 0.112885
0.112885 0.112885 0.112885
0.112885 0.112885 0.112885
0.112885 0.112885 0.112885
0.112885 0.112885 0.112885
0.129028 0.129028 0.129028
0.145142 0.145142 0.145142
0.161285 0.161285 0.161285
0.177399 0.177399 0.177399
0.193542 0.193542 0.193542
0.209656 0.209656 0.209656
0.225800 0.225800 0.225800
0.241913 0.241913 0.241913
0.258057 0.258057 0.258057
0.274200 0.274200 0.274200
0.290314 0.290314 0.290314
0.306458 0.306458 0.306458
0.322571 0.322571 0.322571
0.338715 0.338715 0.338715
0.354828 0.354828 0.354828
0.370972 0.370972 0.370972
0.387085 0.387085 0.387085
0.403229 0.403229 0.403229
0.419342 0.419342 0.419342
0.435486 0.435486 0.435486
0.451599 0.451599 0.451599
0.467743 0.467743 0.467743
0.483856 0.483856 0.483856
0.500000 0.500000 0.500000
0.129028 0.129028 0.129028
0.129028 0.129028 0.129028
0.129028 0.129028 0.129028
0.129028 0.129028 0.129028
0.129028 0.129028 0.129028
0.129028 0.129028 0.129028
0.129028 0.129028 0.129028
0.129028 0.129028 0.129028
0.129028 0.129028 0.129028
0.145142 0.145142 0.145142
0.161285 0.161285 0.161285
0.177399 0.177399 0.177399
0.193542 0.193542 0.193542
0.209656 0.209656 0.209656
0.225800 0.225800 0.225800
0.241913 0.241913 0.241913
0.258057 0.258057 0.258057
0.274200 0.274200 0.274200
0.290314 0.290314 0.290314
0.306458 0.306458 0.306458
0.322571 0.322571 0.322571
0.338715 0.338715 0.338715
0.354828 0.354828 0.354828
0.370972 0.370972 0.370972
0.387085 0.387085 0.387085
0.403229 0.403229 0.403229
0.419342 0.419342 0.419342
0.435486 0.435486 0.435486
0.451599 0.451599 0.451599
0.467743 0.467743 0.467743
0.483856 0.483856 0.483856
0.500000 0.500000 0.500000
0.145142 0.145142 0.145142
0.145142 0.145142 0.145142
0.145142 0.145142 0.145142
0.145142 0.145142 0.145142
0.145142 0.145142 0.145142
0.145142 0.145142 0.145142
0.145142 0.145142 0.145142
0.145142 0.145142 0.145142
0.145142 0.145142 0.145142
0.145142 0.145142 0.145142
0.161285 0.161285 0.161285
0.177399 0.177399 0.177399
0.193542 0.193542 0.193542
0.209656 0.209656 0.209656
0.225800 0.225800 0.225800
0.241913 0.241913 0.241913
0.258057 0.258057 0.258057
0.274200 0.274200 0.274200
0.290314 0.290314 0.290314
0.306458 0.306458 0.306458
0.322571 0.322571 0.322571
0.338715 0.338715 0.338715
0.354828 0.354828 0.354828
0.370972 0.370972 0.370972
0.387085 0.387085 0.387085
0.403229 0.403229 0.403229
0.419342 0.419342 0.419342
0.435486 0.435486 0.435486
0.451599 0.451599 0.451599
0.467743 0.467743 0.467743
0.483856 0.483856 0.483856
0.500000 0.500000 0.500000
0.161285 0.161285 0.161285
0.161285 0.161285 0.161285
0.161285 0.161285 0.161285
0.161285 0.161285 0.161285
0.161285 0.161285 0.161285
0.161285 0.161285 0.161285
0.161285 0.161285 0.161285
0.161285 0.161285 0.161285
0.161285 0.161285 0.161285
0.161285 0.161285 0.161285
0.161285 0.161285 0.161285
0.177399 0.177399 0.177399
0.193542 0.193542 0.193542
0.209656 0.209656 0.209656
0.225800 0.225800 0.225800
0.241913 0.241913 0.241913
0.258057 0.258057 0.258057
0.274200 0.274200 0.274200
0.290314 0.290314 0.290314
0.306458 0.306458 0.306458
0.322571 0.322571 0.322571
0.338715 0.338715 0.338715
0.354828 0.354828 0.354828
0.370972 0.370972 0.370972
0.387085 0.387085 0.387085
0.403229 0.403229 0.403229
0.419342 0.419342 0.419342
0.435486 0.435486 0.435486
0.451599 0.451599 0.451599
0.467743 0.467743 0.467743
0.483856 0.483856 0.483856
0.500000 0.500000 0.500000
0.177399 0.177399 0.177399
0.177399 0.177399 0.177399
0.177399 0.177399 0.177399
0.177399 0.177399 0.177399
0.177399 0.177399 0.177399
0.177399 0.177399 0.177399
0.177399 0.177399 0.177399
0.177399 0.177399 0.177399
0.177399 0.177399 0.177399
0.177399 0.177399 0.177399
0.177399 0.177399 0.177399
0.177399 0.177399 0.177399
0.193542 0.193542 0.193542
0.209656 0.209656 0.209656
0.225800 0.225800 0.225800
0.241913 0.241913 0.241913
0.258057 0.258057 0.258057
0.274200 0.274200 0.274200
0.290314 0.290314 0.290314
0.306458 0.306458 0.306458
0.322571 0.322571 0.322571
0.338715 0.338715 0.338715
0.354828 0.354828 0.354828
0.370972 0.370972 0.370972
0.387085 0.387085 0.387085
0.403229 0.403229 0.403229
0.419342 0.419342 0.419342
0.435486 0.435486 0.435486
0.451599 0.451599 0.451599
0.467743 0.467743 0.467743
0.483856 0.483856 0.483856
0.500000 0.500000 0.500000
0.193542 0.193542 0.193542
0.193542 0.193542 0.193542
0.193542 0.193542 0.193542
0.193542 0.193542 0.193542
0.193542 0.193542 0.193542
0.193542 0.193542 0.193542
0.193542 0.193542 0.193542
0.193542 0.193542 0.193542
0.193542 0.193542 0.193542
0.193542 0.193542 0.193542
0.193542 0.193542 0.193542
0.193542 0.193542 0.193542
0.193542 0.193542 0.193542
0.209656 0.209656 0.209656
0.225800 0.225800 0.225800
0.241913 0.241913 0.241913
0.258057 0.258057 0.258057
0.274200 0.274200 0.274200
0.290314 0.290314 0.290314
0.306458 0.306458 0.306458
0.322571 0.322571 0.322571
0.338715 0.338715 0.338715
0.354828 0.354828 0.354828
0.370972 0.370972 0.370972
0.387085 0.387085 0.387085
0.403229 0.403229 0.403229
0.419342 0.419342 0.419342
0.435486 0.435486 0.435486
0.451599 0.451599 0.451599
0.467743 0.467743 0.467743
0.483856 0.483856 0.483856
0.500000 0.500000 0.500000
0.209656 0.209656 0.209656
0.209656 0.209656 0.209656
0.209656 0.209656 0.209656
0.209656 0.209656 0.209656
0.209656 0.209656 0.209656
0.209656 0.209656 0.209656
0.209656 0.209656 0.209656
0.209656 0.209656 0.209656
0.209656 0.209656 0.209656
0.209656 0.209656 0.209656
0.209656 0.209656 0.209656
0.209656 0.209656 0.209656
0.209656 0.209656 0.209656
0.209656 0.209656 0.209656
0.225800 0.225800 0.225800
0.241913 0.241913 0.241913
0.258057 0.258057 0.258057
0.274200 0.274200 0.274200
0.290314 0.290314 0.290314
0.306458 0.306458 0.306458
0.322571 0.322571 0.322571
0.338715 0.338715 0.338715
0.354828 0.354828 0.354828
0.370972 0.370972 0.370972
0.387085 0.387085 0.387085
0.403229 0.403229 0.403229
0.419342 0.419342 0.419342
0.435486 0.435486 0.435486
0.451599 0.451599 0.451599
0.467743 0.467743 0.467743
0.483856 0.483856 0.483856
0.500000 0.500000 0.500000
0.225800 0.225800 0.225800
0.225800 0.225800 0.225800
0.225800 0.225800 0.225800
0.225800 0.225800 0.225800
0.225800 0.225800 0.225800
0.225800 0.225800 0.225800
0.225800 0.225800 0.225800
0.225800 0.225800 0.225800
0.225800 0.225800 0.225800
0.225800 0.225800 0.225800
0.225800 0.225800 0.225800
0.225800 0.225800 0.225800
0.225800 0.225800 0.225800
0.225800 0.225800 0.225800
0.225800 0.225800 0.225800
0.241913 0.241913 0.241913
0.258057 0.258057 0.258057
0.274200 0.274200 0.274200
0.290314 0.290314 0.290314
0.306458 0.306458 0.306458
0.322571 0.322571 0.322571
0.338715 0.338715 0.338715
0.354828 0.354828 0.354828
0.370972 0.370972 0.370972
0.387085 0.387085 0.387085
0.403229 0.403229 0.403229
0.419342 0.419342 0.419342
0.435486 0.435486 0.435486
0.451599 0.451599 0.451599
0.467743 0.467743 0.467743
0.483856 0.483856 0.483856
0.500000 0.500000 0.500000
0.241913 0.241913 0.241913
0.241913 0.241913 0.241913
0.241913 0.241913 0.241913
0.241913 0.241913 0.241913
0.241913 0.241913 0.241913
0.241913 0.241913 0.241913
0.241913 0.241913 0.241913
0.241913 0.241913 0.241913
0.241913 0.241913 0.241913
0.241913 0.241913 0.241913
0.241913 0.241913 0.241913
0.241913 0.241913 0.241913
0.241913 0.241913 0.241913
0.241913 0.241913 0.241913
0.241913 0.241913 0.241913
0.241913 0.241913 0.241913
0.258057 0.258057 0.258057
0.274200 0.274200 0.274200
0.290314 0.290314 0.290314
0.306458 0.306458 0.306458
0.322571 0.322571 0.322571
0.338715 0.338715 0.338715
0.354828 0.354828 0.354828
0.370972 0.370972 0.370972
0.387085 0.387085 0.387085
0.403229 0.403229 0.403229
0.419342 0.419342 0.419342
0.435486 0.435486 0.435486
0.451599 0.451599 0.451599
0.467743 0.467743 0.467743
0.483856 0.483856 0.483856
0.500000 0.500000 0.500000
0.258057 0.258057 0.258057
0.258057 0.258057 0.258057
0.258057 0.258057 0.258057
0.258057 0.258057 0.258057
0.258057 0.258057 0.258057
0.258057 0.258057 0.258057
0.258057 0.258057 0.258057
0.258057 0.258057 0.258057
0.258057 0.258057 0.258057
0.258057 0.258057 0.258057
0.258057 0.258057 0.258057
0.258057 0.258057 0.258057
0.258057 0.258057 0.258057
0.258057 0.258057 0.258057
0.258057 0.258057 0.258057
0.258057 0.258057 0.258057
0.258057 0.258057 0.258057
0.274200 0.274200 0.274200
0.290314 0.290314 0.290314
0.306458 0.306458 0.306458
0.322571 0.322571 0.322571
0.338715 0.338715 0.338715
0.354828 0.354828 0.354828
0.370972 0.370972 0.370972
0.387085 0.387085 0.387085
0.403229 0.403229 0.403229
0.419342 0.419342 0.419342
0.435486 0.435486 0.435486
0.451599 0.451599 0.451599
0.467743 0.467743 0.467743
0.483856 0.483856 0.483856
0.500000 0.500000 0.500000
0.274200 0.274200 0.274200
0.274200 0.274200 0.274200
0.274200 0.274200 0.274200
0.274200 0.274200 0.274200
0.274200 0.274200 0.274200
0.274200 0.274200 0.274200
0.274200 0.274200 0.274200
0.274200 0.274200 0.274200
0.274200 0.274200 0.274200
0.274200 0.274200 0.274200
0.274200 0.274200 0.274200
0.274200 0.274200 0.274200
0.274200 0.274200 0.274200
0.274200 0.274200 0.274200
0.274200 0.274200 0.274200
0.274200 0.274200 0.274200
0.274200 0.274200 0.274200
0.274200 0.274200 0.274200
0.290314 0.290314 0.290314
0.306458 0.306458 0.306458
0.322571 0.322571 0.322571
0.338715 0.338715 0.338715
0.354828 0.354828 0.354828
0.370972 0.370972 0.370972
0.387085 0.387085 0.387085
0.403229 0.403229 0.403229
0.419342 0.419342 0.419342
0.435486 0.435486 0.435486
0.451599 0.451599 0.451599
0.467743 0.467743 0.467743
0.483856 0.483856 0.483856
0.500000 0.500000 0.500000
0.290314 0.290314 0.290314
0.290314 0.290314 0.290314
0.290314 0.290314 0.290314
0.290314 0.290314 0.290314
0.290314 0.290314 0.290314
0.290314 0.290314 0.290314
0.290314 0.290314 0.290314
0.290314 0.290314 0.290314
0.290314 0.290314 0.290314
0.290314 0.290314 0.290314
0.290314 0.290314 0.290314
0.290314 0.290314 0.290314
0.290314 0.290314 0.290314
0.290314 0.290314 0.290314
0.290314 0.290314 0.290314
0.290314 0.290314 0.290314
0.290314 0.290314 0.290314
0.290314 0.290314 0.290314
0.290314 0.290314 0.290314
0.306458 0.306458 0.306458
0.322571 0.322571 0.322571
0.338715 0.338715 0.338715
0.354828 0.354828 0.354828
0.370972 0.370972 0.370972
0.387085 0.387085 0.387085
0.403229 0.403229 0.403229
0.419342 0.419342 0.419342
0.435486 0.435486 0.435486
0.451599 0.451599 0.451599
0.467743 0.467743 0.467743
0.483856 0.483856 0.483856
0.500000 0.500000 0.500000
0.306458 0.306458 0.306458
0.306458 0.306458 0.306458
0.306458 0.306458 0.306458
0.306458 0.306458 0.306458
0.306458 0.306458 0.306458
0.306458 0.306458 0.306458
0.306458 0.306458 0.306458
0.306458 0.306458 0.306458
0.306458 0.306458 0.306458
0.306458 0.306458 0.306458
0.306458 0.306458 0.306458
0.306458 0.306458 0.306458
0.306458 0.306458 0.306458
0.306458 0.306458 0.306458
0.306458 0.306458 0.306458
0.306458 0.306458 0.306458
0.306458 0.306458 0.306458
0.306458 0.306458 0.306458
0.306458 0.306458 0.306458
0.306458 0.306458 0.306458
0.322571 0.322571 0.322571
0.338715 0.338715 0.338715
0.354828 0.354828 0.354828
0.370972 0.370972 0.370972
0.387085 0.387085 0.387085
0.403229 0.403229 0.403229
0.419342 0.419342 0.419342
0.435486 0.435486 0.435486
0.451599 0.451599 0.451599
0.467743 0.467743 0.467743
0.483856 0.483856 0.483856
0.500000 0.500000 0.500000
0.322571 0.322571 0.322571
0.322571 0.322571 0.322571
0.322571 0.322571 0.322571
0.322571 0.322571 0.322571
0.322571 0.322571 0.322571
0.322571 0.322571 0.322571
0.322571 0.322571 0.322571
0.322571 0.322571 0.322571
0.322571 0.322571 0.322571
0.322571 0.322571 0.322571
0.322571 0.322571 0.322571
0.322571 0.322571 0.322571
0.322571 0.322571 0.322571
0.322571 0.322571 0.322571
0.322571 0.322571 0.322571
0.322571 0.322571 0.322571
0.322571 0.322571 0.322571
0.322571 0.322571 0.322571
0.322571 0.322571 0.322571
0.322571 0.322571 0.322571
0.322571 0.322571 0.322571
0.338715 0.338715 0.338715
0.354828 0.354828 0.354828
0.370972 0.370972 0.370972
0.387085 0.387085 0.387085
0.403229 0.403229 0.403229
0.419342 0.419342 0.419342
0.435486 0.435486 0.435486
0.451599 0.451599 0.451599
0.467743 0.467743 0.467743
0.483856 0.483856 0.483856
0.500000 0.500000 0.500000
0.338715 0.338715 0.338715
0.338715 0.338715 0.338715
0.338715 0.338715 0.338715
0.338715 0.338715 0.338715
0.338715 0.338715 0.338715
0.338715 0.338715 0.338715
0.338715 0.338715 0.338715
0.338715 0.338715 0.338715
0.338715 0.338715 0.338715
0.338715 0.338715 0.338715
0.338715 0.338715 0.338715
0.338715 0.338715 0.338715
0.338715 0.338715 0.338715
0.338715 0.338715 0.338715
0.338715 0.338715 0.338715
0.338715 0.338715 0.338715
0.338715 0.338715 0.338715
0.338715 0.338715 0.338715
0.338715 0.338715 0.338715
0.338715 0.338715 0.338715
0.338715 0.338715 0.338715
0.338715 0.338715 0.338715
0.354828 0.354828 0.354828
0.370972 0.370972 0.370972
0.387085 0.387085 0.387085
0.403229 0.403229 0.403229
0.419342 0.419342 0.419342
0.435486 0.435486 0.435486
0.451599 0.451599 0.451599
0.467743 0.467743 0.467743
0.483856 0.483856 0.483856
0.500000 0.500000 0.500000
0.354828 0.354828 0.354828
0.354828 0.354828 0.354828
0.354828 0.354828 0.354828
0.354828 0.354828 0.354828
0.354828 0.354828 0.354828
0.354828 0.354828 0.354828
0.354828 0.354828 0.354828
0.354828 0.354828 0.354828
0.354828 0.354828 0.354828
0.354828 0.354828 0.354828
0.354828 0.354828 0.354828
0.354828 0.354828 0.354828
0.354828 0.354828 0.354828
0.354828 0.354828 0.354828
0.354828 0.354828 0.354828
0.354828 0.354828 0.354828
0.354828 0.354828 0.354828
0.354828 0.354828 0.354828
0.354828 0.354828 0.354828
0.354828 0.354828 0.354828
0.354828 0.354828 0.354828
0.354828 0.354828 0.354828
0.354828 0.354828 0.354828
0.370972 0.370972 0.370972
0.387085 0.387085 0.387085
0.403229 0.403229 0.403229
0.419342 0.419342 0.419342
0.435486 0.435486 0.435486
0.451599 0.451599 0.451599
0.467743 0.467743 0.467743
0.483856 0.483856 0.483856
0.500000 0.500000 0.500000
0.370972 0.370972 0.370972
0.370972 0.370972 0.370972
0.370972 0.370972 0.370972
0.370972 0.370972 0.370972
0.370972 0.370972 0.370972
0.370972 0.370972 0.370972
0.370972 0.370972 0.370972
0.370972 0.370972 0.370972
0.370972 0.370972 0.370972
0.370972 0.370972 0.370972
0.370972 0.370972 0.370972
0.370972 0.370972 0.370972
0.370972 0.370972 0.370972
0.370972 0.370972 0.370972
0.370972 0.370972 0.370972
0.370972 0.370972 0.370972
0.370972 0.370972 0.370972
0.370972 0.370972 0.370972
0.370972 0.370972 0.370972
0.370972 0.370972 0.370972
0.370972 0.370972 0.370972
0.370972 0.370972 0.370972
0.370972 0.370972 0.370972
0.370972 0.370972 0.370972
0.387085 0.387085 0.387085
0.403229 0.403229 0.403229
0.419342 0.419342 0.419342
0.435486 0.435486 0.435486
0.451599 0.451599 0.451599
0.467743 0.467743 0.467743
0.483856 0.483856 0.483856
0.500000 0.500000 0.500000
0.387085 0.387085 0.387085
0.387085 0.387085 0.387085
0.387085 0.387085 0.387085
0.387085 0.387085 0.387085
0.387085 0.387085 0.387085
0.387085 0.387085 0.387085
0.387085 0.387085 0.387085
0.387085 0.387085 0.387085
0.387085 0.387085 0.387085
0.387085 0.387085 0.387085
0.387085 0.387085 0.387085
0.387085 0.387085 0.387085
0.387085 0.387085 0.387085
0.387085 0.387085 0.387085
0.387085 0.387085 0.387085
0.387085 0.387085 0.387085
0.387085 0.387085 0.387085
0.387085 0.387085 0.387085
0.387085 0.387085 0.387085
0.387085 0.387085 0.387085
0.387085 0.387085 0.387085
0.387085 0.387085 0.387085
0.387085 0.387085 0.387085
0.387085 0.387085 0.387085
0.387085 0.387085 0.387085
0.403229 0.403229 0.403229
0.419342 0.419342 0.419342
0.435486 0.435486 0.435486
0.451599 0.451599 0.451599
0.467743 0.467743 0.467743
0.483856 0.483856 0.483856
0.500000 0.500000 0.500000
0.403229 0.403229 0.403229
0.403229 0.403229 0.403229
0.403229 0.403229 0.403229
0.403229 0.403229 0.403229
0.403229 0.403229 0.403229
0.403229 0.403229 0.403229
0.403229 0.403229 0.403229
0.403229 0.403229 0.403229
0.403229 0.403229 0.403229
0.403229 0.403229 0.403229
0.403229 0.403229 0.403229
0.403229 0.403229 0.403229
0.403229 0.403229 0.403229
0.403229 0.403229 0.403229
0.403229 0.403229 0.403229
0.403229 0.403229 0.403229
0.403229 0.403229 0.403229
0.403229 0.403229 0.403229
0.403229 0.403229 0.403229
0.403229 0.403229 0.403229
0.403229 0.403229 0.403229
0.403229 0.403229 0.403229
0.403229 0.403229 0.403229
0.403229 0.403229 0.403229
0.403229 0.403229 0.403229
0.403229 0.403229 0.403229
0.419342 0.419342 0.419342
0.435486 0.435486 0.435486
0.451599 0.451599 0.451599
0.467743 0.467743 0.467743
0.483856 0.483856 0.483856
0.500000 0.500000 0.500000
0.419342 0.419342 0.419342
0.419342 0.419342 0.419342
0.419342 0.419342 0.419342
0.419342 0.419342 0.419342
0.419342 0.419342 0.419342
0.419342 0.419342 0.419342
0.419342 0.419342 0.419342
0.419342 0.419342 0.419342
0.419342 0.419342 0.419342
0.419342 0.419342 0.419342
0.419342 0.419342 0.419342
0.419342 0.419342 0.419342
0.419342 0.419342 0.419342
0.419342 0.419342 0.419342
0.419342 0.419342 0.419342
0.419342 0.419342 0.419342
0.419342 0.419342 0.419342
0.419342 0.419342 0.419342
0.419342 0.419342 0.419342
0.419342 0.419342 0.419342
0.419342 0.419342 0.419342
0.419342 0.419342 0.419342
0.419342 0.419342 0.419342
0.419342 0.419342 0.419342
0.419342 0.419342 0.419342
0.419342 0.419342 0.419342
0.419342 0.419342 0.419342
0.435486 0.435486 0.435486
0.451599 0.451599 0.451599
0.467743 0.467743 0.467743
0.483856 0.483856 0.483856
0.500000 0.500000 0.500000
0.435486 0.435486 0.435486
0.435486 0.435486 0.435486
0.435486 0.435486 0.435486
0.435486 0.435486 0.435486
0.435486 0.435486 0.435486
0.435486 0.435486 0.435486
0.435486 0.435486 0.435486
0.435486 0.435486 0.435486
0.435486 0.435486 0.435486
0.435486 0.435486 0.435486
0.435486 0.435486 0.435486
0.435486 0.435486 0.435486
0.435486 0.435486 0.435486
0.435486 0.435486 0.435486
0.435486 0.435486 0.435486
0.435486 0.435486 0.435486
0.435486 0.435486 0.435486
0.435486 0.435486 0.435486
