nxshell/module/image-editor/libimagevisualresult/filter_cube/blues.CUBE
#Created by: Adobe Photoshop Export Color Lookup Plugin
TITLE "相机滤镜调试.psd"
#LUT size
LUT_3D_SIZE 8
#data domain
#LUT data points
DOMAIN_MIN 0.000000 0.000000 0.000000
DOMAIN_MAX 0.903226 0.903226 0.903226
0.000000 0.000000 0.000000
0.030182 0.000000 0.000000
0.095673 0.000000 0.000000
0.195831 0.000000 0.000000
0.347626 0.000000 0.000000
0.563568 0.000000 0.000000
0.779480 0.000000 0.000000
0.923553 0.000000 0.000000
0.000000 0.127075 0.000000
0.030182 0.127075 0.000000
0.095673 0.127075 0.000000
0.195831 0.127075 0.000000
0.347626 0.127075 0.000000
0.563568 0.127075 0.000000
0.779480 0.127075 0.000000
0.923553 0.127075 0.000000
0.000000 0.267761 0.000000
0.030182 0.267761 0.000000
0.095673 0.267761 0.000000
0.195831 0.267761 0.000000
0.347626 0.267761 0.000000
0.563568 0.267761 0.000000
0.779480 0.267761 0.000000
0.923553 0.267761 0.000000
0.000000 0.442078 0.000000
0.030182 0.442078 0.000000
0.095673 0.442078 0.000000
0.195831 0.442078 0.000000
0.347626 0.442078 0.000000
0.563568 0.442078 0.000000
0.779480 0.442078 0.000000
0.923553 0.442078 0.000000
0.000000 0.627991 0.000000
0.030182 0.627991 0.000000
0.095673 0.627991 0.000000
0.195831 0.627991 0.000000
0.347626 0.627991 0.000000
0.563568 0.627991 0.000000
0.779480 0.627991 0.000000
0.923553 0.627991 0.000000
0.000000 0.780914 0.000000
0.030182 0.780914 0.000000
0.095673 0.780914 0.000000
0.195831 0.780914 0.000000
0.347626 0.780914 0.000000
0.563568 0.780914 0.000000
0.779480 0.780914 0.000000
0.923553 0.780914 0.000000
0.000000 0.884583 0.000000
0.030182 0.884583 0.000000
0.095673 0.884583 0.000000
0.195831 0.884583 0.000000
0.347626 0.884583 0.000000
0.563568 0.884583 0.000000
0.779480 0.884583 0.000000
0.923553 0.884583 0.000000
0.000000 0.956238 0.000000
0.030182 0.956238 0.000000
0.095673 0.956238 0.000000
0.195831 0.956238 0.000000
0.347626 0.956238 0.000000
0.563568 0.956238 0.000000
0.779480 0.956238 0.000000
0.923553 0.956238 0.000000
0.000000 0.000000 0.281830
0.030182 0.000000 0.281830
0.095673 0.000000 0.281830
0.195831 0.000000 0.281830
0.347626 0.000000 0.281830
0.563568 0.000000 0.281830
0.779480 0.000000 0.281830
0.923553 0.000000 0.281830
0.000000 0.127075 0.281830
0.030182 0.127075 0.281830
0.095673 0.127075 0.281830
0.195831 0.127075 0.281830
0.347626 0.127075 0.281830
0.563568 0.127075 0.281830
0.779480 0.127075 0.281830
0.923553 0.127075 0.281830
0.000000 0.267761 0.281830
0.030182 0.267761 0.281830
0.095673 0.267761 0.281830
0.195831 0.267761 0.281830
0.347626 0.267761 0.281830
0.563568 0.267761 0.281830
0.779480 0.267761 0.281830
0.923553 0.267761 0.281830
0.000000 0.442078 0.281830
0.030182 0.442078 0.281830
0.095673 0.442078 0.281830
0.195831 0.442078 0.281830
0.347626 0.442078 0.281830
0.563568 0.442078 0.281830
0.779480 0.442078 0.281830
0.923553 0.442078 0.281830
0.000000 0.627991 0.281830
0.030182 0.627991 0.281830
0.095673 0.627991 0.281830
0.195831 0.627991 0.281830
0.347626 0.627991 0.281830
0.563568 0.627991 0.281830
0.779480 0.627991 0.281830
0.923553 0.627991 0.281830
0.000000 0.780914 0.281830
0.030182 0.780914 0.281830
0.095673 0.780914 0.281830
0.195831 0.780914 0.281830
0.347626 0.780914 0.281830
0.563568 0.780914 0.281830
0.779480 0.780914 0.281830
0.923553 0.780914 0.281830
0.000000 0.884583 0.281830
0.030182 0.884583 0.281830
0.095673 0.884583 0.281830
0.195831 0.884583 0.281830
0.347626 0.884583 0.281830
0.563568 0.884583 0.281830
0.779480 0.884583 0.281830
0.923553 0.884583 0.281830
0.000000 0.956238 0.281830
0.030182 0.956238 0.281830
0.095673 0.956238 0.281830
0.195831 0.956238 0.281830
0.347626 0.956238 0.281830
0.563568 0.956238 0.281830
0.779480 0.956238 0.281830
0.923553 0.956238 0.281830
0.000000 0.000000 0.490387
0.030182 0.000000 0.490387
0.095673 0.000000 0.490387
0.195831 0.000000 0.490387
0.347626 0.000000 0.490387
0.563568 0.000000 0.490387
0.779480 0.000000 0.490387
0.923553 0.000000 0.490387
0.000000 0.127075 0.490387
0.030182 0.127075 0.490387
0.095673 0.127075 0.490387
0.195831 0.127075 0.490387
0.347626 0.127075 0.490387
0.563568 0.127075 0.490387
0.779480 0.127075 0.490387
0.923553 0.127075 0.490387
0.000000 0.267761 0.490387
0.030182 0.267761 0.490387
0.095673 0.267761 0.490387
0.195831 0.267761 0.490387
0.347626 0.267761 0.490387
0.563568 0.267761 0.490387
0.779480 0.267761 0.490387
0.923553 0.267761 0.490387
0.000000 0.442078 0.490387
0.030182 0.442078 0.490387
0.095673 0.442078 0.490387
0.195831 0.442078 0.490387
0.347626 0.442078 0.490387
0.563568 0.442078 0.490387
0.779480 0.442078 0.490387
0.923553 0.442078 0.490387
0.000000 0.627991 0.490387
0.030182 0.627991 0.490387
0.095673 0.627991 0.490387
0.195831 0.627991 0.490387
0.347626 0.627991 0.490387
0.563568 0.627991 0.490387
0.779480 0.627991 0.490387
0.923553 0.627991 0.490387
0.000000 0.780914 0.490387
0.030182 0.780914 0.490387
0.095673 0.780914 0.490387
0.195831 0.780914 0.490387
0.347626 0.780914 0.490387
0.563568 0.780914 0.490387
0.779480 0.780914 0.490387
0.923553 0.780914 0.490387
0.000000 0.884583 0.490387
0.030182 0.884583 0.490387
0.095673 0.884583 0.490387
0.195831 0.884583 0.490387
0.347626 0.884583 0.490387
0.563568 0.884583 0.490387
0.779480 0.884583 0.490387
0.923553 0.884583 0.490387
0.000000 0.956238 0.490387
0.030182 0.956238 0.490387
0.095673 0.956238 0.490387
0.195831 0.956238 0.490387
0.347626 0.956238 0.490387
0.563568 0.956238 0.490387
0.779480 0.956238 0.490387
0.923553 0.956238 0.490387
0.000000 0.000000 0.666077
0.030182 0.000000 0.666077
0.095673 0.000000 0.666077
0.195831 0.000000 0.666077
0.347626 0.000000 0.666077
0.563568 0.000000 0.666077
0.779480 0.000000 0.666077
0.923553 0.000000 0.666077
0.000000 0.127075 0.666077
0.030182 0.127075 0.666077
0.095673 0.127075 0.666077
0.195831 0.127075 0.666077
0.347626 0.127075 0.666077
0.563568 0.127075 0.666077
0.779480 0.127075 0.666077
0.923553 0.127075 0.666077
0.000000 0.267761 0.666077
0.030182 0.267761 0.666077
0.095673 0.267761 0.666077
0.195831 0.267761 0.666077
0.347626 0.267761 0.666077
0.563568 0.267761 0.666077
0.779480 0.267761 0.666077
0.923553 0.267761 0.666077
0.000000 0.442078 0.666077
0.030182 0.442078 0.666077
0.095673 0.442078 0.666077
0.195831 0.442078 0.666077
0.347626 0.442078 0.666077
0.563568 0.442078 0.666077
0.779480 0.442078 0.666077
0.923553 0.442078 0.666077
0.000000 0.627991 0.666077
0.030182 0.627991 0.666077
0.095673 0.627991 0.666077
0.195831 0.627991 0.666077
0.347626 0.627991 0.666077
0.563568 0.627991 0.666077
0.779480 0.627991 0.666077
0.923553 0.627991 0.666077
0.000000 0.780914 0.666077
0.030182 0.780914 0.666077
0.095673 0.780914 0.666077
0.195831 0.780914 0.666077
0.347626 0.780914 0.666077
0.563568 0.780914 0.666077
0.779480 0.780914 0.666077
0.923553 0.780914 0.666077
0.000000 0.884583 0.666077
0.030182 0.884583 0.666077
0.095673 0.884583 0.666077
0.195831 0.884583 0.666077
0.347626 0.884583 0.666077
0.563568 0.884583 0.666077
0.779480 0.884583 0.666077
0.923553 0.884583 0.666077
0.000000 0.956238 0.666077
0.030182 0.956238 0.666077
0.095673 0.956238 0.666077
0.195831 0.956238 0.666077
0.347626 0.956238 0.666077
0.563568 0.956238 0.666077
0.779480 0.956238 0.666077
0.923553 0.956238 0.666077
0.000000 0.000000 0.790161
0.030182 0.000000 0.790161
0.095673 0.000000 0.790161
0.195831 0.000000 0.790161
0.347626 0.000000 0.790161
0.563568 0.000000 0.790161
0.779480 0.000000 0.790161
0.923553 0.000000 0.790161
0.000000 0.127075 0.790161
0.030182 0.127075 0.790161
0.095673 0.127075 0.790161
0.195831 0.127075 0.790161
0.347626 0.127075 0.790161
0.563568 0.127075 0.790161
0.779480 0.127075 0.790161
0.923553 0.127075 0.790161
0.000000 0.267761 0.790161
0.030182 0.267761 0.790161
0.095673 0.267761 0.790161
0.195831 0.267761 0.790161
0.347626 0.267761 0.790161
0.563568 0.267761 0.790161
0.779480 0.267761 0.790161
0.923553 0.267761 0.790161
0.000000 0.442078 0.790161
0.030182 0.442078 0.790161
0.095673 0.442078 0.790161
0.195831 0.442078 0.790161
0.347626 0.442078 0.790161
0.563568 0.442078 0.790161
0.779480 0.442078 0.790161
0.923553 0.442078 0.790161
0.000000 0.627991 0.790161
0.030182 0.627991 0.790161
0.095673 0.627991 0.790161
0.195831 0.627991 0.790161
0.347626 0.627991 0.790161
0.563568 0.627991 0.790161
0.779480 0.627991 0.790161
0.923553 0.627991 0.790161
0.000000 0.780914 0.790161
0.030182 0.780914 0.790161
0.095673 0.780914 0.790161
0.195831 0.780914 0.790161
0.347626 0.780914 0.790161
0.563568 0.780914 0.790161
0.779480 0.780914 0.790161
0.923553 0.780914 0.790161
0.000000 0.884583 0.790161
0.030182 0.884583 0.790161
0.095673 0.884583 0.790161
0.195831 0.884583 0.790161
0.347626 0.884583 0.790161
0.563568 0.884583 0.790161
0.779480 0.884583 0.790161
0.923553 0.884583 0.790161
0.000000 0.956238 0.790161
0.030182 0.956238 0.790161
0.095673 0.956238 0.790161
0.195831 0.956238 0.790161
0.347626 0.956238 0.790161
0.563568 0.956238 0.790161
0.779480 0.956238 0.790161
0.923553 0.956238 0.790161
0.000000 0.000000 0.871887
0.030182 0.000000 0.871887
0.095673 0.000000 0.871887
0.195831 0.000000 0.871887
0.347626 0.000000 0.871887
0.563568 0.000000 0.871887
0.779480 0.000000 0.871887
0.923553 0.000000 0.871887
0.000000 0.127075 0.871887
0.030182 0.127075 0.871887
0.095673 0.127075 0.871887
0.195831 0.127075 0.871887
0.347626 0.127075 0.871887
0.563568 0.127075 0.871887
0.779480 0.127075 0.871887
0.923553 0.127075 0.871887
0.000000 0.267761 0.871887
0.030182 0.267761 0.871887
0.095673 0.267761 0.871887
0.195831 0.267761 0.871887
0.347626 0.267761 0.871887
0.563568 0.267761 0.871887
0.779480 0.267761 0.871887
0.923553 0.267761 0.871887
0.000000 0.442078 0.871887
0.030182 0.442078 0.871887
0.095673 0.442078 0.871887
0.195831 0.442078 0.871887
0.347626 0.442078 0.871887
0.563568 0.442078 0.871887
0.779480 0.442078 0.871887
0.923553 0.442078 0.871887
0.000000 0.627991 0.871887
0.030182 0.627991 0.871887
0.095673 0.627991 0.871887
0.195831 0.627991 0.871887
0.347626 0.627991 0.871887
0.563568 0.627991 0.871887
0.779480 0.627991 0.871887
0.923553 0.627991 0.871887
0.000000 0.780914 0.871887
0.030182 0.780914 0.871887
0.095673 0.780914 0.871887
0.195831 0.780914 0.871887
0.347626 0.780914 0.871887
0.563568 0.780914 0.871887
0.779480 0.780914 0.871887
0.923553 0.780914 0.871887
0.000000 0.884583 0.871887
0.030182 0.884583 0.871887
0.095673 0.884583 0.871887
0.195831 0.884583 0.871887
0.347626 0.884583 0.871887
0.563568 0.884583 0.871887
0.779480 0.884583 0.871887
0.923553 0.884583 0.871887
0.000000 0.956238 0.871887
0.030182 0.956238 0.871887
0.095673 0.956238 0.871887
0.195831 0.956238 0.871887
0.347626 0.956238 0.871887
0.563568 0.956238 0.871887
0.779480 0.956238 0.871887
0.923553 0.956238 0.871887
0.000000 0.000000 0.928741
0.030182 0.000000 0.928741
0.095673 0.000000 0.928741
0.195831 0.000000 0.928741
0.347626 0.000000 0.928741
0.563568 0.000000 0.928741
0.779480 0.000000 0.928741
0.923553 0.000000 0.928741
0.000000 0.127075 0.928741
0.030182 0.127075 0.928741
0.095673 0.127075 0.928741
0.195831 0.127075 0.928741
0.347626 0.127075 0.928741
0.563568 0.127075 0.928741
0.779480 0.127075 0.928741
0.923553 0.127075 0.928741
0.000000 0.267761 0.928741
0.030182 0.267761 0.928741
0.095673 0.267761 0.928741
0.195831 0.267761 0.928741
0.347626 0.267761 0.928741
0.563568 0.267761 0.928741
0.779480 0.267761 0.928741
0.923553 0.267761 0.928741
0.000000 0.442078 0.928741
0.030182 0.442078 0.928741
0.095673 0.442078 0.928741
0.195831 0.442078 0.928741
0.347626 0.442078 0.928741
0.563568 0.442078 0.928741
0.779480 0.442078 0.928741
0.923553 0.442078 0.928741
0.000000 0.627991 0.928741
0.030182 0.627991 0.928741
0.095673 0.627991 0.928741
0.195831 0.627991 0.928741
0.347626 0.627991 0.928741
0.563568 0.627991 0.928741
0.779480 0.627991 0.928741
0.923553 0.627991 0.928741
0.000000 0.780914 0.928741
0.030182 0.780914 0.928741
0.095673 0.780914 0.928741
0.195831 0.780914 0.928741
0.347626 0.780914 0.928741
0.563568 0.780914 0.928741
0.779480 0.780914 0.928741
0.923553 0.780914 0.928741
0.000000 0.884583 0.928741
0.030182 0.884583 0.928741
0.095673 0.884583 0.928741
0.195831 0.884583 0.928741
0.347626 0.884583 0.928741
0.563568 0.884583 0.928741
0.779480 0.884583 0.928741
0.923553 0.884583 0.928741
0.000000 0.956238 0.928741
0.030182 0.956238 0.928741
0.095673 0.956238 0.928741
0.195831 0.956238 0.928741
0.347626 0.956238 0.928741
0.563568 0.956238 0.928741
0.779480 0.956238 0.928741
0.923553 0.956238 0.928741
0.000000 0.000000 0.971924
0.030182 0.000000 0.971924
0.095673 0.000000 0.971924
0.195831 0.000000 0.971924
0.347626 0.000000 0.971924
0.563568 0.000000 0.971924
0.779480 0.000000 0.971924
0.923553 0.000000 0.971924
0.000000 0.127075 0.971924
0.030182 0.127075 0.971924
0.095673 0.127075 0.971924
0.195831 0.127075 0.971924
0.347626 0.127075 0.971924
0.563568 0.127075 0.971924
0.779480 0.127075 0.971924
0.923553 0.127075 0.971924
0.000000 0.267761 0.971924
0.030182 0.267761 0.971924
0.095673 0.267761 0.971924
0.195831 0.267761 0.971924
0.347626 0.267761 0.971924
0.563568 0.267761 0.971924
0.779480 0.267761 0.971924
0.923553 0.267761 0.971924
0.000000 0.442078 0.971924
0.030182 0.442078 0.971924
0.095673 0.442078 0.971924
0.195831 0.442078 0.971924
0.347626 0.442078 0.971924
0.563568 0.442078 0.971924
0.779480 0.442078 0.971924
0.923553 0.442078 0.971924
0.000000 0.627991 0.971924
0.030182 0.627991 0.971924
0.095673 0.627991 0.971924
0.195831 0.627991 0.971924
0.347626 0.627991 0.971924
0.563568 0.627991 0.971924
0.779480 0.627991 0.971924
0.923553 0.627991 0.971924
0.000000 0.780914 0.971924
0.030182 0.780914 0.971924
0.095673 0.780914 0.971924
0.195831 0.780914 0.971924
0.347626 0.780914 0.971924
0.563568 0.780914 0.971924
0.779480 0.780914 0.971924
0.923553 0.780914 0.971924
0.000000 0.884583 0.971924
0.030182 0.884583 0.971924
0.095673 0.884583 0.971924
0.195831 0.884583 0.971924
0.347626 0.884583 0.971924
0.563568 0.884583 0.971924
0.779480 0.884583 0.971924
0.923553 0.884583 0.971924
0.000000 0.956238 0.971924
0.030182 0.956238 0.971924
0.095673 0.956238 0.971924
0.195831 0.956238 0.971924
0.347626 0.956238 0.971924
0.563568 0.956238 0.971924
0.779480 0.956238 0.971924
0.923553 0.956238 0.971924
