nxshell/module/image-editor/libimagevisualresult/filter_cube/blues.CUBE
#Created by: Adobe Photoshop Export Color Lookup Plugin
TITLE "相机滤镜调试.psd"
#LUT size
LUT_3D_SIZE 5
#data domain
#LUT data points
DOMAIN_MIN 0.000000 0.000000 0.000000
DOMAIN_MAX 0.903226 0.903226 0.903226
0.000000 0.000000 0.000000
0.076324 0.000000 0.000000
0.263550 0.000000 0.000000
0.621704 0.000000 0.000000
0.923553 0.000000 0.000000
0.000000 0.229889 0.000000
0.076324 0.229889 0.000000
0.263550 0.229889 0.000000
0.621704 0.229889 0.000000
0.923553 0.229889 0.000000
0.000000 0.536469 0.000000
0.076324 0.536469 0.000000
0.263550 0.536469 0.000000
0.621704 0.536469 0.000000
0.923553 0.536469 0.000000
0.000000 0.810852 0.000000
0.076324 0.810852 0.000000
0.263550 0.810852 0.000000
0.621704 0.810852 0.000000
0.923553 0.810852 0.000000
0.000000 0.956238 0.000000
0.076324 0.956238 0.000000
0.263550 0.956238 0.000000
0.621704 0.956238 0.000000
0.923553 0.956238 0.000000
0.000000 0.000000 0.440094
0.076324 0.000000 0.440094
0.263550 0.000000 0.440094
0.621704 0.000000 0.440094
0.923553 0.000000 0.440094
0.000000 0.229889 0.440094
0.076324 0.229889 0.440094
0.263550 0.229889 0.440094
0.621704 0.229889 0.440094
0.923553 0.229889 0.440094
0.000000 0.536469 0.440094
0.076324 0.536469 0.440094
0.263550 0.536469 0.440094
0.621704 0.536469 0.440094
0.923553 0.536469 0.440094
0.000000 0.810852 0.440094
0.076324 0.810852 0.440094
0.263550 0.810852 0.440094
0.621704 0.810852 0.440094
0.923553 0.810852 0.440094
0.000000 0.956238 0.440094
0.076324 0.956238 0.440094
0.263550 0.956238 0.440094
0.621704 0.956238 0.440094
0.923553 0.956238 0.440094
0.000000 0.000000 0.734772
0.076324 0.000000 0.734772
0.263550 0.000000 0.734772
0.621704 0.000000 0.734772
0.923553 0.000000 0.734772
0.000000 0.229889 0.734772
0.076324 0.229889 0.734772
0.263550 0.229889 0.734772
0.621704 0.229889 0.734772
0.923553 0.229889 0.734772
0.000000 0.536469 0.734772
0.076324 0.536469 0.734772
0.263550 0.536469 0.734772
0.621704 0.536469 0.734772
0.923553 0.536469 0.734772
0.000000 0.810852 0.734772
0.076324 0.810852 0.734772
0.263550 0.810852 0.734772
0.621704 0.810852 0.734772
0.923553 0.810852 0.734772
0.000000 0.956238 0.734772
0.076324 0.956238 0.734772
0.263550 0.956238 0.734772
0.621704 0.956238 0.734772
0.923553 0.956238 0.734772
0.000000 0.000000 0.887909
0.076324 0.000000 0.887909
0.263550 0.000000 0.887909
0.621704 0.000000 0.887909
0.923553 0.000000 0.887909
0.000000 0.229889 0.887909
0.076324 0.229889 0.887909
0.263550 0.229889 0.887909
0.621704 0.229889 0.887909
0.923553 0.229889 0.887909
0.000000 0.536469 0.887909
0.076324 0.536469 0.887909
0.263550 0.536469 0.887909
0.621704 0.536469 0.887909
0.923553 0.536469 0.887909
0.000000 0.810852 0.887909
0.076324 0.810852 0.887909
0.263550 0.810852 0.887909
0.621704 0.810852 0.887909
0.923553 0.810852 0.887909
0.000000 0.956238 0.887909
0.076324 0.956238 0.887909
0.263550 0.956238 0.887909
0.621704 0.956238 0.887909
0.923553 0.956238 0.887909
0.000000 0.000000 0.971924
0.076324 0.000000 0.971924
0.263550 0.000000 0.971924
0.621704 0.000000 0.971924
0.923553 0.000000 0.971924
0.000000 0.229889 0.971924
0.076324 0.229889 0.971924
0.263550 0.229889 0.971924
0.621704 0.229889 0.971924
0.923553 0.229889 0.971924
0.000000 0.536469 0.971924
0.076324 0.536469 0.971924
0.263550 0.536469 0.971924
0.621704 0.536469 0.971924
0.923553 0.536469 0.971924
0.000000 0.810852 0.971924
0.076324 0.810852 0.971924
0.263550 0.810852 0.971924
0.621704 0.810852 0.971924
0.923553 0.810852 0.971924
0.000000 0.956238 0.971924
0.076324 0.956238 0.971924
0.263550 0.956238 0.971924
0.621704 0.956238 0.971924
0.923553 0.956238 0.971924
