nxshell/module/image-editor/libimagevisualresult/filter_cube/blues.CUBE
#Created by: Adobe Photoshop Export Color Lookup Plugin
TITLE "相机滤镜调试.psd"
#LUT size
LUT_3D_SIZE 32
#data domain
DOMAIN_MIN 0.0 0.0 0.0
DOMAIN_MAX 1.0 1.0 1.0
#LUT data points
0.000000 0.000000 0.000000
0.003082 0.000000 0.000000
0.009674 0.000000 0.000000
0.018799 0.000000 0.000000
0.030182 0.000000 0.000000
0.043610 0.000000 0.000000
0.059021 0.000000 0.000000
0.076324 0.000000 0.000000
0.095673 0.000000 0.000000
0.117096 0.000000 0.000000
0.140778 0.000000 0.000000
0.166901 0.000000 0.000000
0.195831 0.000000 0.000000
0.227875 0.000000 0.000000
0.263550 0.000000 0.000000
0.303223 0.000000 0.000000
0.347626 0.000000 0.000000
0.396698 0.000000 0.000000
0.449707 0.000000 0.000000
0.505768 0.000000 0.000000
0.563568 0.000000 0.000000
0.621704 0.000000 0.000000
0.678345 0.000000 0.000000
0.731476 0.000000 0.000000
0.779480 0.000000 0.000000
0.822235 0.000000 0.000000
0.860107 0.000000 0.000000
0.893646 0.000000 0.000000
0.923553 0.000000 0.000000
0.950562 0.000000 0.000000
0.975677 0.000000 0.000000
1.000000 0.000000 0.000000
0.000000 0.032898 0.000000
0.003082 0.032898 0.000000
0.009674 0.032898 0.000000
0.018799 0.032898 0.000000
0.030182 0.032898 0.000000
0.043610 0.032898 0.000000
0.059021 0.032898 0.000000
0.076324 0.032898 0.000000
0.095673 0.032898 0.000000
0.117096 0.032898 0.000000
0.140778 0.032898 0.000000
0.166901 0.032898 0.000000
0.195831 0.032898 0.000000
0.227875 0.032898 0.000000
0.263550 0.032898 0.000000
0.303223 0.032898 0.000000
0.347626 0.032898 0.000000
0.396698 0.032898 0.000000
0.449707 0.032898 0.000000
0.505768 0.032898 0.000000
0.563568 0.032898 0.000000
0.621704 0.032898 0.000000
0.678345 0.032898 0.000000
0.731476 0.032898 0.000000
0.779480 0.032898 0.000000
0.822235 0.032898 0.000000
0.860107 0.032898 0.000000
0.893646 0.032898 0.000000
0.923553 0.032898 0.000000
0.950562 0.032898 0.000000
0.975677 0.032898 0.000000
1.000000 0.032898 0.000000
0.000000 0.064117 0.000000
0.003082 0.064117 0.000000
0.009674 0.064117 0.000000
0.018799 0.064117 0.000000
0.030182 0.064117 0.000000
0.043610 0.064117 0.000000
0.059021 0.064117 0.000000
0.076324 0.064117 0.000000
0.095673 0.064117 0.000000
0.117096 0.064117 0.000000
0.140778 0.064117 0.000000
0.166901 0.064117 0.000000
0.195831 0.064117 0.000000
0.227875 0.064117 0.000000
0.263550 0.064117 0.000000
0.303223 0.064117 0.000000
0.347626 0.064117 0.000000
0.396698 0.064117 0.000000
0.449707 0.064117 0.000000
0.505768 0.064117 0.000000
0.563568 0.064117 0.000000
0.621704 0.064117 0.000000
0.678345 0.064117 0.000000
0.731476 0.064117 0.000000
0.779480 0.064117 0.000000
0.822235 0.064117 0.000000
0.860107 0.064117 0.000000
0.893646 0.064117 0.000000
0.923553 0.064117 0.000000
0.950562 0.064117 0.000000
0.975677 0.064117 0.000000
1.000000 0.064117 0.000000
0.000000 0.095306 0.000000
0.003082 0.095306 0.000000
0.009674 0.095306 0.000000
0.018799 0.095306 0.000000
0.030182 0.095306 0.000000
0.043610 0.095306 0.000000
0.059021 0.095306 0.000000
0.076324 0.095306 0.000000
0.095673 0.095306 0.000000
0.117096 0.095306 0.000000
0.140778 0.095306 0.000000
0.166901 0.095306 0.000000
0.195831 0.095306 0.000000
0.227875 0.095306 0.000000
0.263550 0.095306 0.000000
0.303223 0.095306 0.000000
0.347626 0.095306 0.000000
0.396698 0.095306 0.000000
0.449707 0.095306 0.000000
0.505768 0.095306 0.000000
0.563568 0.095306 0.000000
0.621704 0.095306 0.000000
0.678345 0.095306 0.000000
0.731476 0.095306 0.000000
0.779480 0.095306 0.000000
0.822235 0.095306 0.000000
0.860107 0.095306 0.000000
0.893646 0.095306 0.000000
0.923553 0.095306 0.000000
0.950562 0.095306 0.000000
0.975677 0.095306 0.000000
1.000000 0.095306 0.000000
0.000000 0.127075 0.000000
0.003082 0.127075 0.000000
0.009674 0.127075 0.000000
0.018799 0.127075 0.000000
0.030182 0.127075 0.000000
0.043610 0.127075 0.000000
0.059021 0.127075 0.000000
0.076324 0.127075 0.000000
0.095673 0.127075 0.000000
0.117096 0.127075 0.000000
0.140778 0.127075 0.000000
0.166901 0.127075 0.000000
0.195831 0.127075 0.000000
0.227875 0.127075 0.000000
0.263550 0.127075 0.000000
0.303223 0.127075 0.000000
0.347626 0.127075 0.000000
0.396698 0.127075 0.000000
0.449707 0.127075 0.000000
0.505768 0.127075 0.000000
0.563568 0.127075 0.000000
0.621704 0.127075 0.000000
0.678345 0.127075 0.000000
0.731476 0.127075 0.000000
0.779480 0.127075 0.000000
0.822235 0.127075 0.000000
0.860107 0.127075 0.000000
0.893646 0.127075 0.000000
0.923553 0.127075 0.000000
0.950562 0.127075 0.000000
0.975677 0.127075 0.000000
1.000000 0.127075 0.000000
0.000000 0.159882 0.000000
0.003082 0.159882 0.000000
0.009674 0.159882 0.000000
0.018799 0.159882 0.000000
0.030182 0.159882 0.000000
0.043610 0.159882 0.000000
0.059021 0.159882 0.000000
0.076324 0.159882 0.000000
0.095673 0.159882 0.000000
0.117096 0.159882 0.000000
0.140778 0.159882 0.000000
0.166901 0.159882 0.000000
0.195831 0.159882 0.000000
0.227875 0.159882 0.000000
0.263550 0.159882 0.000000
0.303223 0.159882 0.000000
0.347626 0.159882 0.000000
0.396698 0.159882 0.000000
0.449707 0.159882 0.000000
0.505768 0.159882 0.000000
0.563568 0.159882 0.000000
0.621704 0.159882 0.000000
0.678345 0.159882 0.000000
0.731476 0.159882 0.000000
0.779480 0.159882 0.000000
0.822235 0.159882 0.000000
0.860107 0.159882 0.000000
0.893646 0.159882 0.000000
0.923553 0.159882 0.000000
0.950562 0.159882 0.000000
0.975677 0.159882 0.000000
1.000000 0.159882 0.000000
0.000000 0.194031 0.000000
0.003082 0.194031 0.000000
0.009674 0.194031 0.000000
0.018799 0.194031 0.000000
0.030182 0.194031 0.000000
0.043610 0.194031 0.000000
0.059021 0.194031 0.000000
0.076324 0.194031 0.000000
0.095673 0.194031 0.000000
0.117096 0.194031 0.000000
0.140778 0.194031 0.000000
0.166901 0.194031 0.000000
0.195831 0.194031 0.000000
0.227875 0.194031 0.000000
0.263550 0.194031 0.000000
0.303223 0.194031 0.000000
0.347626 0.194031 0.000000
0.396698 0.194031 0.000000
0.449707 0.194031 0.000000
0.505768 0.194031 0.000000
0.563568 0.194031 0.000000
0.621704 0.194031 0.000000
0.678345 0.194031 0.000000
0.731476 0.194031 0.000000
0.779480 0.194031 0.000000
0.822235 0.194031 0.000000
0.860107 0.194031 0.000000
0.893646 0.194031 0.000000
0.923553 0.194031 0.000000
0.950562 0.194031 0.000000
0.975677 0.194031 0.000000
1.000000 0.194031 0.000000
0.000000 0.229889 0.000000
0.003082 0.229889 0.000000
0.009674 0.229889 0.000000
0.018799 0.229889 0.000000
0.030182 0.229889 0.000000
0.043610 0.229889 0.000000
0.059021 0.229889 0.000000
0.076324 0.229889 0.000000
0.095673 0.229889 0.000000
0.117096 0.229889 0.000000
0.140778 0.229889 0.000000
0.166901 0.229889 0.000000
0.195831 0.229889 0.000000
0.227875 0.229889 0.000000
0.263550 0.229889 0.000000
0.303223 0.229889 0.000000
0.347626 0.229889 0.000000
0.396698 0.229889 0.000000
0.449707 0.229889 0.000000
0.505768 0.229889 0.000000
0.563568 0.229889 0.000000
0.621704 0.229889 0.000000
0.678345 0.229889 0.000000
0.731476 0.229889 0.000000
0.779480 0.229889 0.000000
0.822235 0.229889 0.000000
0.860107 0.229889 0.000000
0.893646 0.229889 0.000000
0.923553 0.229889 0.000000
0.950562 0.229889 0.000000
0.975677 0.229889 0.000000
1.000000 0.229889 0.000000
0.000000 0.267761 0.000000
0.003082 0.267761 0.000000
0.009674 0.267761 0.000000
0.018799 0.267761 0.000000
0.030182 0.267761 0.000000
0.043610 0.267761 0.000000
0.059021 0.267761 0.000000
0.076324 0.267761 0.000000
0.095673 0.267761 0.000000
0.117096 0.267761 0.000000
0.140778 0.267761 0.000000
0.166901 0.267761 0.000000
0.195831 0.267761 0.000000
0.227875 0.267761 0.000000
0.263550 0.267761 0.000000
0.303223 0.267761 0.000000
0.347626 0.267761 0.000000
0.396698 0.267761 0.000000
0.449707 0.267761 0.000000
0.505768 0.267761 0.000000
0.563568 0.267761 0.000000
0.621704 0.267761 0.000000
0.678345 0.267761 0.000000
0.731476 0.267761 0.000000
0.779480 0.267761 0.000000
0.822235 0.267761 0.000000
0.860107 0.267761 0.000000
0.893646 0.267761 0.000000
0.923553 0.267761 0.000000
0.950562 0.267761 0.000000
0.975677 0.267761 0.000000
1.000000 0.267761 0.000000
0.000000 0.307953 0.000000
0.003082 0.307953 0.000000
0.009674 0.307953 0.000000
0.018799 0.307953 0.000000
0.030182 0.307953 0.000000
0.043610 0.307953 0.000000
0.059021 0.307953 0.000000
0.076324 0.307953 0.000000
0.095673 0.307953 0.000000
0.117096 0.307953 0.000000
0.140778 0.307953 0.000000
0.166901 0.307953 0.000000
0.195831 0.307953 0.000000
0.227875 0.307953 0.000000
0.263550 0.307953 0.000000
0.303223 0.307953 0.000000
0.347626 0.307953 0.000000
0.396698 0.307953 0.000000
0.449707 0.307953 0.000000
0.505768 0.307953 0.000000
0.563568 0.307953 0.000000
0.621704 0.307953 0.000000
0.678345 0.307953 0.000000
0.731476 0.307953 0.000000
0.779480 0.307953 0.000000
0.822235 0.307953 0.000000
0.860107 0.307953 0.000000
0.893646 0.307953 0.000000
0.923553 0.307953 0.000000
0.950562 0.307953 0.000000
0.975677 0.307953 0.000000
1.000000 0.307953 0.000000
0.000000 0.350677 0.000000
0.003082 0.350677 0.000000
0.009674 0.350677 0.000000
0.018799 0.350677 0.000000
0.030182 0.350677 0.000000
0.043610 0.350677 0.000000
0.059021 0.350677 0.000000
0.076324 0.350677 0.000000
0.095673 0.350677 0.000000
0.117096 0.350677 0.000000
0.140778 0.350677 0.000000
0.166901 0.350677 0.000000
0.195831 0.350677 0.000000
0.227875 0.350677 0.000000
0.263550 0.350677 0.000000
0.303223 0.350677 0.000000
0.347626 0.350677 0.000000
0.396698 0.350677 0.000000
0.449707 0.350677 0.000000
0.505768 0.350677 0.000000
0.563568 0.350677 0.000000
0.621704 0.350677 0.000000
0.678345 0.350677 0.000000
0.731476 0.350677 0.000000
0.779480 0.350677 0.000000
0.822235 0.350677 0.000000
0.860107 0.350677 0.000000
0.893646 0.350677 0.000000
0.923553 0.350677 0.000000
0.950562 0.350677 0.000000
0.975677 0.350677 0.000000
1.000000 0.350677 0.000000
0.000000 0.395660 0.000000
0.003082 0.395660 0.000000
0.009674 0.395660 0.000000
0.018799 0.395660 0.000000
0.030182 0.395660 0.000000
0.043610 0.395660 0.000000
0.059021 0.395660 0.000000
0.076324 0.395660 0.000000
0.095673 0.395660 0.000000
0.117096 0.395660 0.000000
0.140778 0.395660 0.000000
0.166901 0.395660 0.000000
0.195831 0.395660 0.000000
0.227875 0.395660 0.000000
0.263550 0.395660 0.000000
0.303223 0.395660 0.000000
0.347626 0.395660 0.000000
0.396698 0.395660 0.000000
0.449707 0.395660 0.000000
0.505768 0.395660 0.000000
0.563568 0.395660 0.000000
0.621704 0.395660 0.000000
0.678345 0.395660 0.000000
0.731476 0.395660 0.000000
0.779480 0.395660 0.000000
0.822235 0.395660 0.000000
0.860107 0.395660 0.000000
0.893646 0.395660 0.000000
0.923553 0.395660 0.000000
0.950562 0.395660 0.000000
0.975677 0.395660 0.000000
1.000000 0.395660 0.000000
0.000000 0.442078 0.000000
0.003082 0.442078 0.000000
0.009674 0.442078 0.000000
0.018799 0.442078 0.000000
0.030182 0.442078 0.000000
0.043610 0.442078 0.000000
0.059021 0.442078 0.000000
0.076324 0.442078 0.000000
0.095673 0.442078 0.000000
0.117096 0.442078 0.000000
0.140778 0.442078 0.000000
0.166901 0.442078 0.000000
0.195831 0.442078 0.000000
0.227875 0.442078 0.000000
0.263550 0.442078 0.000000
0.303223 0.442078 0.000000
0.347626 0.442078 0.000000
0.396698 0.442078 0.000000
0.449707 0.442078 0.000000
0.505768 0.442078 0.000000
0.563568 0.442078 0.000000
0.621704 0.442078 0.000000
0.678345 0.442078 0.000000
0.731476 0.442078 0.000000
0.779480 0.442078 0.000000
0.822235 0.442078 0.000000
0.860107 0.442078 0.000000
0.893646 0.442078 0.000000
0.923553 0.442078 0.000000
0.950562 0.442078 0.000000
0.975677 0.442078 0.000000
1.000000 0.442078 0.000000
0.000000 0.489288 0.000000
0.003082 0.489288 0.000000
0.009674 0.489288 0.000000
0.018799 0.489288 0.000000
0.030182 0.489288 0.000000
0.043610 0.489288 0.000000
0.059021 0.489288 0.000000
0.076324 0.489288 0.000000
0.095673 0.489288 0.000000
0.117096 0.489288 0.000000
0.140778 0.489288 0.000000
0.166901 0.489288 0.000000
0.195831 0.489288 0.000000
0.227875 0.489288 0.000000
0.263550 0.489288 0.000000
0.303223 0.489288 0.000000
0.347626 0.489288 0.000000
0.396698 0.489288 0.000000
0.449707 0.489288 0.000000
0.505768 0.489288 0.000000
0.563568 0.489288 0.000000
0.621704 0.489288 0.000000
0.678345 0.489288 0.000000
0.731476 0.489288 0.000000
0.779480 0.489288 0.000000
0.822235 0.489288 0.000000
0.860107 0.489288 0.000000
0.893646 0.489288 0.000000
0.923553 0.489288 0.000000
0.950562 0.489288 0.000000
0.975677 0.489288 0.000000
1.000000 0.489288 0.000000
0.000000 0.536469 0.000000
0.003082 0.536469 0.000000
0.009674 0.536469 0.000000
0.018799 0.536469 0.000000
0.030182 0.536469 0.000000
0.043610 0.536469 0.000000
0.059021 0.536469 0.000000
0.076324 0.536469 0.000000
0.095673 0.536469 0.000000
0.117096 0.536469 0.000000
0.140778 0.536469 0.000000
0.166901 0.536469 0.000000
0.195831 0.536469 0.000000
0.227875 0.536469 0.000000
0.263550 0.536469 0.000000
0.303223 0.536469 0.000000
0.347626 0.536469 0.000000
0.396698 0.536469 0.000000
0.449707 0.536469 0.000000
0.505768 0.536469 0.000000
0.563568 0.536469 0.000000
0.621704 0.536469 0.000000
0.678345 0.536469 0.000000
0.731476 0.536469 0.000000
0.779480 0.536469 0.000000
0.822235 0.536469 0.000000
0.860107 0.536469 0.000000
0.893646 0.536469 0.000000
0.923553 0.536469 0.000000
0.950562 0.536469 0.000000
0.975677 0.536469 0.000000
1.000000 0.536469 0.000000
0.000000 0.582947 0.000000
0.003082 0.582947 0.000000
0.009674 0.582947 0.000000
0.018799 0.582947 0.000000
0.030182 0.582947 0.000000
0.043610 0.582947 0.000000
0.059021 0.582947 0.000000
0.076324 0.582947 0.000000
0.095673 0.582947 0.000000
0.117096 0.582947 0.000000
0.140778 0.582947 0.000000
0.166901 0.582947 0.000000
0.195831 0.582947 0.000000
0.227875 0.582947 0.000000
0.263550 0.582947 0.000000
0.303223 0.582947 0.000000
0.347626 0.582947 0.000000
0.396698 0.582947 0.000000
0.449707 0.582947 0.000000
0.505768 0.582947 0.000000
0.563568 0.582947 0.000000
0.621704 0.582947 0.000000
0.678345 0.582947 0.000000
0.731476 0.582947 0.000000
0.779480 0.582947 0.000000
0.822235 0.582947 0.000000
0.860107 0.582947 0.000000
0.893646 0.582947 0.000000
0.923553 0.582947 0.000000
0.950562 0.582947 0.000000
0.975677 0.582947 0.000000
1.000000 0.582947 0.000000
0.000000 0.627991 0.000000
0.003082 0.627991 0.000000
0.009674 0.627991 0.000000
0.018799 0.627991 0.000000
0.030182 0.627991 0.000000
0.043610 0.627991 0.000000
0.059021 0.627991 0.000000
0.076324 0.627991 0.000000
0.095673 0.627991 0.000000
0.117096 0.627991 0.000000
0.140778 0.627991 0.000000
0.166901 0.627991 0.000000
0.195831 0.627991 0.000000
0.227875 0.627991 0.000000
0.263550 0.627991 0.000000
0.303223 0.627991 0.000000
0.347626 0.627991 0.000000
0.396698 0.627991 0.000000
0.449707 0.627991 0.000000
0.505768 0.627991 0.000000
0.563568 0.627991 0.000000
0.621704 0.627991 0.000000
0.678345 0.627991 0.000000
0.731476 0.627991 0.000000
0.779480 0.627991 0.000000
0.822235 0.627991 0.000000
0.860107 0.627991 0.000000
0.893646 0.627991 0.000000
0.923553 0.627991 0.000000
0.950562 0.627991 0.000000
0.975677 0.627991 0.000000
1.000000 0.627991 0.000000
0.000000 0.670959 0.000000
0.003082 0.670959 0.000000
0.009674 0.670959 0.000000
0.018799 0.670959 0.000000
0.030182 0.670959 0.000000
0.043610 0.670959 0.000000
0.059021 0.670959 0.000000
0.076324 0.670959 0.000000
0.095673 0.670959 0.000000
0.117096 0.670959 0.000000
0.140778 0.670959 0.000000
0.166901 0.670959 0.000000
0.195831 0.670959 0.000000
0.227875 0.670959 0.000000
0.263550 0.670959 0.000000
0.303223 0.670959 0.000000
0.347626 0.670959 0.000000
0.396698 0.670959 0.000000
0.449707 0.670959 0.000000
0.505768 0.670959 0.000000
0.563568 0.670959 0.000000
0.621704 0.670959 0.000000
0.678345 0.670959 0.000000
0.731476 0.670959 0.000000
0.779480 0.670959 0.000000
0.822235 0.670959 0.000000
0.860107 0.670959 0.000000
0.893646 0.670959 0.000000
0.923553 0.670959 0.000000
0.950562 0.670959 0.000000
0.975677 0.670959 0.000000
1.000000 0.670959 0.000000
0.000000 0.711090 0.000000
0.003082 0.711090 0.000000
0.009674 0.711090 0.000000
0.018799 0.711090 0.000000
0.030182 0.711090 0.000000
0.043610 0.711090 0.000000
0.059021 0.711090 0.000000
0.076324 0.711090 0.000000
0.095673 0.711090 0.000000
0.117096 0.711090 0.000000
0.140778 0.711090 0.000000
0.166901 0.711090 0.000000
0.195831 0.711090 0.000000
0.227875 0.711090 0.000000
0.263550 0.711090 0.000000
0.303223 0.711090 0.000000
0.347626 0.711090 0.000000
0.396698 0.711090 0.000000
0.449707 0.711090 0.000000
0.505768 0.711090 0.000000
0.563568 0.711090 0.000000
0.621704 0.711090 0.000000
0.678345 0.711090 0.000000
0.731476 0.711090 0.000000
0.779480 0.711090 0.000000
0.822235 0.711090 0.000000
0.860107 0.711090 0.000000
0.893646 0.711090 0.000000
0.923553 0.711090 0.000000
0.950562 0.711090 0.000000
0.975677 0.711090 0.000000
1.000000 0.711090 0.000000
0.000000 0.747772 0.000000
0.003082 0.747772 0.000000
0.009674 0.747772 0.000000
0.018799 0.747772 0.000000
0.030182 0.747772 0.000000
0.043610 0.747772 0.000000
0.059021 0.747772 0.000000
0.076324 0.747772 0.000000
0.095673 0.747772 0.000000
0.117096 0.747772 0.000000
0.140778 0.747772 0.000000
0.166901 0.747772 0.000000
0.195831 0.747772 0.000000
0.227875 0.747772 0.000000
0.263550 0.747772 0.000000
0.303223 0.747772 0.000000
0.347626 0.747772 0.000000
0.396698 0.747772 0.000000
0.449707 0.747772 0.000000
0.505768 0.747772 0.000000
0.563568 0.747772 0.000000
0.621704 0.747772 0.000000
0.678345 0.747772 0.000000
0.731476 0.747772 0.000000
0.779480 0.747772 0.000000
0.822235 0.747772 0.000000
0.860107 0.747772 0.000000
0.893646 0.747772 0.000000
0.923553 0.747772 0.000000
0.950562 0.747772 0.000000
0.975677 0.747772 0.000000
1.000000 0.747772 0.000000
0.000000 0.780914 0.000000
0.003082 0.780914 0.000000
0.009674 0.780914 0.000000
0.018799 0.780914 0.000000
0.030182 0.780914 0.000000
0.043610 0.780914 0.000000
0.059021 0.780914 0.000000
0.076324 0.780914 0.000000
0.095673 0.780914 0.000000
0.117096 0.780914 0.000000
0.140778 0.780914 0.000000
0.166901 0.780914 0.000000
0.195831 0.780914 0.000000
0.227875 0.780914 0.000000
0.263550 0.780914 0.000000
0.303223 0.780914 0.000000
0.347626 0.780914 0.000000
0.396698 0.780914 0.000000
0.449707 0.780914 0.000000
0.505768 0.780914 0.000000
0.563568 0.780914 0.000000
0.621704 0.780914 0.000000
0.678345 0.780914 0.000000
0.731476 0.780914 0.000000
0.779480 0.780914 0.000000
0.822235 0.780914 0.000000
0.860107 0.780914 0.000000
0.893646 0.780914 0.000000
0.923553 0.780914 0.000000
0.950562 0.780914 0.000000
0.975677 0.780914 0.000000
1.000000 0.780914 0.000000
0.000000 0.810852 0.000000
0.003082 0.810852 0.000000
0.009674 0.810852 0.000000
0.018799 0.810852 0.000000
0.030182 0.810852 0.000000
0.043610 0.810852 0.000000
0.059021 0.810852 0.000000
0.076324 0.810852 0.000000
0.095673 0.810852 0.000000
0.117096 0.810852 0.000000
0.140778 0.810852 0.000000
0.166901 0.810852 0.000000
0.195831 0.810852 0.000000
0.227875 0.810852 0.000000
0.263550 0.810852 0.000000
0.303223 0.810852 0.000000
0.347626 0.810852 0.000000
0.396698 0.810852 0.000000
0.449707 0.810852 0.000000
0.505768 0.810852 0.000000
0.563568 0.810852 0.000000
0.621704 0.810852 0.000000
0.678345 0.810852 0.000000
0.731476 0.810852 0.000000
0.779480 0.810852 0.000000
0.822235 0.810852 0.000000
0.860107 0.810852 0.000000
0.893646 0.810852 0.000000
0.923553 0.810852 0.000000
0.950562 0.810852 0.000000
0.975677 0.810852 0.000000
1.000000 0.810852 0.000000
0.000000 0.837952 0.000000
0.003082 0.837952 0.000000
0.009674 0.837952 0.000000
0.018799 0.837952 0.000000
0.030182 0.837952 0.000000
0.043610 0.837952 0.000000
0.059021 0.837952 0.000000
0.076324 0.837952 0.000000
0.095673 0.837952 0.000000
0.117096 0.837952 0.000000
0.140778 0.837952 0.000000
0.166901 0.837952 0.000000
0.195831 0.837952 0.000000
0.227875 0.837952 0.000000
0.263550 0.837952 0.000000
0.303223 0.837952 0.000000
0.347626 0.837952 0.000000
0.396698 0.837952 0.000000
0.449707 0.837952 0.000000
0.505768 0.837952 0.000000
0.563568 0.837952 0.000000
0.621704 0.837952 0.000000
0.678345 0.837952 0.000000
0.731476 0.837952 0.000000
0.779480 0.837952 0.000000
0.822235 0.837952 0.000000
0.860107 0.837952 0.000000
0.893646 0.837952 0.000000
0.923553 0.837952 0.000000
0.950562 0.837952 0.000000
0.975677 0.837952 0.000000
1.000000 0.837952 0.000000
0.000000 0.862396 0.000000
0.003082 0.862396 0.000000
0.009674 0.862396 0.000000
0.018799 0.862396 0.000000
0.030182 0.862396 0.000000
0.043610 0.862396 0.000000
0.059021 0.862396 0.000000
0.076324 0.862396 0.000000
0.095673 0.862396 0.000000
0.117096 0.862396 0.000000
0.140778 0.862396 0.000000
0.166901 0.862396 0.000000
0.195831 0.862396 0.000000
0.227875 0.862396 0.000000
0.263550 0.862396 0.000000
0.303223 0.862396 0.000000
0.347626 0.862396 0.000000
0.396698 0.862396 0.000000
0.449707 0.862396 0.000000
0.505768 0.862396 0.000000
0.563568 0.862396 0.000000
0.621704 0.862396 0.000000
0.678345 0.862396 0.000000
0.731476 0.862396 0.000000
0.779480 0.862396 0.000000
0.822235 0.862396 0.000000
0.860107 0.862396 0.000000
0.893646 0.862396 0.000000
0.923553 0.862396 0.000000
0.950562 0.862396 0.000000
0.975677 0.862396 0.000000
1.000000 0.862396 0.000000
0.000000 0.884583 0.000000
0.003082 0.884583 0.000000
0.009674 0.884583 0.000000
0.018799 0.884583 0.000000
0.030182 0.884583 0.000000
0.043610 0.884583 0.000000
0.059021 0.884583 0.000000
0.076324 0.884583 0.000000
0.095673 0.884583 0.000000
0.117096 0.884583 0.000000
0.140778 0.884583 0.000000
0.166901 0.884583 0.000000
0.195831 0.884583 0.000000
0.227875 0.884583 0.000000
0.263550 0.884583 0.000000
0.303223 0.884583 0.000000
0.347626 0.884583 0.000000
0.396698 0.884583 0.000000
0.449707 0.884583 0.000000
0.505768 0.884583 0.000000
0.563568 0.884583 0.000000
0.621704 0.884583 0.000000
0.678345 0.884583 0.000000
0.731476 0.884583 0.000000
0.779480 0.884583 0.000000
0.822235 0.884583 0.000000
0.860107 0.884583 0.000000
0.893646 0.884583 0.000000
0.923553 0.884583 0.000000
0.950562 0.884583 0.000000
0.975677 0.884583 0.000000
1.000000 0.884583 0.000000
0.000000 0.904755 0.000000
0.003082 0.904755 0.000000
0.009674 0.904755 0.000000
0.018799 0.904755 0.000000
0.030182 0.904755 0.000000
0.043610 0.904755 0.000000
0.059021 0.904755 0.000000
0.076324 0.904755 0.000000
0.095673 0.904755 0.000000
0.117096 0.904755 0.000000
0.140778 0.904755 0.000000
0.166901 0.904755 0.000000
0.195831 0.904755 0.000000
0.227875 0.904755 0.000000
0.263550 0.904755 0.000000
0.303223 0.904755 0.000000
0.347626 0.904755 0.000000
0.396698 0.904755 0.000000
0.449707 0.904755 0.000000
0.505768 0.904755 0.000000
0.563568 0.904755 0.000000
0.621704 0.904755 0.000000
0.678345 0.904755 0.000000
0.731476 0.904755 0.000000
0.779480 0.904755 0.000000
0.822235 0.904755 0.000000
0.860107 0.904755 0.000000
0.893646 0.904755 0.000000
0.923553 0.904755 0.000000
0.950562 0.904755 0.000000
0.975677 0.904755 0.000000
1.000000 0.904755 0.000000
0.000000 0.923218 0.000000
0.003082 0.923218 0.000000
0.009674 0.923218 0.000000
0.018799 0.923218 0.000000
0.030182 0.923218 0.000000
0.043610 0.923218 0.000000
0.059021 0.923218 0.000000
0.076324 0.923218 0.000000
0.095673 0.923218 0.000000
0.117096 0.923218 0.000000
0.140778 0.923218 0.000000
0.166901 0.923218 0.000000
0.195831 0.923218 0.000000
0.227875 0.923218 0.000000
0.263550 0.923218 0.000000
0.303223 0.923218 0.000000
0.347626 0.923218 0.000000
0.396698 0.923218 0.000000
0.449707 0.923218 0.000000
0.505768 0.923218 0.000000
0.563568 0.923218 0.000000
0.621704 0.923218 0.000000
0.678345 0.923218 0.000000
0.731476 0.923218 0.000000
0.779480 0.923218 0.000000
0.822235 0.923218 0.000000
0.860107 0.923218 0.000000
0.893646 0.923218 0.000000
0.923553 0.923218 0.000000
0.950562 0.923218 0.000000
0.975677 0.923218 0.000000
1.000000 0.923218 0.000000
0.000000 0.940308 0.000000
0.003082 0.940308 0.000000
0.009674 0.940308 0.000000
0.018799 0.940308 0.000000
0.030182 0.940308 0.000000
0.043610 0.940308 0.000000
0.059021 0.940308 0.000000
0.076324 0.940308 0.000000
0.095673 0.940308 0.000000
0.117096 0.940308 0.000000
0.140778 0.940308 0.000000
0.166901 0.940308 0.000000
0.195831 0.940308 0.000000
0.227875 0.940308 0.000000
0.263550 0.940308 0.000000
0.303223 0.940308 0.000000
0.347626 0.940308 0.000000
0.396698 0.940308 0.000000
