nxshell/module/image-editor/libimagevisualresult/filter_cube/bright.CUBE
#Created by: Adobe Photoshop Export Color Lookup Plugin
TITLE "相机滤镜调试.psd"
#LUT size
LUT_3D_SIZE 32
#data domain
DOMAIN_MIN 0.0 0.0 0.0
DOMAIN_MAX 1.0 1.0 1.0
#LUT data points
0.000000 0.000000 0.000000
0.042938 0.000000 0.000000
0.085815 0.000000 0.000000
0.128510 0.000000 0.000000
0.170990 0.000000 0.000000
0.213104 0.000000 0.000000
0.254822 0.000000 0.000000
0.296051 0.000000 0.000000
0.336700 0.000000 0.000000
0.376678 0.000000 0.000000
0.415955 0.000000 0.000000
0.454376 0.000000 0.000000
0.491913 0.000000 0.000000
0.528442 0.000000 0.000000
0.563904 0.000000 0.000000
0.598236 0.000000 0.000000
0.631378 0.000000 0.000000
0.663147 0.000000 0.000000
0.693542 0.000000 0.000000
0.722534 0.000000 0.000000
0.750183 0.000000 0.000000
0.776703 0.000000 0.000000
0.802094 0.000000 0.000000
0.826569 0.000000 0.000000
0.850128 0.000000 0.000000
0.872955 0.000000 0.000000
0.895111 0.000000 0.000000
0.916748 0.000000 0.000000
0.937927 0.000000 0.000000
0.958801 0.000000 0.000000
0.979431 0.000000 0.000000
1.000000 0.000000 0.000000
0.000000 0.042938 0.000000
0.042938 0.042938 0.000000
0.085815 0.042938 0.000000
0.128510 0.042938 0.000000
0.170990 0.042969 0.000000
0.213104 0.042908 0.000000
0.254822 0.042938 0.000000
0.296051 0.042938 0.000000
0.336700 0.042908 0.000000
0.376678 0.042938 0.000000
0.415955 0.042969 0.000000
0.454376 0.042938 0.000000
0.491913 0.042999 0.000000
0.528442 0.042969 0.000000
0.563904 0.042969 0.000000
0.598236 0.042938 0.000000
0.631378 0.042999 0.000000
0.663147 0.042908 0.000000
0.693542 0.042999 0.000000
0.722534 0.042877 0.000000
0.750183 0.042847 0.000000
0.776703 0.042847 0.000000
0.802094 0.042877 0.000000
0.826569 0.042969 0.000000
0.850128 0.042969 0.000000
0.872955 0.042847 0.000000
0.895111 0.042847 0.000000
0.916748 0.042969 0.000000
0.937927 0.043060 0.000000
0.958801 0.042847 0.000000
0.979431 0.043030 0.000000
1.000000 0.042969 0.000000
0.000000 0.085815 0.000000
0.042938 0.085815 0.000000
0.085815 0.085815 0.000000
0.128510 0.085815 0.000000
0.170990 0.085815 0.000000
0.213104 0.085785 0.000000
0.254822 0.085785 0.000000
0.296051 0.085785 0.000000
0.336700 0.085815 0.000000
0.376678 0.085815 0.000000
0.415955 0.085815 0.000000
0.454376 0.085846 0.000000
0.491913 0.085876 0.000000
0.528442 0.085785 0.000000
0.563904 0.085754 0.000000
0.598236 0.085876 0.000000
0.631378 0.085846 0.000000
0.663147 0.085815 0.000000
0.693542 0.085846 0.000000
0.722534 0.085724 0.000000
0.750183 0.085907 0.000000
0.776703 0.085907 0.000000
0.802094 0.085785 0.000000
0.826569 0.085754 0.000000
0.850128 0.085724 0.000000
0.872955 0.085876 0.000000
0.895111 0.085876 0.000000
0.916748 0.085724 0.000000
0.937927 0.085876 0.000000
0.958801 0.085907 0.000000
0.979431 0.085846 0.000000
1.000000 0.085938 0.000000
0.000000 0.128510 0.000000
0.042938 0.128510 0.000000
0.085815 0.128510 0.000000
0.128510 0.128510 0.000000
0.170990 0.128479 0.000000
0.213104 0.128510 0.000000
0.254822 0.128540 0.000000
0.296051 0.128510 0.000000
0.336700 0.128479 0.000000
0.376678 0.128479 0.000000
0.415955 0.128448 0.000000
0.454376 0.128448 0.000000
0.491913 0.128510 0.000000
0.528442 0.128510 0.000000
0.563904 0.128448 0.000000
0.598236 0.128540 0.000000
0.631378 0.128571 0.000000
0.663147 0.128540 0.000000
0.693542 0.128510 0.000000
0.722534 0.128601 0.000000
0.750183 0.128571 0.000000
0.776703 0.128571 0.000000
0.802094 0.128448 0.000000
0.826569 0.128540 0.000000
0.850128 0.128479 0.000000
0.872955 0.128510 0.000000
0.895111 0.128510 0.000000
0.916748 0.128479 0.000000
0.937927 0.128448 0.000000
0.958801 0.128510 0.000000
0.979431 0.128418 0.000000
1.000000 0.128418 0.000000
0.000000 0.170990 0.000000
0.042969 0.170990 0.000000
0.085815 0.170990 0.000000
0.128479 0.170990 0.000000
0.170990 0.170990 0.000000
0.213104 0.171021 0.000000
0.254822 0.170959 0.000000
0.296051 0.171021 0.000000
0.336700 0.170990 0.000000
0.376678 0.170959 0.000000
0.415955 0.171021 0.000000
0.454376 0.170959 0.000000
0.491913 0.171021 0.000000
0.528442 0.170929 0.000000
0.563904 0.170990 0.000000
0.598236 0.171021 0.000000
0.631378 0.170959 0.000000
0.663147 0.170959 0.000000
0.693542 0.171021 0.000000
0.722534 0.170929 0.000000
0.750183 0.171051 0.000000
0.776703 0.171051 0.000000
0.802094 0.170959 0.000000
0.826569 0.170929 0.000000
0.850128 0.171021 0.000000
0.872955 0.170929 0.000000
0.895111 0.170898 0.000000
0.916748 0.170990 0.000000
0.937927 0.171051 0.000000
0.958801 0.170868 0.000000
0.979431 0.170959 0.000000
1.000000 0.170898 0.000000
0.000000 0.213104 0.000000
0.042908 0.213104 0.000000
0.085785 0.213104 0.000000
0.128510 0.213104 0.000000
0.171021 0.213104 0.000000
0.213104 0.213104 0.000000
0.254822 0.213074 0.000000
0.296051 0.213074 0.000000
0.336700 0.213074 0.000000
0.376678 0.213074 0.000000
0.415955 0.213043 0.000000
0.454376 0.213104 0.000000
0.491913 0.213043 0.000000
0.528442 0.213135 0.000000
0.563904 0.213104 0.000000
0.598236 0.213104 0.000000
0.631378 0.213043 0.000000
0.663147 0.213074 0.000000
0.693542 0.213165 0.000000
0.722534 0.213104 0.000000
0.750183 0.213196 0.000000
0.776703 0.213135 0.000000
0.802094 0.213043 0.000000
0.826569 0.213104 0.000000
0.850128 0.213165 0.000000
0.872955 0.213135 0.000000
0.895111 0.213074 0.000000
0.916748 0.213074 0.000000
0.937927 0.213196 0.000000
0.958801 0.213013 0.000000
0.979431 0.213043 0.000000
1.000000 0.213135 0.000000
0.000000 0.254822 0.000000
0.042938 0.254822 0.000000
0.085785 0.254822 0.000000
0.128540 0.254822 0.000000
0.170959 0.254822 0.000000
0.213074 0.254822 0.000000
0.254822 0.254822 0.000000
0.296051 0.254852 0.000000
0.336700 0.254822 0.000000
0.376678 0.254822 0.000000
0.415955 0.254791 0.000000
0.454376 0.254822 0.000000
0.491913 0.254852 0.000000
0.528442 0.254791 0.000000
0.563904 0.254822 0.000000
0.598236 0.254852 0.000000
0.631378 0.254791 0.000000
0.663147 0.254822 0.000000
0.693542 0.254822 0.000000
0.722534 0.254883 0.000000
0.750183 0.254761 0.000000
0.776703 0.254852 0.000000
0.802094 0.254761 0.000000
0.826569 0.254883 0.000000
0.850128 0.254883 0.000000
0.872955 0.254883 0.000000
0.895111 0.254822 0.000000
0.916748 0.254913 0.000000
0.937927 0.254852 0.000000
0.958801 0.254913 0.000000
0.979431 0.254913 0.000000
1.000000 0.254883 0.000000
0.000000 0.296051 0.000000
0.042938 0.296051 0.000000
0.085785 0.296051 0.000000
0.128510 0.296051 0.000000
0.171021 0.296051 0.000000
0.213074 0.296051 0.000000
0.254852 0.296051 0.000000
0.296051 0.296051 0.000000
0.336700 0.296021 0.000000
0.376678 0.296021 0.000000
0.415955 0.296021 0.000000
0.454376 0.296082 0.000000
0.491913 0.296051 0.000000
0.528442 0.296082 0.000000
0.563904 0.295990 0.000000
0.598236 0.296051 0.000000
0.631378 0.296112 0.000000
0.663147 0.296112 0.000000
0.693542 0.295959 0.000000
0.722534 0.295990 0.000000
0.750183 0.295959 0.000000
0.776703 0.295990 0.000000
0.802094 0.296082 0.000000
0.826569 0.296051 0.000000
0.850128 0.295959 0.000000
0.872955 0.296021 0.000000
0.895111 0.296112 0.000000
0.916748 0.296112 0.000000
0.937927 0.296082 0.000000
0.958801 0.296112 0.000000
0.979431 0.296021 0.000000
1.000000 0.296143 0.000000
0.000000 0.336700 0.000000
0.042908 0.336700 0.000000
0.085815 0.336700 0.000000
0.128479 0.336700 0.000000
0.170990 0.336700 0.000000
0.213074 0.336700 0.000000
0.254822 0.336700 0.000000
0.296021 0.336700 0.000000
0.336700 0.336700 0.000000
0.376678 0.336670 0.000000
0.415955 0.336731 0.000000
0.454376 0.336670 0.000000
0.491913 0.336761 0.000000
0.528442 0.336731 0.000000
0.563904 0.336731 0.000000
0.598236 0.336639 0.000000
0.631378 0.336639 0.000000
0.663147 0.336761 0.000000
0.693542 0.336792 0.000000
0.722534 0.336761 0.000000
0.750183 0.336639 0.000000
0.776703 0.336761 0.000000
0.802094 0.336609 0.000000
0.826569 0.336609 0.000000
0.850128 0.336639 0.000000
0.872955 0.336731 0.000000
0.895111 0.336761 0.000000
0.916748 0.336609 0.000000
0.937927 0.336609 0.000000
0.958801 0.336609 0.000000
0.979431 0.336670 0.000000
1.000000 0.336670 0.000000
0.000000 0.376678 0.000000
0.042938 0.376678 0.000000
0.085815 0.376678 0.000000
0.128479 0.376678 0.000000
0.170959 0.376678 0.000000
0.213074 0.376678 0.000000
0.254822 0.376678 0.000000
0.296021 0.376678 0.000000
0.336670 0.376678 0.000000
0.376678 0.376678 0.000000
0.415955 0.376648 0.000000
0.454376 0.376709 0.000000
0.491913 0.376617 0.000000
0.528442 0.376709 0.000000
0.563904 0.376678 0.000000
0.598236 0.376678 0.000000
0.631378 0.376740 0.000000
0.663147 0.376740 0.000000
0.693542 0.376740 0.000000
0.722534 0.376617 0.000000
0.750183 0.376740 0.000000
0.776703 0.376587 0.000000
0.802094 0.376770 0.000000
0.826569 0.376770 0.000000
0.850128 0.376709 0.000000
0.872955 0.376587 0.000000
0.895111 0.376740 0.000000
0.916748 0.376678 0.000000
0.937927 0.376678 0.000000
0.958801 0.376648 0.000000
0.979431 0.376617 0.000000
1.000000 0.376709 0.000000
0.000000 0.415955 0.000000
0.042969 0.415955 0.000000
0.085815 0.415955 0.000000
0.128448 0.415955 0.000000
0.171021 0.415955 0.000000
0.213043 0.415955 0.000000
0.254791 0.415955 0.000000
0.296021 0.415955 0.000000
0.336731 0.415955 0.000000
0.376648 0.415955 0.000000
0.415955 0.415955 0.000000
0.454376 0.415985 0.000000
0.491913 0.416016 0.000000
0.528442 0.415955 0.000000
0.563904 0.415894 0.000000
0.598236 0.415955 0.000000
0.631378 0.415894 0.000000
0.663147 0.415924 0.000000
0.693542 0.416016 0.000000
0.722534 0.415955 0.000000
0.750183 0.415924 0.000000
0.776703 0.416046 0.000000
0.802094 0.415924 0.000000
0.826569 0.415894 0.000000
0.850128 0.415924 0.000000
0.872955 0.416016 0.000000
0.895111 0.415863 0.000000
0.916748 0.415863 0.000000
0.937927 0.416077 0.000000
0.958801 0.415955 0.000000
0.979431 0.416077 0.000000
1.000000 0.416016 0.000000
0.000000 0.454376 0.000000
0.042938 0.454376 0.000000
0.085846 0.454376 0.000000
0.128448 0.454376 0.000000
0.170959 0.454376 0.000000
0.213104 0.454376 0.000000
0.254822 0.454376 0.000000
0.296082 0.454376 0.000000
0.336670 0.454376 0.000000
0.376709 0.454376 0.000000
0.415985 0.454376 0.000000
0.454376 0.454376 0.000000
0.491913 0.454315 0.000000
0.528442 0.454376 0.000000
0.563904 0.454315 0.000000
0.598236 0.454376 0.000000
0.631378 0.454407 0.000000
0.663147 0.454468 0.000000
0.693542 0.454468 0.000000
0.722534 0.454407 0.000000
0.750183 0.454407 0.000000
0.776703 0.454346 0.000000
0.802094 0.454315 0.000000
0.826569 0.454437 0.000000
0.850128 0.454315 0.000000
0.872955 0.454376 0.000000
0.895111 0.454315 0.000000
0.916748 0.454346 0.000000
0.937927 0.454315 0.000000
0.958801 0.454346 0.000000
0.979431 0.454315 0.000000
1.000000 0.454346 0.000000
0.000000 0.491913 0.000000
0.042999 0.491913 0.000000
0.085876 0.491913 0.000000
0.128510 0.491913 0.000000
0.171021 0.491913 0.000000
0.213043 0.491913 0.000000
0.254852 0.491913 0.000000
0.296051 0.491913 0.000000
0.336761 0.491913 0.000000
0.376617 0.491913 0.000000
0.416016 0.491913 0.000000
0.454315 0.491913 0.000000
0.491913 0.491913 0.000000
0.528442 0.491943 0.000000
0.563904 0.491913 0.000000
0.598236 0.491913 0.000000
0.631378 0.491882 0.000000
0.663147 0.491852 0.000000
0.693542 0.491882 0.000000
0.722534 0.491974 0.000000
0.750183 0.491943 0.000000
0.776703 0.491882 0.000000
0.802094 0.491913 0.000000
0.826569 0.491974 0.000000
0.850128 0.491882 0.000000
0.872955 0.491882 0.000000
0.895111 0.491913 0.000000
0.916748 0.491943 0.000000
0.937927 0.491852 0.000000
0.958801 0.491821 0.000000
0.979431 0.491882 0.000000
1.000000 0.491943 0.000000
0.000000 0.528442 0.000000
0.042969 0.528442 0.000000
0.085785 0.528442 0.000000
0.128510 0.528442 0.000000
0.170929 0.528442 0.000000
0.213135 0.528442 0.000000
0.254791 0.528442 0.000000
0.296082 0.528442 0.000000
0.336731 0.528442 0.000000
0.376709 0.528442 0.000000
0.415955 0.528442 0.000000
0.454376 0.528442 0.000000
0.491943 0.528442 0.000000
0.528442 0.528442 0.000000
0.563904 0.528381 0.000000
0.598236 0.528412 0.000000
0.631378 0.528412 0.000000
0.663147 0.528442 0.000000
0.693542 0.528442 0.000000
0.722534 0.528503 0.000000
0.750183 0.528381 0.000000
0.776703 0.528473 0.000000
0.802094 0.528534 0.000000
0.826569 0.528503 0.000000
0.850128 0.528412 0.000000
0.872955 0.528534 0.000000
0.895111 0.528412 0.000000
0.916748 0.528442 0.000000
0.937927 0.528503 0.000000
0.958801 0.528564 0.000000
0.979431 0.528442 0.000000
1.000000 0.528564 0.000000
0.000000 0.563904 0.000000
0.042969 0.563904 0.000000
0.085754 0.563904 0.000000
0.128448 0.563904 0.000000
0.170990 0.563904 0.000000
0.213104 0.563904 0.000000
0.254822 0.563904 0.000000
0.295990 0.563904 0.000000
0.336731 0.563904 0.000000
0.376678 0.563904 0.000000
0.415894 0.563904 0.000000
0.454315 0.563904 0.000000
0.491913 0.563904 0.000000
0.528381 0.563904 0.000000
0.563904 0.563904 0.000000
0.598236 0.563904 0.000000
0.631378 0.563873 0.000000
0.663147 0.563904 0.000000
0.693542 0.563843 0.000000
0.722534 0.563965 0.000000
0.750183 0.563934 0.000000
0.776703 0.563934 0.000000
0.802094 0.563965 0.000000
0.826569 0.563812 0.000000
0.850128 0.563904 0.000000
0.872955 0.563934 0.000000
0.895111 0.563812 0.000000
0.916748 0.564026 0.000000
0.937927 0.563995 0.000000
0.958801 0.563904 0.000000
0.979431 0.563843 0.000000
1.000000 0.563965 0.000000
0.000000 0.598236 0.000000
0.042938 0.598236 0.000000
0.085876 0.598236 0.000000
0.128540 0.598236 0.000000
0.171021 0.598236 0.000000
0.213104 0.598236 0.000000
0.254852 0.598236 0.000000
0.296051 0.598236 0.000000
0.336639 0.598236 0.000000
0.376678 0.598236 0.000000
0.415955 0.598236 0.000000
0.454376 0.598236 0.000000
0.491913 0.598236 0.000000
0.528412 0.598236 0.000000
0.563904 0.598236 0.000000
0.598236 0.598236 0.000000
0.631378 0.598236 0.000000
0.663147 0.598236 0.000000
0.693542 0.598206 0.000000
0.722534 0.598175 0.000000
0.750183 0.598175 0.000000
0.776703 0.598267 0.000000
0.802094 0.598236 0.000000
0.826569 0.598328 0.000000
0.850128 0.598175 0.000000
0.872955 0.598236 0.000000
0.895111 0.598358 0.000000
0.916748 0.598267 0.000000
0.937927 0.598328 0.000000
0.958801 0.598328 0.000000
0.979431 0.598267 0.000000
1.000000 0.598145 0.000000
0.000000 0.631378 0.000000
0.042999 0.631378 0.000000
0.085846 0.631378 0.000000
0.128571 0.631378 0.000000
0.170959 0.631378 0.000000
0.213043 0.631378 0.000000
0.254791 0.631378 0.000000
0.296112 0.631378 0.000000
0.336639 0.631378 0.000000
0.376740 0.631378 0.000000
0.415894 0.631378 0.000000
0.454407 0.631378 0.000000
0.491882 0.631378 0.000000
0.528412 0.631378 0.000000
0.563873 0.631378 0.000000
0.598236 0.631378 0.000000
0.631378 0.631378 0.000000
0.663147 0.631409 0.000000
0.693542 0.631409 0.000000
0.722534 0.631348 0.000000
0.750183 0.631317 0.000000
0.776703 0.631439 0.000000
0.802094 0.631348 0.000000
0.826569 0.631439 0.000000
0.850128 0.631378 0.000000
0.872955 0.631287 0.000000
0.895111 0.631348 0.000000
0.916748 0.631378 0.000000
0.937927 0.631317 0.000000
0.958801 0.631317 0.000000
0.979431 0.631287 0.000000
1.000000 0.631348 0.000000
0.000000 0.663147 0.000000
0.042908 0.663147 0.000000
0.085815 0.663147 0.000000
0.128540 0.663147 0.000000
0.170959 0.663147 0.000000
0.213074 0.663147 0.000000
0.254822 0.663147 0.000000
0.296112 0.663147 0.000000
0.336761 0.663147 0.000000
0.376740 0.663147 0.000000
0.415924 0.663147 0.000000
0.454468 0.663147 0.000000
0.491852 0.663147 0.000000
0.528442 0.663147 0.000000
0.563904 0.663147 0.000000
0.598236 0.663147 0.000000
0.631409 0.663147 0.000000
0.663147 0.663147 0.000000
0.693542 0.663055 0.000000
0.722534 0.663086 0.000000
0.750183 0.663177 0.000000
0.776703 0.663116 0.000000
0.802094 0.663055 0.000000
0.826569 0.663116 0.000000
0.850128 0.663116 0.000000
0.872955 0.663239 0.000000
0.895111 0.663239 0.000000
0.916748 0.663177 0.000000
0.937927 0.663147 0.000000
0.958801 0.663147 0.000000
0.979431 0.663086 0.000000
1.000000 0.663086 0.000000
0.000000 0.693542 0.000000
0.042999 0.693542 0.000000
0.085846 0.693542 0.000000
0.128510 0.693542 0.000000
0.171021 0.693542 0.000000
0.213165 0.693542 0.000000
0.254822 0.693542 0.000000
0.295959 0.693542 0.000000
0.336792 0.693542 0.000000
0.376740 0.693542 0.000000
0.416016 0.693542 0.000000
0.454468 0.693542 0.000000
0.491882 0.693542 0.000000
0.528442 0.693542 0.000000
0.563843 0.693542 0.000000
0.598206 0.693542 0.000000
0.631409 0.693542 0.000000
0.663055 0.693542 0.000000
0.693542 0.693542 0.000000
0.722534 0.693604 0.000000
0.750183 0.693604 0.000000
0.776703 0.693451 0.000000
0.802094 0.693604 0.000000
0.826569 0.693573 0.000000
0.850128 0.693634 0.000000
0.872955 0.693512 0.000000
0.895111 0.693634 0.000000
0.916748 0.693604 0.000000
0.937927 0.693604 0.000000
0.958801 0.693573 0.000000
0.979431 0.693451 0.000000
1.000000 0.693604 0.000000
0.000000 0.722534 0.000000
0.042877 0.722534 0.000000
0.085724 0.722534 0.000000
0.128601 0.722534 0.000000
0.170929 0.722534 0.000000
0.213104 0.722534 0.000000
0.254883 0.722534 0.000000
0.295990 0.722534 0.000000
0.336761 0.722534 0.000000
0.376617 0.722534 0.000000
0.415955 0.722534 0.000000
0.454407 0.722534 0.000000
0.491974 0.722534 0.000000
0.528503 0.722534 0.000000
0.563965 0.722534 0.000000
0.598175 0.722534 0.000000
0.631348 0.722534 0.000000
0.663086 0.722534 0.000000
0.693604 0.722534 0.000000
0.722534 0.722534 0.000000
0.750183 0.722534 0.000000
0.776703 0.722473 0.000000
0.802094 0.722595 0.000000
0.826569 0.722443 0.000000
0.850128 0.722473 0.000000
0.872955 0.722504 0.000000
0.895111 0.722473 0.000000
0.916748 0.722473 0.000000
0.937927 0.722443 0.000000
0.958801 0.722626 0.000000
0.979431 0.722626 0.000000
1.000000 0.722656 0.000000
0.000000 0.750183 0.000000
0.042847 0.750183 0.000000
0.085907 0.750183 0.000000
0.128571 0.750183 0.000000
0.171051 0.750183 0.000000
0.213196 0.750183 0.000000
0.254761 0.750183 0.000000
0.295959 0.750183 0.000000
0.336639 0.750183 0.000000
0.376740 0.750183 0.000000
0.415924 0.750183 0.000000
0.454407 0.750183 0.000000
0.491943 0.750183 0.000000
0.528381 0.750183 0.000000
0.563934 0.750183 0.000000
0.598175 0.750183 0.000000
0.631317 0.750183 0.000000
0.663177 0.750183 0.000000
0.693604 0.750183 0.000000
0.722534 0.750183 0.000000
0.750183 0.750183 0.000000
0.776703 0.750153 0.000000
0.802094 0.750214 0.000000
0.826569 0.750092 0.000000
0.850128 0.750092 0.000000
0.872955 0.750183 0.000000
0.895111 0.750214 0.000000
0.916748 0.750244 0.000000
0.937927 0.750153 0.000000
0.958801 0.750244 0.000000
0.979431 0.750122 0.000000
1.000000 0.750244 0.000000
0.000000 0.776703 0.000000
0.042847 0.776703 0.000000
0.085907 0.776703 0.000000
0.128571 0.776703 0.000000
0.171051 0.776703 0.000000
0.213135 0.776703 0.000000
0.254852 0.776703 0.000000
0.295990 0.776703 0.000000
0.336761 0.776703 0.000000
0.376587 0.776703 0.000000
0.416046 0.776703 0.000000
0.454346 0.776703 0.000000
0.491882 0.776703 0.000000
0.528473 0.776703 0.000000
0.563934 0.776703 0.000000
0.598267 0.776703 0.000000
0.631439 0.776703 0.000000
0.663116 0.776703 0.000000
0.693451 0.776703 0.000000
0.722473 0.776703 0.000000
0.750153 0.776703 0.000000
0.776703 0.776703 0.000000
0.802094 0.776642 0.000000
0.826569 0.776733 0.000000
0.850128 0.776642 0.000000
0.872955 0.776611 0.000000
0.895111 0.776672 0.000000
0.916748 0.776642 0.000000
0.937927 0.776733 0.000000
0.958801 0.776672 0.000000
0.979431 0.776672 0.000000
1.000000 0.776611 0.000000
0.000000 0.802094 0.000000
0.042877 0.802094 0.000000
0.085785 0.802094 0.000000
0.128448 0.802094 0.000000
0.170959 0.802094 0.000000
0.213043 0.802094 0.000000
0.254761 0.802094 0.000000
0.296082 0.802094 0.000000
0.336609 0.802094 0.000000
0.376770 0.802094 0.000000
0.415924 0.802094 0.000000
0.454315 0.802094 0.000000
0.491913 0.802094 0.000000
0.528534 0.802094 0.000000
0.563965 0.802094 0.000000
0.598236 0.802094 0.000000
0.631348 0.802094 0.000000
0.663055 0.802094 0.000000
0.693604 0.802094 0.000000
0.722595 0.802094 0.000000
0.750214 0.802094 0.000000
0.776642 0.802094 0.000000
0.802094 0.802094 0.000000
0.826569 0.802155 0.000000
0.850128 0.802185 0.000000
0.872955 0.802185 0.000000
0.895111 0.802002 0.000000
0.916748 0.802155 0.000000
0.937927 0.802124 0.000000
0.958801 0.802185 0.000000
0.979431 0.802002 0.000000
1.000000 0.802002 0.000000
0.000000 0.826569 0.000000
0.042969 0.826569 0.000000
0.085754 0.826569 0.000000
0.128540 0.826569 0.000000
0.170929 0.826569 0.000000
0.213104 0.826569 0.000000
0.254883 0.826569 0.000000
0.296051 0.826569 0.000000
0.336609 0.826569 0.000000
0.376770 0.826569 0.000000
0.415894 0.826569 0.000000
0.454437 0.826569 0.000000
0.491974 0.826569 0.000000
0.528503 0.826569 0.000000
0.563812 0.826569 0.000000
0.598328 0.826569 0.000000
0.631439 0.826569 0.000000
0.663116 0.826569 0.000000
0.693573 0.826569 0.000000
0.722443 0.826569 0.000000
0.750092 0.826569 0.000000
0.776733 0.826569 0.000000
0.802155 0.826569 0.000000
0.826569 0.826569 0.000000
0.850128 0.826477 0.000000
0.872955 0.826508 0.000000
0.895111 0.826477 0.000000
0.916748 0.826538 0.000000
0.937927 0.826630 0.000000
0.958801 0.826538 0.000000
0.979431 0.826630 0.000000
1.000000 0.826660 0.000000
0.000000 0.850128 0.000000
0.042969 0.850128 0.000000
0.085724 0.850128 0.000000
0.128479 0.850128 0.000000
0.171021 0.850128 0.000000
0.213165 0.850128 0.000000
0.254883 0.850128 0.000000
0.295959 0.850128 0.000000
0.336639 0.850128 0.000000
0.376709 0.850128 0.000000
0.415924 0.850128 0.000000
0.454315 0.850128 0.000000
0.491882 0.850128 0.000000
0.528412 0.850128 0.000000
0.563904 0.850128 0.000000
0.598175 0.850128 0.000000
0.631378 0.850128 0.000000
0.663116 0.850128 0.000000
0.693634 0.850128 0.000000
0.722473 0.850128 0.000000
0.750092 0.850128 0.000000
0.776642 0.850128 0.000000
0.802185 0.850128 0.000000
0.826477 0.850128 0.000000
0.850128 0.850128 0.000000
0.872955 0.850159 0.000000
0.895111 0.850098 0.000000
0.916748 0.850037 0.000000
0.937927 0.850220 0.000000
0.958801 0.850189 0.000000
0.979431 0.850067 0.000000
1.000000 0.850098 0.000000
0.000000 0.872955 0.000000
0.042847 0.872955 0.000000
0.085876 0.872955 0.000000
0.128510 0.872955 0.000000
0.170929 0.872955 0.000000
0.213135 0.872955 0.000000
0.254883 0.872955 0.000000
0.296021 0.872955 0.000000
0.336731 0.872955 0.000000
0.376587 0.872955 0.000000
0.416016 0.872955 0.000000
0.454376 0.872955 0.000000
0.491882 0.872955 0.000000
0.528534 0.872955 0.000000
0.563934 0.872955 0.000000
0.598236 0.872955 0.000000
0.631287 0.872955 0.000000
0.663239 0.872955 0.000000
0.693512 0.872955 0.000000
0.722504 0.872955 0.000000
0.750183 0.872955 0.000000
0.776611 0.872955 0.000000
0.802185 0.872955 0.000000
0.826508 0.872955 0.000000
0.850159 0.872955 0.000000
0.872955 0.872955 0.000000
0.895111 0.873047 0.000000
0.916748 0.872894 0.000000
0.937927 0.872894 0.000000
0.958801 0.872894 0.000000
0.979431 0.873016 0.000000
1.000000 0.873047 0.000000
0.000000 0.895111 0.000000
0.042847 0.895111 0.000000
0.085876 0.895111 0.000000
0.128510 0.895111 0.000000
0.170898 0.895111 0.000000
0.213074 0.895111 0.000000
0.254822 0.895111 0.000000
0.296112 0.895111 0.000000
0.336761 0.895111 0.000000
0.376740 0.895111 0.000000
0.415863 0.895111 0.000000
0.454315 0.895111 0.000000
0.491913 0.895111 0.000000
0.528412 0.895111 0.000000
0.563812 0.895111 0.000000
0.598358 0.895111 0.000000
0.631348 0.895111 0.000000
0.663239 0.895111 0.000000
0.693634 0.895111 0.000000
0.722473 0.895111 0.000000
0.750214 0.895111 0.000000
0.776672 0.895111 0.000000
0.802002 0.895111 0.000000
0.826477 0.895111 0.000000
0.850098 0.895111 0.000000
0.873047 0.895111 0.000000
0.895111 0.895111 0.000000
0.916748 0.895050 0.000000
0.937927 0.895111 0.000000
0.958801 0.895142 0.000000
0.979431 0.895020 0.000000
1.000000 0.895020 0.000000
0.000000 0.916748 0.000000
0.042969 0.916748 0.000000
0.085724 0.916748 0.000000
0.128479 0.916748 0.000000
0.170990 0.916748 0.000000
0.213074 0.916748 0.000000
0.254913 0.916748 0.000000
0.296112 0.916748 0.000000
0.336609 0.916748 0.000000
0.376678 0.916748 0.000000
0.415863 0.916748 0.000000
0.454346 0.916748 0.000000
0.491943 0.916748 0.000000
0.528442 0.916748 0.000000
0.564026 0.916748 0.000000
0.598267 0.916748 0.000000
0.631378 0.916748 0.000000
0.663177 0.916748 0.000000
