nxshell/module/image-editor/libimagevisualresult/filter_cube/bright.CUBE
#Created by: Adobe Photoshop Export Color Lookup Plugin
TITLE "相机滤镜调试.psd"
#LUT size
LUT_3D_SIZE 5
#data domain
#LUT data points
DOMAIN_MIN 0.000000 0.000000 0.000000
DOMAIN_MAX 0.903226 0.903226 0.903226
0.000000 0.000000 0.000000
0.296051 0.000000 0.000000
0.563904 0.000000 0.000000
0.776703 0.000000 0.000000
0.937927 0.000000 0.000000
0.000000 0.296051 0.000000
0.296051 0.296051 0.000000
0.563904 0.295990 0.000000
0.776703 0.295990 0.000000
0.937927 0.296082 0.000000
0.000000 0.563904 0.000000
0.295990 0.563904 0.000000
0.563904 0.563904 0.000000
0.776703 0.563934 0.000000
0.937927 0.563995 0.000000
0.000000 0.776703 0.000000
0.295990 0.776703 0.000000
0.563934 0.776703 0.000000
0.776703 0.776703 0.000000
0.937927 0.776733 0.000000
0.000000 0.937927 0.000000
0.296082 0.937927 0.000000
0.563995 0.937927 0.000000
0.776733 0.937927 0.000000
0.937927 0.937927 0.000000
0.000000 0.000000 0.296051
0.296051 0.000000 0.296051
0.563904 0.000000 0.295990
0.776703 0.000000 0.295990
0.937927 0.000000 0.296082
0.000000 0.296051 0.296051
0.296051 0.296051 0.296051
0.651276 0.208679 0.208679
0.933472 0.139282 0.139282
1.000000 0.233978 0.233978
0.000000 0.563904 0.295990
0.208679 0.651276 0.208679
0.651276 0.651276 0.208679
0.933472 0.581940 0.139282
1.000000 0.553589 0.233978
0.000000 0.776703 0.295990
0.139282 0.933472 0.139282
0.581940 0.933472 0.139282
0.933472 0.933472 0.139282
1.000000 0.807556 0.233978
0.000000 0.937927 0.296082
0.233978 1.000000 0.233978
0.553589 1.000000 0.233978
0.807556 1.000000 0.233978
1.000000 1.000000 0.233978
0.000000 0.000000 0.563904
0.295990 0.000000 0.563904
0.563904 0.000000 0.563904
0.776703 0.000000 0.563934
0.937927 0.000000 0.563995
0.000000 0.295990 0.563904
0.208679 0.208679 0.651276
0.651276 0.208679 0.651276
0.933472 0.139282 0.581940
1.000000 0.233978 0.553589
0.000000 0.563904 0.563904
0.208679 0.651276 0.651276
0.563904 0.563904 0.563904
0.846100 0.494476 0.494476
1.000000 0.501831 0.501831
0.000000 0.776703 0.563934
0.139282 0.933472 0.581940
0.494476 0.846100 0.494476
0.846100 0.846100 0.494476
1.000000 0.785217 0.501831
0.000000 0.937927 0.563995
0.233978 1.000000 0.553589
0.501831 1.000000 0.501831
0.785217 1.000000 0.501831
1.000000 1.000000 0.501831
0.000000 0.000000 0.776703
0.295990 0.000000 0.776703
0.563934 0.000000 0.776703
0.776703 0.000000 0.776703
0.937927 0.000000 0.776733
0.000000 0.295990 0.776703
0.139282 0.139282 0.933472
0.581940 0.139282 0.933472
0.933472 0.139282 0.933472
1.000000 0.233978 0.807556
0.000000 0.563934 0.776703
0.139282 0.581940 0.933472
0.494476 0.494476 0.846100
0.846100 0.494476 0.846100
1.000000 0.501831 0.785217
0.000000 0.776703 0.776703
0.139282 0.933472 0.933472
0.494476 0.846100 0.846100
0.776703 0.776703 0.776703
0.990509 0.724121 0.724121
0.000000 0.937927 0.776733
0.233978 1.000000 0.807556
0.501831 1.000000 0.785217
0.724121 0.990509 0.724121
0.990509 0.990509 0.724121
0.000000 0.000000 0.937927
0.296082 0.000000 0.937927
0.563995 0.000000 0.937927
0.776733 0.000000 0.937927
0.937927 0.000000 0.937927
0.000000 0.296082 0.937927
0.233978 0.233978 1.000000
0.553589 0.233978 1.000000
0.807556 0.233978 1.000000
1.000000 0.233978 1.000000
0.000000 0.563995 0.937927
0.233978 0.553589 1.000000
0.501831 0.501831 1.000000
0.785217 0.501831 1.000000
1.000000 0.501831 1.000000
0.000000 0.776733 0.937927
0.233978 0.807556 1.000000
0.501831 0.785217 1.000000
0.724121 0.724121 0.990509
0.990509 0.724121 0.990509
0.000000 0.937927 0.937927
0.233978 1.000000 1.000000
0.501831 1.000000 1.000000
0.724121 0.990509 0.990509
0.937927 0.937927 0.937927
