nxshell/module/image-editor/libimagevisualresult/filter_cube/bright.CUBE
#Created by: Adobe Photoshop Export Color Lookup Plugin
TITLE "相机滤镜调试.psd"
#LUT size
LUT_3D_SIZE 8
#data domain
#LUT data points
DOMAIN_MIN 0.000000 0.000000 0.000000
DOMAIN_MAX 0.903226 0.903226 0.903226
0.000000 0.000000 0.000000
0.170990 0.000000 0.000000
0.336700 0.000000 0.000000
0.491913 0.000000 0.000000
0.631378 0.000000 0.000000
0.750183 0.000000 0.000000
0.850128 0.000000 0.000000
0.937927 0.000000 0.000000
0.000000 0.170990 0.000000
0.170990 0.170990 0.000000
0.336700 0.170990 0.000000
0.491913 0.171021 0.000000
0.631378 0.170959 0.000000
0.750183 0.171051 0.000000
0.850128 0.171021 0.000000
0.937927 0.171051 0.000000
0.000000 0.336700 0.000000
0.170990 0.336700 0.000000
0.336700 0.336700 0.000000
0.491913 0.336761 0.000000
0.631378 0.336639 0.000000
0.750183 0.336639 0.000000
0.850128 0.336639 0.000000
0.937927 0.336609 0.000000
0.000000 0.491913 0.000000
0.171021 0.491913 0.000000
0.336761 0.491913 0.000000
0.491913 0.491913 0.000000
0.631378 0.491882 0.000000
0.750183 0.491943 0.000000
0.850128 0.491882 0.000000
0.937927 0.491852 0.000000
0.000000 0.631378 0.000000
0.170959 0.631378 0.000000
0.336639 0.631378 0.000000
0.491882 0.631378 0.000000
0.631378 0.631378 0.000000
0.750183 0.631317 0.000000
0.850128 0.631378 0.000000
0.937927 0.631317 0.000000
0.000000 0.750183 0.000000
0.171051 0.750183 0.000000
0.336639 0.750183 0.000000
0.491943 0.750183 0.000000
0.631317 0.750183 0.000000
0.750183 0.750183 0.000000
0.850128 0.750092 0.000000
0.937927 0.750153 0.000000
0.000000 0.850128 0.000000
0.171021 0.850128 0.000000
0.336639 0.850128 0.000000
0.491882 0.850128 0.000000
0.631378 0.850128 0.000000
0.750092 0.850128 0.000000
0.850128 0.850128 0.000000
0.937927 0.850220 0.000000
0.000000 0.937927 0.000000
0.171051 0.937927 0.000000
0.336609 0.937927 0.000000
0.491852 0.937927 0.000000
0.631317 0.937927 0.000000
0.750153 0.937927 0.000000
0.850220 0.937927 0.000000
0.937927 0.937927 0.000000
0.000000 0.000000 0.170990
0.170990 0.000000 0.170990
0.336700 0.000000 0.170990
0.491913 0.000000 0.171021
0.631378 0.000000 0.170959
0.750183 0.000000 0.171051
0.850128 0.000000 0.171021
0.937927 0.000000 0.171051
0.000000 0.170990 0.170990
0.170990 0.170990 0.170990
0.390747 0.116943 0.116943
0.596588 0.066315 0.066315
0.781525 0.020813 0.020813
0.921173 0.000000 0.000000
1.000000 0.021118 0.021118
1.000000 0.108917 0.108917
0.000000 0.336700 0.170990
0.116943 0.390747 0.116943
0.390747 0.390747 0.116943
0.596588 0.340118 0.066315
0.781525 0.294556 0.020813
0.921173 0.263580 0.000000
1.000000 0.259857 0.021118
1.000000 0.301453 0.108917
0.000000 0.491913 0.171021
0.066315 0.596588 0.066315
0.340118 0.596588 0.066315
0.596588 0.596588 0.066315
0.781525 0.551056 0.020813
0.921173 0.510529 0.000000
1.000000 0.483795 0.021118
1.000000 0.481812 0.108917
0.000000 0.631378 0.170959
0.020813 0.781525 0.020813
0.294556 0.781525 0.020813
0.551056 0.781525 0.020813
0.781525 0.781525 0.020813
0.921173 0.732269 0.000000
1.000000 0.684784 0.021118
1.000000 0.643860 0.108917
0.000000 0.750183 0.171051
0.000000 0.921173 0.000000
0.263580 0.921173 0.000000
0.510529 0.921173 0.000000
0.732269 0.921173 0.000000
0.921173 0.921173 0.000000
1.000000 0.855896 0.021118
1.000000 0.781799 0.108917
0.000000 0.850128 0.171021
0.021118 1.000000 0.021118
0.259857 1.000000 0.021118
0.483795 1.000000 0.021118
0.684784 1.000000 0.021118
0.855896 1.000000 0.021118
1.000000 1.000000 0.021118
1.000000 0.897980 0.108917
0.000000 0.937927 0.171051
0.108917 1.000000 0.108917
0.301453 1.000000 0.108917
0.481812 1.000000 0.108917
0.643860 1.000000 0.108917
0.781799 1.000000 0.108917
0.897980 1.000000 0.108917
1.000000 1.000000 0.108917
0.000000 0.000000 0.336700
0.170990 0.000000 0.336700
0.336700 0.000000 0.336700
0.491913 0.000000 0.336761
0.631378 0.000000 0.336639
0.750183 0.000000 0.336639
0.850128 0.000000 0.336639
0.937927 0.000000 0.336609
0.000000 0.170990 0.336700
0.116943 0.116943 0.390747
0.390747 0.116943 0.390747
0.596588 0.066315 0.340118
0.781525 0.020813 0.294556
0.921173 0.000000 0.263580
1.000000 0.021118 0.259857
1.000000 0.108917 0.301453
0.000000 0.336700 0.336700
0.116943 0.390747 0.390747
0.336700 0.336700 0.336700
0.542542 0.286072 0.286072
0.727478 0.240570 0.240570
0.885040 0.201813 0.201813
1.000000 0.186829 0.186829
1.000000 0.274628 0.274628
0.000000 0.491913 0.336761
0.066315 0.596588 0.340118
0.286072 0.542542 0.286072
0.542542 0.542542 0.286072
0.727478 0.496979 0.240570
0.885040 0.458344 0.201813
1.000000 0.432617 0.186829
1.000000 0.461823 0.274628
0.000000 0.631378 0.336639
0.020813 0.781525 0.294556
0.240570 0.727478 0.240570
0.496979 0.727478 0.240570
0.727478 0.727478 0.240570
0.885040 0.688721 0.201813
1.000000 0.653564 0.186829
1.000000 0.630219 0.274628
0.000000 0.750183 0.336639
0.000000 0.921173 0.263580
0.201813 0.885040 0.201813
0.458344 0.885040 0.201813
0.688721 0.885040 0.201813
0.885040 0.885040 0.201813
1.000000 0.841766 0.186829
1.000000 0.773499 0.274628
0.000000 0.850128 0.336639
0.021118 1.000000 0.259857
0.186829 1.000000 0.186829
0.432617 1.000000 0.186829
0.653564 1.000000 0.186829
0.841766 1.000000 0.186829
1.000000 1.000000 0.186829
1.000000 0.894104 0.274628
0.000000 0.937927 0.336609
0.108917 1.000000 0.301453
0.274628 1.000000 0.274628
0.461823 1.000000 0.274628
0.630219 1.000000 0.274628
0.773499 1.000000 0.274628
0.894104 1.000000 0.274628
1.000000 1.000000 0.274628
0.000000 0.000000 0.491913
0.171021 0.000000 0.491913
0.336761 0.000000 0.491913
0.491913 0.000000 0.491913
0.631378 0.000000 0.491882
0.750183 0.000000 0.491943
0.850128 0.000000 0.491882
0.937927 0.000000 0.491852
0.000000 0.171021 0.491913
0.066315 0.066315 0.596588
0.340118 0.066315 0.596588
0.596588 0.066315 0.596588
0.781525 0.020813 0.551056
0.921173 0.000000 0.510529
1.000000 0.021118 0.483795
1.000000 0.108917 0.481812
0.000000 0.336761 0.491913
0.066315 0.340118 0.596588
0.286072 0.286072 0.542542
0.542542 0.286072 0.542542
0.727478 0.240570 0.496979
0.885040 0.201813 0.458344
1.000000 0.186829 0.432617
1.000000 0.274628 0.461823
0.000000 0.491913 0.491913
0.066315 0.596588 0.596588
0.286072 0.542542 0.542542
0.491913 0.491913 0.491913
0.676849 0.446411 0.446411
0.834412 0.407654 0.407654
0.966949 0.375061 0.375061
1.000000 0.429840 0.429840
0.000000 0.631378 0.491882
0.020813 0.781525 0.551056
0.240570 0.727478 0.496979
0.446411 0.676849 0.446411
0.676849 0.676849 0.446411
0.834412 0.638123 0.407654
0.966949 0.605530 0.375061
1.000000 0.608154 0.429840
0.000000 0.750183 0.491943
0.000000 0.921173 0.510529
0.201813 0.885040 0.458344
0.407654 0.834412 0.407654
0.638123 0.834412 0.407654
0.834412 0.834412 0.407654
0.966949 0.801788 0.375061
1.000000 0.760010 0.429840
0.000000 0.850128 0.491882
0.021118 1.000000 0.483795
0.186829 1.000000 0.432617
0.375061 0.966949 0.375061
0.605530 0.966949 0.375061
0.801788 0.966949 0.375061
0.966949 0.966949 0.375061
1.000000 0.887817 0.429840
0.000000 0.937927 0.491852
0.108917 1.000000 0.481812
0.274628 1.000000 0.461823
0.429840 1.000000 0.429840
0.608154 1.000000 0.429840
0.760010 1.000000 0.429840
0.887817 1.000000 0.429840
1.000000 1.000000 0.429840
0.000000 0.000000 0.631378
0.170959 0.000000 0.631378
0.336639 0.000000 0.631378
0.491882 0.000000 0.631378
0.631378 0.000000 0.631378
0.750183 0.000000 0.631317
0.850128 0.000000 0.631378
0.937927 0.000000 0.631317
0.000000 0.170959 0.631378
0.020813 0.020813 0.781525
0.294556 0.020813 0.781525
0.551056 0.020813 0.781525
0.781525 0.020813 0.781525
0.921173 0.000000 0.732269
1.000000 0.021118 0.684784
1.000000 0.108917 0.643860
0.000000 0.336639 0.631378
0.020813 0.294556 0.781525
0.240570 0.240570 0.727478
0.496979 0.240570 0.727478
0.727478 0.240570 0.727478
0.885040 0.201813 0.688721
1.000000 0.186829 0.653564
1.000000 0.274628 0.630219
0.000000 0.491882 0.631378
0.020813 0.551056 0.781525
0.240570 0.496979 0.727478
0.446411 0.446411 0.676849
0.676849 0.446411 0.676849
0.834412 0.407654 0.638123
0.966949 0.375061 0.605530
1.000000 0.429840 0.608154
0.000000 0.631378 0.631378
0.020813 0.781525 0.781525
0.240570 0.727478 0.727478
0.446411 0.676849 0.676849
0.631378 0.631378 0.631378
0.788940 0.592621 0.592621
0.921478 0.560028 0.560028
1.000000 0.569305 0.569305
0.000000 0.750183 0.631317
0.000000 0.921173 0.732269
0.201813 0.885040 0.688721
0.407654 0.834412 0.638123
0.592621 0.788940 0.592621
0.788940 0.788940 0.592621
0.921478 0.756378 0.560028
1.000000 0.736176 0.569305
0.000000 0.850128 0.631378
0.021118 1.000000 0.684784
0.186829 1.000000 0.653564
0.375061 0.966949 0.605530
0.560028 0.921478 0.560028
0.756378 0.921478 0.560028
0.921478 0.921478 0.560028
1.000000 0.876648 0.569305
0.000000 0.937927 0.631317
0.108917 1.000000 0.643860
0.274628 1.000000 0.630219
0.429840 1.000000 0.608154
0.569305 1.000000 0.569305
0.736176 1.000000 0.569305
0.876648 1.000000 0.569305
1.000000 1.000000 0.569305
0.000000 0.000000 0.750183
0.171051 0.000000 0.750183
0.336639 0.000000 0.750183
0.491943 0.000000 0.750183
0.631317 0.000000 0.750183
0.750183 0.000000 0.750183
0.850128 0.000000 0.750092
0.937927 0.000000 0.750153
0.000000 0.171051 0.750183
0.000000 0.000000 0.921173
0.263580 0.000000 0.921173
0.510529 0.000000 0.921173
0.732269 0.000000 0.921173
0.921173 0.000000 0.921173
1.000000 0.021118 0.855896
1.000000 0.108917 0.781799
0.000000 0.336639 0.750183
0.000000 0.263580 0.921173
0.201813 0.201813 0.885040
0.458344 0.201813 0.885040
0.688721 0.201813 0.885040
0.885040 0.201813 0.885040
1.000000 0.186829 0.841766
1.000000 0.274628 0.773499
0.000000 0.491943 0.750183
0.000000 0.510529 0.921173
0.201813 0.458344 0.885040
0.407654 0.407654 0.834412
0.638123 0.407654 0.834412
0.834412 0.407654 0.834412
0.966949 0.375061 0.801788
1.000000 0.429840 0.760010
0.000000 0.631317 0.750183
0.000000 0.732269 0.921173
0.201813 0.688721 0.885040
0.407654 0.638123 0.834412
0.592621 0.592621 0.788940
0.788940 0.592621 0.788940
0.921478 0.560028 0.756378
1.000000 0.569305 0.736176
0.000000 0.750183 0.750183
0.000000 0.921173 0.921173
0.201813 0.885040 0.885040
0.407654 0.834412 0.834412
0.592621 0.788940 0.788940
0.750183 0.750183 0.750183
0.882721 0.717590 0.717590
0.999146 0.688934 0.688934
0.000000 0.850128 0.750092
0.021118 1.000000 0.855896
0.186829 1.000000 0.841766
0.375061 0.966949 0.801788
0.560028 0.921478 0.756378
0.717590 0.882721 0.717590
0.882721 0.882721 0.717590
0.999146 0.854034 0.688934
0.000000 0.937927 0.750153
0.108917 1.000000 0.781799
0.274628 1.000000 0.773499
0.429840 1.000000 0.760010
0.569305 1.000000 0.736176
0.688934 0.999146 0.688934
0.854034 0.999146 0.688934
0.999146 0.999146 0.688934
0.000000 0.000000 0.850128
0.171021 0.000000 0.850128
0.336639 0.000000 0.850128
0.491882 0.000000 0.850128
0.631378 0.000000 0.850128
0.750092 0.000000 0.850128
0.850128 0.000000 0.850128
0.937927 0.000000 0.850220
0.000000 0.171021 0.850128
0.021118 0.021118 1.000000
0.259857 0.021118 1.000000
0.483795 0.021118 1.000000
0.684784 0.021118 1.000000
0.855896 0.021118 1.000000
1.000000 0.021118 1.000000
1.000000 0.108917 0.897980
0.000000 0.336639 0.850128
0.021118 0.259857 1.000000
0.186829 0.186829 1.000000
0.432617 0.186829 1.000000
0.653564 0.186829 1.000000
0.841766 0.186829 1.000000
1.000000 0.186829 1.000000
1.000000 0.274628 0.894104
0.000000 0.491882 0.850128
0.021118 0.483795 1.000000
0.186829 0.432617 1.000000
0.375061 0.375061 0.966949
0.605530 0.375061 0.966949
0.801788 0.375061 0.966949
0.966949 0.375061 0.966949
1.000000 0.429840 0.887817
0.000000 0.631378 0.850128
0.021118 0.684784 1.000000
0.186829 0.653564 1.000000
0.375061 0.605530 0.966949
0.560028 0.560028 0.921478
0.756378 0.560028 0.921478
0.921478 0.560028 0.921478
1.000000 0.569305 0.876648
0.000000 0.750092 0.850128
0.021118 0.855896 1.000000
0.186829 0.841766 1.000000
0.375061 0.801788 0.966949
0.560028 0.756378 0.921478
0.717590 0.717590 0.882721
0.882721 0.717590 0.882721
0.999146 0.688934 0.854034
0.000000 0.850128 0.850128
0.021118 1.000000 1.000000
0.186829 1.000000 1.000000
0.375061 0.966949 0.966949
0.560028 0.921478 0.921478
0.717590 0.882721 0.882721
0.850128 0.850128 0.850128
0.966553 0.821472 0.821472
0.000000 0.937927 0.850220
0.108917 1.000000 0.897980
0.274628 1.000000 0.894104
0.429840 1.000000 0.887817
0.569305 1.000000 0.876648
0.688934 0.999146 0.854034
0.821472 0.966553 0.821472
0.966553 0.966553 0.821472
0.000000 0.000000 0.937927
0.171051 0.000000 0.937927
0.336609 0.000000 0.937927
0.491852 0.000000 0.937927
0.631317 0.000000 0.937927
0.750153 0.000000 0.937927
0.850220 0.000000 0.937927
0.937927 0.000000 0.937927
0.000000 0.171051 0.937927
0.108917 0.108917 1.000000
0.301453 0.108917 1.000000
0.481812 0.108917 1.000000
0.643860 0.108917 1.000000
0.781799 0.108917 1.000000
0.897980 0.108917 1.000000
1.000000 0.108917 1.000000
0.000000 0.336609 0.937927
0.108917 0.301453 1.000000
0.274628 0.274628 1.000000
0.461823 0.274628 1.000000
0.630219 0.274628 1.000000
0.773499 0.274628 1.000000
0.894104 0.274628 1.000000
1.000000 0.274628 1.000000
0.000000 0.491852 0.937927
0.108917 0.481812 1.000000
0.274628 0.461823 1.000000
0.429840 0.429840 1.000000
0.608154 0.429840 1.000000
0.760010 0.429840 1.000000
0.887817 0.429840 1.000000
1.000000 0.429840 1.000000
0.000000 0.631317 0.937927
0.108917 0.643860 1.000000
0.274628 0.630219 1.000000
0.429840 0.608154 1.000000
0.569305 0.569305 1.000000
0.736176 0.569305 1.000000
0.876648 0.569305 1.000000
1.000000 0.569305 1.000000
0.000000 0.750153 0.937927
0.108917 0.781799 1.000000
0.274628 0.773499 1.000000
0.429840 0.760010 1.000000
0.569305 0.736176 1.000000
0.688934 0.688934 0.999146
0.854034 0.688934 0.999146
0.999146 0.688934 0.999146
0.000000 0.850220 0.937927
0.108917 0.897980 1.000000
0.274628 0.894104 1.000000
0.429840 0.887817 1.000000
0.569305 0.876648 1.000000
0.688934 0.854034 0.999146
0.821472 0.821472 0.966553
0.966553 0.821472 0.966553
0.000000 0.937927 0.937927
0.108917 1.000000 1.000000
0.274628 1.000000 1.000000
0.429840 1.000000 1.000000
0.569305 1.000000 1.000000
0.688934 0.999146 0.999146
0.821472 0.966553 0.966553
0.937927 0.937927 0.937927
