nxshell/module/image-editor/libimagevisualresult/filter_cube/cold.CUBE
#Created by: Adobe Photoshop Export Color Lookup Plugin
TITLE "相机滤镜调试.psd"
#LUT size
LUT_3D_SIZE 8
#data domain
#LUT data points
DOMAIN_MIN 0.000000 0.000000 0.000000
DOMAIN_MAX 0.903226 0.903226 0.903226
0.000000 0.000000 0.000000
0.091034 0.000000 0.000000
0.214783 0.000000 0.000000
0.356354 0.000000 0.000000
0.512939 0.000000 0.000000
0.670166 0.000000 0.000000
0.804077 0.000000 0.000000
0.919189 0.000000 0.000000
0.000000 0.156403 0.000000
0.091034 0.156403 0.000000
0.214783 0.156403 0.000000
0.356354 0.156403 0.000000
0.512939 0.156403 0.000000
0.670166 0.156403 0.000000
0.804077 0.156403 0.000000
0.919189 0.156403 0.000000
0.000000 0.308075 0.000000
0.091034 0.308075 0.000000
0.214783 0.308075 0.000000
0.356354 0.308075 0.000000
0.512939 0.308075 0.000000
0.670166 0.308075 0.000000
0.804077 0.308075 0.000000
0.919189 0.308075 0.000000
0.000000 0.460419 0.000000
0.091034 0.460419 0.000000
0.214783 0.460419 0.000000
0.356354 0.460419 0.000000
0.512939 0.460419 0.000000
0.670166 0.460419 0.000000
0.804077 0.460419 0.000000
0.919189 0.460419 0.000000
0.000000 0.610535 0.000000
0.091034 0.610535 0.000000
0.214783 0.610535 0.000000
0.356354 0.610535 0.000000
0.512939 0.610535 0.000000
0.670166 0.610535 0.000000
0.804077 0.610535 0.000000
0.919189 0.610535 0.000000
0.000000 0.738800 0.000000
0.091034 0.738800 0.000000
0.214783 0.738800 0.000000
0.356354 0.738800 0.000000
0.512939 0.738800 0.000000
0.670166 0.738800 0.000000
0.804077 0.738800 0.000000
0.919189 0.738800 0.000000
0.000000 0.844482 0.000000
0.091034 0.844482 0.000000
0.214783 0.844482 0.000000
0.356354 0.844482 0.000000
0.512939 0.844482 0.000000
0.670166 0.844482 0.000000
0.804077 0.844482 0.000000
0.919189 0.844482 0.000000
0.000000 0.935913 0.000000
0.091034 0.935913 0.000000
0.214783 0.935913 0.000000
0.356354 0.935913 0.000000
0.512939 0.935913 0.000000
0.670166 0.935913 0.000000
0.804077 0.935913 0.000000
0.919189 0.935913 0.000000
0.000000 0.000000 0.216431
0.091034 0.000000 0.216431
0.214783 0.000000 0.216431
0.356354 0.000000 0.216431
0.512939 0.000000 0.216431
0.670166 0.000000 0.216431
0.804077 0.000000 0.216431
0.919189 0.000000 0.216431
0.000000 0.156403 0.216431
0.091034 0.156403 0.216431
0.214783 0.156403 0.216431
0.356354 0.156403 0.216431
0.512939 0.156403 0.216431
0.670166 0.156403 0.216431
0.804077 0.156403 0.216431
0.919189 0.156403 0.216431
0.000000 0.308075 0.216431
0.091034 0.308075 0.216431
0.214783 0.308075 0.216431
0.356354 0.308075 0.216431
0.512939 0.308075 0.216431
0.670166 0.308075 0.216431
0.804077 0.308075 0.216431
0.919189 0.308075 0.216431
0.000000 0.460419 0.216431
0.091034 0.460419 0.216431
0.214783 0.460419 0.216431
0.356354 0.460419 0.216431
0.512939 0.460419 0.216431
0.670166 0.460419 0.216431
0.804077 0.460419 0.216431
0.919189 0.460419 0.216431
0.000000 0.610535 0.216431
0.091034 0.610535 0.216431
0.214783 0.610535 0.216431
0.356354 0.610535 0.216431
0.512939 0.610535 0.216431
0.670166 0.610535 0.216431
0.804077 0.610535 0.216431
0.919189 0.610535 0.216431
0.000000 0.738800 0.216431
0.091034 0.738800 0.216431
0.214783 0.738800 0.216431
0.356354 0.738800 0.216431
0.512939 0.738800 0.216431
0.670166 0.738800 0.216431
0.804077 0.738800 0.216431
0.919189 0.738800 0.216431
0.000000 0.844482 0.216431
0.091034 0.844482 0.216431
0.214783 0.844482 0.216431
0.356354 0.844482 0.216431
0.512939 0.844482 0.216431
0.670166 0.844482 0.216431
0.804077 0.844482 0.216431
0.919189 0.844482 0.216431
0.000000 0.935913 0.216431
0.091034 0.935913 0.216431
0.214783 0.935913 0.216431
0.356354 0.935913 0.216431
0.512939 0.935913 0.216431
0.670166 0.935913 0.216431
0.804077 0.935913 0.216431
0.919189 0.935913 0.216431
0.000000 0.000000 0.382935
0.091034 0.000000 0.382935
0.214783 0.000000 0.382935
0.356354 0.000000 0.382935
0.512939 0.000000 0.382935
0.670166 0.000000 0.382935
0.804077 0.000000 0.382935
0.919189 0.000000 0.382935
0.000000 0.156403 0.382935
0.091034 0.156403 0.382935
0.214783 0.156403 0.382935
0.356354 0.156403 0.382935
0.512939 0.156403 0.382935
0.670166 0.156403 0.382935
0.804077 0.156403 0.382935
0.919189 0.156403 0.382935
0.000000 0.308075 0.382935
0.091034 0.308075 0.382935
0.214783 0.308075 0.382935
0.356354 0.308075 0.382935
0.512939 0.308075 0.382935
0.670166 0.308075 0.382935
0.804077 0.308075 0.382935
0.919189 0.308075 0.382935
0.000000 0.460419 0.382935
0.091034 0.460419 0.382935
0.214783 0.460419 0.382935
0.356354 0.460419 0.382935
0.512939 0.460419 0.382935
0.670166 0.460419 0.382935
0.804077 0.460419 0.382935
0.919189 0.460419 0.382935
0.000000 0.610535 0.382935
0.091034 0.610535 0.382935
0.214783 0.610535 0.382935
0.356354 0.610535 0.382935
0.512939 0.610535 0.382935
0.670166 0.610535 0.382935
0.804077 0.610535 0.382935
0.919189 0.610535 0.382935
0.000000 0.738800 0.382935
0.091034 0.738800 0.382935
0.214783 0.738800 0.382935
0.356354 0.738800 0.382935
0.512939 0.738800 0.382935
0.670166 0.738800 0.382935
0.804077 0.738800 0.382935
0.919189 0.738800 0.382935
0.000000 0.844482 0.382935
0.091034 0.844482 0.382935
0.214783 0.844482 0.382935
0.356354 0.844482 0.382935
0.512939 0.844482 0.382935
0.670166 0.844482 0.382935
0.804077 0.844482 0.382935
0.919189 0.844482 0.382935
0.000000 0.935913 0.382935
0.091034 0.935913 0.382935
0.214783 0.935913 0.382935
0.356354 0.935913 0.382935
0.512939 0.935913 0.382935
0.670166 0.935913 0.382935
0.804077 0.935913 0.382935
0.919189 0.935913 0.382935
0.000000 0.000000 0.536957
0.091034 0.000000 0.536957
0.214783 0.000000 0.536957
0.356354 0.000000 0.536957
0.512939 0.000000 0.536957
0.670166 0.000000 0.536957
0.804077 0.000000 0.536957
0.919189 0.000000 0.536957
0.000000 0.156403 0.536957
0.091034 0.156403 0.536957
0.214783 0.156403 0.536957
0.356354 0.156403 0.536957
0.512939 0.156403 0.536957
0.670166 0.156403 0.536957
0.804077 0.156403 0.536957
0.919189 0.156403 0.536957
0.000000 0.308075 0.536957
0.091034 0.308075 0.536957
0.214783 0.308075 0.536957
0.356354 0.308075 0.536957
0.512939 0.308075 0.536957
0.670166 0.308075 0.536957
0.804077 0.308075 0.536957
0.919189 0.308075 0.536957
0.000000 0.460419 0.536957
0.091034 0.460419 0.536957
0.214783 0.460419 0.536957
0.356354 0.460419 0.536957
0.512939 0.460419 0.536957
0.670166 0.460419 0.536957
0.804077 0.460419 0.536957
0.919189 0.460419 0.536957
0.000000 0.610535 0.536957
0.091034 0.610535 0.536957
0.214783 0.610535 0.536957
0.356354 0.610535 0.536957
0.512939 0.610535 0.536957
0.670166 0.610535 0.536957
0.804077 0.610535 0.536957
0.919189 0.610535 0.536957
0.000000 0.738800 0.536957
0.091034 0.738800 0.536957
0.214783 0.738800 0.536957
0.356354 0.738800 0.536957
0.512939 0.738800 0.536957
0.670166 0.738800 0.536957
0.804077 0.738800 0.536957
0.919189 0.738800 0.536957
0.000000 0.844482 0.536957
0.091034 0.844482 0.536957
0.214783 0.844482 0.536957
0.356354 0.844482 0.536957
0.512939 0.844482 0.536957
0.670166 0.844482 0.536957
0.804077 0.844482 0.536957
0.919189 0.844482 0.536957
0.000000 0.935913 0.536957
0.091034 0.935913 0.536957
0.214783 0.935913 0.536957
0.356354 0.935913 0.536957
0.512939 0.935913 0.536957
0.670166 0.935913 0.536957
0.804077 0.935913 0.536957
0.919189 0.935913 0.536957
0.000000 0.000000 0.672150
0.091034 0.000000 0.672150
0.214783 0.000000 0.672150
0.356354 0.000000 0.672150
0.512939 0.000000 0.672150
0.670166 0.000000 0.672150
0.804077 0.000000 0.672150
0.919189 0.000000 0.672150
0.000000 0.156403 0.672150
0.091034 0.156403 0.672150
0.214783 0.156403 0.672150
0.356354 0.156403 0.672150
0.512939 0.156403 0.672150
0.670166 0.156403 0.672150
0.804077 0.156403 0.672150
0.919189 0.156403 0.672150
0.000000 0.308075 0.672150
0.091034 0.308075 0.672150
0.214783 0.308075 0.672150
0.356354 0.308075 0.672150
0.512939 0.308075 0.672150
0.670166 0.308075 0.672150
0.804077 0.308075 0.672150
0.919189 0.308075 0.672150
0.000000 0.460419 0.672150
0.091034 0.460419 0.672150
0.214783 0.460419 0.672150
0.356354 0.460419 0.672150
0.512939 0.460419 0.672150
0.670166 0.460419 0.672150
0.804077 0.460419 0.672150
0.919189 0.460419 0.672150
0.000000 0.610535 0.672150
0.091034 0.610535 0.672150
0.214783 0.610535 0.672150
0.356354 0.610535 0.672150
0.512939 0.610535 0.672150
0.670166 0.610535 0.672150
0.804077 0.610535 0.672150
0.919189 0.610535 0.672150
0.000000 0.738800 0.672150
0.091034 0.738800 0.672150
0.214783 0.738800 0.672150
0.356354 0.738800 0.672150
0.512939 0.738800 0.672150
0.670166 0.738800 0.672150
0.804077 0.738800 0.672150
0.919189 0.738800 0.672150
0.000000 0.844482 0.672150
0.091034 0.844482 0.672150
0.214783 0.844482 0.672150
0.356354 0.844482 0.672150
0.512939 0.844482 0.672150
0.670166 0.844482 0.672150
0.804077 0.844482 0.672150
0.919189 0.844482 0.672150
0.000000 0.935913 0.672150
0.091034 0.935913 0.672150
0.214783 0.935913 0.672150
0.356354 0.935913 0.672150
0.512939 0.935913 0.672150
0.670166 0.935913 0.672150
0.804077 0.935913 0.672150
0.919189 0.935913 0.672150
0.000000 0.000000 0.779999
0.091034 0.000000 0.779999
0.214783 0.000000 0.779999
0.356354 0.000000 0.779999
0.512939 0.000000 0.779999
0.670166 0.000000 0.779999
0.804077 0.000000 0.779999
0.919189 0.000000 0.779999
0.000000 0.156403 0.779999
0.091034 0.156403 0.779999
0.214783 0.156403 0.779999
0.356354 0.156403 0.779999
0.512939 0.156403 0.779999
0.670166 0.156403 0.779999
0.804077 0.156403 0.779999
0.919189 0.156403 0.779999
0.000000 0.308075 0.779999
0.091034 0.308075 0.779999
0.214783 0.308075 0.779999
0.356354 0.308075 0.779999
0.512939 0.308075 0.779999
0.670166 0.308075 0.779999
0.804077 0.308075 0.779999
0.919189 0.308075 0.779999
0.000000 0.460419 0.779999
0.091034 0.460419 0.779999
0.214783 0.460419 0.779999
0.356354 0.460419 0.779999
0.512939 0.460419 0.779999
0.670166 0.460419 0.779999
0.804077 0.460419 0.779999
0.919189 0.460419 0.779999
0.000000 0.610535 0.779999
0.091034 0.610535 0.779999
0.214783 0.610535 0.779999
0.356354 0.610535 0.779999
0.512939 0.610535 0.779999
0.670166 0.610535 0.779999
0.804077 0.610535 0.779999
0.919189 0.610535 0.779999
0.000000 0.738800 0.779999
0.091034 0.738800 0.779999
0.214783 0.738800 0.779999
0.356354 0.738800 0.779999
0.512939 0.738800 0.779999
0.670166 0.738800 0.779999
0.804077 0.738800 0.779999
0.919189 0.738800 0.779999
0.000000 0.844482 0.779999
0.091034 0.844482 0.779999
0.214783 0.844482 0.779999
0.356354 0.844482 0.779999
0.512939 0.844482 0.779999
0.670166 0.844482 0.779999
0.804077 0.844482 0.779999
0.919189 0.844482 0.779999
0.000000 0.935913 0.779999
0.091034 0.935913 0.779999
0.214783 0.935913 0.779999
0.356354 0.935913 0.779999
0.512939 0.935913 0.779999
0.670166 0.935913 0.779999
0.804077 0.935913 0.779999
0.919189 0.935913 0.779999
0.000000 0.000000 0.868835
0.091034 0.000000 0.868835
0.214783 0.000000 0.868835
0.356354 0.000000 0.868835
0.512939 0.000000 0.868835
0.670166 0.000000 0.868835
0.804077 0.000000 0.868835
0.919189 0.000000 0.868835
0.000000 0.156403 0.868835
0.091034 0.156403 0.868835
0.214783 0.156403 0.868835
0.356354 0.156403 0.868835
0.512939 0.156403 0.868835
0.670166 0.156403 0.868835
0.804077 0.156403 0.868835
0.919189 0.156403 0.868835
0.000000 0.308075 0.868835
0.091034 0.308075 0.868835
0.214783 0.308075 0.868835
0.356354 0.308075 0.868835
0.512939 0.308075 0.868835
0.670166 0.308075 0.868835
0.804077 0.308075 0.868835
0.919189 0.308075 0.868835
0.000000 0.460419 0.868835
0.091034 0.460419 0.868835
0.214783 0.460419 0.868835
0.356354 0.460419 0.868835
0.512939 0.460419 0.868835
0.670166 0.460419 0.868835
0.804077 0.460419 0.868835
0.919189 0.460419 0.868835
0.000000 0.610535 0.868835
0.091034 0.610535 0.868835
0.214783 0.610535 0.868835
0.356354 0.610535 0.868835
0.512939 0.610535 0.868835
0.670166 0.610535 0.868835
0.804077 0.610535 0.868835
0.919189 0.610535 0.868835
0.000000 0.738800 0.868835
0.091034 0.738800 0.868835
0.214783 0.738800 0.868835
0.356354 0.738800 0.868835
0.512939 0.738800 0.868835
0.670166 0.738800 0.868835
0.804077 0.738800 0.868835
0.919189 0.738800 0.868835
0.000000 0.844482 0.868835
0.091034 0.844482 0.868835
0.214783 0.844482 0.868835
0.356354 0.844482 0.868835
0.512939 0.844482 0.868835
0.670166 0.844482 0.868835
0.804077 0.844482 0.868835
0.919189 0.844482 0.868835
0.000000 0.935913 0.868835
0.091034 0.935913 0.868835
0.214783 0.935913 0.868835
0.356354 0.935913 0.868835
0.512939 0.935913 0.868835
0.670166 0.935913 0.868835
0.804077 0.935913 0.868835
0.919189 0.935913 0.868835
0.000000 0.000000 0.946075
0.091034 0.000000 0.946075
0.214783 0.000000 0.946075
0.356354 0.000000 0.946075
0.512939 0.000000 0.946075
0.670166 0.000000 0.946075
0.804077 0.000000 0.946075
0.919189 0.000000 0.946075
0.000000 0.156403 0.946075
0.091034 0.156403 0.946075
0.214783 0.156403 0.946075
0.356354 0.156403 0.946075
0.512939 0.156403 0.946075
0.670166 0.156403 0.946075
0.804077 0.156403 0.946075
0.919189 0.156403 0.946075
0.000000 0.308075 0.946075
0.091034 0.308075 0.946075
0.214783 0.308075 0.946075
0.356354 0.308075 0.946075
0.512939 0.308075 0.946075
0.670166 0.308075 0.946075
0.804077 0.308075 0.946075
0.919189 0.308075 0.946075
0.000000 0.460419 0.946075
0.091034 0.460419 0.946075
0.214783 0.460419 0.946075
0.356354 0.460419 0.946075
0.512939 0.460419 0.946075
0.670166 0.460419 0.946075
0.804077 0.460419 0.946075
0.919189 0.460419 0.946075
0.000000 0.610535 0.946075
0.091034 0.610535 0.946075
0.214783 0.610535 0.946075
0.356354 0.610535 0.946075
0.512939 0.610535 0.946075
0.670166 0.610535 0.946075
0.804077 0.610535 0.946075
0.919189 0.610535 0.946075
0.000000 0.738800 0.946075
0.091034 0.738800 0.946075
0.214783 0.738800 0.946075
0.356354 0.738800 0.946075
0.512939 0.738800 0.946075
0.670166 0.738800 0.946075
0.804077 0.738800 0.946075
0.919189 0.738800 0.946075
0.000000 0.844482 0.946075
0.091034 0.844482 0.946075
0.214783 0.844482 0.946075
0.356354 0.844482 0.946075
0.512939 0.844482 0.946075
0.670166 0.844482 0.946075
0.804077 0.844482 0.946075
0.919189 0.844482 0.946075
0.000000 0.935913 0.946075
0.091034 0.935913 0.946075
0.214783 0.935913 0.946075
0.356354 0.935913 0.946075
0.512939 0.935913 0.946075
0.670166 0.935913 0.946075
0.804077 0.935913 0.946075
0.919189 0.935913 0.946075
