nxshell/module/image-editor/libimagevisualresult/filter_cube/cold.CUBE
#Created by: Adobe Photoshop Export Color Lookup Plugin
TITLE "相机滤镜调试.psd"
#LUT size
LUT_3D_SIZE 5
#data domain
#LUT data points
DOMAIN_MIN 0.000000 0.000000 0.000000
DOMAIN_MAX 0.903226 0.903226 0.903226
0.000000 0.000000 0.000000
0.181976 0.000000 0.000000
0.432892 0.000000 0.000000
0.705902 0.000000 0.000000
0.919189 0.000000 0.000000
0.000000 0.270203 0.000000
0.181976 0.270203 0.000000
0.432892 0.270203 0.000000
0.705902 0.270203 0.000000
0.919189 0.270203 0.000000
0.000000 0.536896 0.000000
0.181976 0.536896 0.000000
0.432892 0.536896 0.000000
0.705902 0.536896 0.000000
0.919189 0.536896 0.000000
0.000000 0.766998 0.000000
0.181976 0.766998 0.000000
0.432892 0.766998 0.000000
0.705902 0.766998 0.000000
0.919189 0.766998 0.000000
0.000000 0.935913 0.000000
0.181976 0.935913 0.000000
0.432892 0.935913 0.000000
0.705902 0.935913 0.000000
0.919189 0.935913 0.000000
0.000000 0.000000 0.342834
0.181976 0.000000 0.342834
0.432892 0.000000 0.342834
0.705902 0.000000 0.342834
0.919189 0.000000 0.342834
0.000000 0.270203 0.342834
0.181976 0.270203 0.342834
0.432892 0.270203 0.342834
0.705902 0.270203 0.342834
0.919189 0.270203 0.342834
0.000000 0.536896 0.342834
0.181976 0.536896 0.342834
0.432892 0.536896 0.342834
0.705902 0.536896 0.342834
0.919189 0.536896 0.342834
0.000000 0.766998 0.342834
0.181976 0.766998 0.342834
0.432892 0.766998 0.342834
0.705902 0.766998 0.342834
0.919189 0.766998 0.342834
0.000000 0.935913 0.342834
0.181976 0.935913 0.342834
0.432892 0.935913 0.342834
0.705902 0.935913 0.342834
0.919189 0.935913 0.342834
0.000000 0.000000 0.608093
0.181976 0.000000 0.608093
0.432892 0.000000 0.608093
0.705902 0.000000 0.608093
0.919189 0.000000 0.608093
0.000000 0.270203 0.608093
0.181976 0.270203 0.608093
0.432892 0.270203 0.608093
0.705902 0.270203 0.608093
0.919189 0.270203 0.608093
0.000000 0.536896 0.608093
0.181976 0.536896 0.608093
0.432892 0.536896 0.608093
0.705902 0.536896 0.608093
0.919189 0.536896 0.608093
0.000000 0.766998 0.608093
0.181976 0.766998 0.608093
0.432892 0.766998 0.608093
0.705902 0.766998 0.608093
0.919189 0.766998 0.608093
0.000000 0.935913 0.608093
0.181976 0.935913 0.608093
0.432892 0.935913 0.608093
0.705902 0.935913 0.608093
0.919189 0.935913 0.608093
0.000000 0.000000 0.803680
0.181976 0.000000 0.803680
0.432892 0.000000 0.803680
0.705902 0.000000 0.803680
0.919189 0.000000 0.803680
0.000000 0.270203 0.803680
0.181976 0.270203 0.803680
0.432892 0.270203 0.803680
0.705902 0.270203 0.803680
0.919189 0.270203 0.803680
0.000000 0.536896 0.803680
0.181976 0.536896 0.803680
0.432892 0.536896 0.803680
0.705902 0.536896 0.803680
0.919189 0.536896 0.803680
0.000000 0.766998 0.803680
0.181976 0.766998 0.803680
0.432892 0.766998 0.803680
0.705902 0.766998 0.803680
0.919189 0.766998 0.803680
0.000000 0.935913 0.803680
0.181976 0.935913 0.803680
0.432892 0.935913 0.803680
0.705902 0.935913 0.803680
0.919189 0.935913 0.803680
0.000000 0.000000 0.946075
0.181976 0.000000 0.946075
0.432892 0.000000 0.946075
0.705902 0.000000 0.946075
0.919189 0.000000 0.946075
0.000000 0.270203 0.946075
0.181976 0.270203 0.946075
0.432892 0.270203 0.946075
0.705902 0.270203 0.946075
0.919189 0.270203 0.946075
0.000000 0.536896 0.946075
0.181976 0.536896 0.946075
0.432892 0.536896 0.946075
0.705902 0.536896 0.946075
0.919189 0.536896 0.946075
0.000000 0.766998 0.946075
0.181976 0.766998 0.946075
0.432892 0.766998 0.946075
0.705902 0.766998 0.946075
0.919189 0.766998 0.946075
0.000000 0.935913 0.946075
0.181976 0.935913 0.946075
0.432892 0.935913 0.946075
0.705902 0.935913 0.946075
0.919189 0.935913 0.946075
