nxshell/module/image-editor/libimagevisualresult/filter_cube/cold.CUBE
#Created by: Adobe Photoshop Export Color Lookup Plugin
TITLE "相机滤镜调试.psd"
#LUT size
LUT_3D_SIZE 32
#data domain
DOMAIN_MIN 0.0 0.0 0.0
DOMAIN_MAX 1.0 1.0 1.0
#LUT data points
0.000000 0.000000 0.000000
0.016449 0.000000 0.000000
0.038666 0.000000 0.000000
0.063782 0.000000 0.000000
0.091034 0.000000 0.000000
0.119965 0.000000 0.000000
0.150299 0.000000 0.000000
0.181976 0.000000 0.000000
0.214783 0.000000 0.000000
0.248718 0.000000 0.000000
0.283600 0.000000 0.000000
0.319519 0.000000 0.000000
0.356354 0.000000 0.000000
0.394165 0.000000 0.000000
0.432892 0.000000 0.000000
0.472504 0.000000 0.000000
0.512939 0.000000 0.000000
0.553497 0.000000 0.000000
0.593658 0.000000 0.000000
0.632751 0.000000 0.000000
0.670166 0.000000 0.000000
0.705902 0.000000 0.000000
0.740051 0.000000 0.000000
0.772736 0.000000 0.000000
0.804077 0.000000 0.000000
0.834229 0.000000 0.000000
0.863342 0.000000 0.000000
0.891602 0.000000 0.000000
0.919189 0.000000 0.000000
0.946320 0.000000 0.000000
0.973175 0.000000 0.000000
1.000000 0.000000 0.000000
0.000000 0.040649 0.000000
0.016449 0.040649 0.000000
0.038666 0.040649 0.000000
0.063782 0.040649 0.000000
0.091034 0.040649 0.000000
0.119965 0.040649 0.000000
0.150299 0.040649 0.000000
0.181976 0.040649 0.000000
0.214783 0.040649 0.000000
0.248718 0.040649 0.000000
0.283600 0.040649 0.000000
0.319519 0.040649 0.000000
0.356354 0.040649 0.000000
0.394165 0.040649 0.000000
0.432892 0.040649 0.000000
0.472504 0.040649 0.000000
0.512939 0.040649 0.000000
0.553497 0.040649 0.000000
0.593658 0.040649 0.000000
0.632751 0.040649 0.000000
0.670166 0.040649 0.000000
0.705902 0.040649 0.000000
0.740051 0.040649 0.000000
0.772736 0.040649 0.000000
0.804077 0.040649 0.000000
0.834229 0.040649 0.000000
0.863342 0.040649 0.000000
0.891602 0.040649 0.000000
0.919189 0.040649 0.000000
0.946320 0.040649 0.000000
0.973175 0.040649 0.000000
1.000000 0.040649 0.000000
0.000000 0.079681 0.000000
0.016449 0.079681 0.000000
0.038666 0.079681 0.000000
0.063782 0.079681 0.000000
0.091034 0.079681 0.000000
0.119965 0.079681 0.000000
0.150299 0.079681 0.000000
0.181976 0.079681 0.000000
0.214783 0.079681 0.000000
0.248718 0.079681 0.000000
0.283600 0.079681 0.000000
0.319519 0.079681 0.000000
0.356354 0.079681 0.000000
0.394165 0.079681 0.000000
0.432892 0.079681 0.000000
0.472504 0.079681 0.000000
0.512939 0.079681 0.000000
0.553497 0.079681 0.000000
0.593658 0.079681 0.000000
0.632751 0.079681 0.000000
0.670166 0.079681 0.000000
0.705902 0.079681 0.000000
0.740051 0.079681 0.000000
0.772736 0.079681 0.000000
0.804077 0.079681 0.000000
0.834229 0.079681 0.000000
0.863342 0.079681 0.000000
0.891602 0.079681 0.000000
0.919189 0.079681 0.000000
0.946320 0.079681 0.000000
0.973175 0.079681 0.000000
1.000000 0.079681 0.000000
0.000000 0.118195 0.000000
0.016449 0.118195 0.000000
0.038666 0.118195 0.000000
0.063782 0.118195 0.000000
0.091034 0.118195 0.000000
0.119965 0.118195 0.000000
0.150299 0.118195 0.000000
0.181976 0.118195 0.000000
0.214783 0.118195 0.000000
0.248718 0.118195 0.000000
0.283600 0.118195 0.000000
0.319519 0.118195 0.000000
0.356354 0.118195 0.000000
0.394165 0.118195 0.000000
0.432892 0.118195 0.000000
0.472504 0.118195 0.000000
0.512939 0.118195 0.000000
0.553497 0.118195 0.000000
0.593658 0.118195 0.000000
0.632751 0.118195 0.000000
0.670166 0.118195 0.000000
0.705902 0.118195 0.000000
0.740051 0.118195 0.000000
0.772736 0.118195 0.000000
0.804077 0.118195 0.000000
0.834229 0.118195 0.000000
0.863342 0.118195 0.000000
0.891602 0.118195 0.000000
0.919189 0.118195 0.000000
0.946320 0.118195 0.000000
0.973175 0.118195 0.000000
1.000000 0.118195 0.000000
0.000000 0.156403 0.000000
0.016449 0.156403 0.000000
0.038666 0.156403 0.000000
0.063782 0.156403 0.000000
0.091034 0.156403 0.000000
0.119965 0.156403 0.000000
0.150299 0.156403 0.000000
0.181976 0.156403 0.000000
0.214783 0.156403 0.000000
0.248718 0.156403 0.000000
0.283600 0.156403 0.000000
0.319519 0.156403 0.000000
0.356354 0.156403 0.000000
0.394165 0.156403 0.000000
0.432892 0.156403 0.000000
0.472504 0.156403 0.000000
0.512939 0.156403 0.000000
0.553497 0.156403 0.000000
0.593658 0.156403 0.000000
0.632751 0.156403 0.000000
0.670166 0.156403 0.000000
0.705902 0.156403 0.000000
0.740051 0.156403 0.000000
0.772736 0.156403 0.000000
0.804077 0.156403 0.000000
0.834229 0.156403 0.000000
0.863342 0.156403 0.000000
0.891602 0.156403 0.000000
0.919189 0.156403 0.000000
0.946320 0.156403 0.000000
0.973175 0.156403 0.000000
1.000000 0.156403 0.000000
0.000000 0.194427 0.000000
0.016449 0.194427 0.000000
0.038666 0.194427 0.000000
0.063782 0.194427 0.000000
0.091034 0.194427 0.000000
0.119965 0.194427 0.000000
0.150299 0.194427 0.000000
0.181976 0.194427 0.000000
0.214783 0.194427 0.000000
0.248718 0.194427 0.000000
0.283600 0.194427 0.000000
0.319519 0.194427 0.000000
0.356354 0.194427 0.000000
0.394165 0.194427 0.000000
0.432892 0.194427 0.000000
0.472504 0.194427 0.000000
0.512939 0.194427 0.000000
0.553497 0.194427 0.000000
0.593658 0.194427 0.000000
0.632751 0.194427 0.000000
0.670166 0.194427 0.000000
0.705902 0.194427 0.000000
0.740051 0.194427 0.000000
0.772736 0.194427 0.000000
0.804077 0.194427 0.000000
0.834229 0.194427 0.000000
0.863342 0.194427 0.000000
0.891602 0.194427 0.000000
0.919189 0.194427 0.000000
0.946320 0.194427 0.000000
0.973175 0.194427 0.000000
1.000000 0.194427 0.000000
0.000000 0.232361 0.000000
0.016449 0.232361 0.000000
0.038666 0.232361 0.000000
0.063782 0.232361 0.000000
0.091034 0.232361 0.000000
0.119965 0.232361 0.000000
0.150299 0.232361 0.000000
0.181976 0.232361 0.000000
0.214783 0.232361 0.000000
0.248718 0.232361 0.000000
0.283600 0.232361 0.000000
0.319519 0.232361 0.000000
0.356354 0.232361 0.000000
0.394165 0.232361 0.000000
0.432892 0.232361 0.000000
0.472504 0.232361 0.000000
0.512939 0.232361 0.000000
0.553497 0.232361 0.000000
0.593658 0.232361 0.000000
0.632751 0.232361 0.000000
0.670166 0.232361 0.000000
0.705902 0.232361 0.000000
0.740051 0.232361 0.000000
0.772736 0.232361 0.000000
0.804077 0.232361 0.000000
0.834229 0.232361 0.000000
0.863342 0.232361 0.000000
0.891602 0.232361 0.000000
0.919189 0.232361 0.000000
0.946320 0.232361 0.000000
0.973175 0.232361 0.000000
1.000000 0.232361 0.000000
0.000000 0.270203 0.000000
0.016449 0.270203 0.000000
0.038666 0.270203 0.000000
0.063782 0.270203 0.000000
0.091034 0.270203 0.000000
0.119965 0.270203 0.000000
0.150299 0.270203 0.000000
0.181976 0.270203 0.000000
0.214783 0.270203 0.000000
0.248718 0.270203 0.000000
0.283600 0.270203 0.000000
0.319519 0.270203 0.000000
0.356354 0.270203 0.000000
0.394165 0.270203 0.000000
0.432892 0.270203 0.000000
0.472504 0.270203 0.000000
0.512939 0.270203 0.000000
0.553497 0.270203 0.000000
0.593658 0.270203 0.000000
0.632751 0.270203 0.000000
0.670166 0.270203 0.000000
0.705902 0.270203 0.000000
0.740051 0.270203 0.000000
0.772736 0.270203 0.000000
0.804077 0.270203 0.000000
0.834229 0.270203 0.000000
0.863342 0.270203 0.000000
0.891602 0.270203 0.000000
0.919189 0.270203 0.000000
0.946320 0.270203 0.000000
0.973175 0.270203 0.000000
1.000000 0.270203 0.000000
0.000000 0.308075 0.000000
0.016449 0.308075 0.000000
0.038666 0.308075 0.000000
0.063782 0.308075 0.000000
0.091034 0.308075 0.000000
0.119965 0.308075 0.000000
0.150299 0.308075 0.000000
0.181976 0.308075 0.000000
0.214783 0.308075 0.000000
0.248718 0.308075 0.000000
0.283600 0.308075 0.000000
0.319519 0.308075 0.000000
0.356354 0.308075 0.000000
0.394165 0.308075 0.000000
0.432892 0.308075 0.000000
0.472504 0.308075 0.000000
0.512939 0.308075 0.000000
0.553497 0.308075 0.000000
0.593658 0.308075 0.000000
0.632751 0.308075 0.000000
0.670166 0.308075 0.000000
0.705902 0.308075 0.000000
0.740051 0.308075 0.000000
0.772736 0.308075 0.000000
0.804077 0.308075 0.000000
0.834229 0.308075 0.000000
0.863342 0.308075 0.000000
0.891602 0.308075 0.000000
0.919189 0.308075 0.000000
0.946320 0.308075 0.000000
0.973175 0.308075 0.000000
1.000000 0.308075 0.000000
0.000000 0.346008 0.000000
0.016449 0.346008 0.000000
0.038666 0.346008 0.000000
0.063782 0.346008 0.000000
0.091034 0.346008 0.000000
0.119965 0.346008 0.000000
0.150299 0.346008 0.000000
0.181976 0.346008 0.000000
0.214783 0.346008 0.000000
0.248718 0.346008 0.000000
0.283600 0.346008 0.000000
0.319519 0.346008 0.000000
0.356354 0.346008 0.000000
0.394165 0.346008 0.000000
0.432892 0.346008 0.000000
0.472504 0.346008 0.000000
0.512939 0.346008 0.000000
0.553497 0.346008 0.000000
0.593658 0.346008 0.000000
0.632751 0.346008 0.000000
0.670166 0.346008 0.000000
0.705902 0.346008 0.000000
0.740051 0.346008 0.000000
0.772736 0.346008 0.000000
0.804077 0.346008 0.000000
0.834229 0.346008 0.000000
0.863342 0.346008 0.000000
0.891602 0.346008 0.000000
0.919189 0.346008 0.000000
0.946320 0.346008 0.000000
0.973175 0.346008 0.000000
1.000000 0.346008 0.000000
0.000000 0.384003 0.000000
0.016449 0.384003 0.000000
0.038666 0.384003 0.000000
0.063782 0.384003 0.000000
0.091034 0.384003 0.000000
0.119965 0.384003 0.000000
0.150299 0.384003 0.000000
0.181976 0.384003 0.000000
0.214783 0.384003 0.000000
0.248718 0.384003 0.000000
0.283600 0.384003 0.000000
0.319519 0.384003 0.000000
0.356354 0.384003 0.000000
0.394165 0.384003 0.000000
0.432892 0.384003 0.000000
0.472504 0.384003 0.000000
0.512939 0.384003 0.000000
0.553497 0.384003 0.000000
0.593658 0.384003 0.000000
0.632751 0.384003 0.000000
0.670166 0.384003 0.000000
0.705902 0.384003 0.000000
0.740051 0.384003 0.000000
0.772736 0.384003 0.000000
0.804077 0.384003 0.000000
0.834229 0.384003 0.000000
0.863342 0.384003 0.000000
0.891602 0.384003 0.000000
0.919189 0.384003 0.000000
0.946320 0.384003 0.000000
0.973175 0.384003 0.000000
1.000000 0.384003 0.000000
0.000000 0.422119 0.000000
0.016449 0.422119 0.000000
0.038666 0.422119 0.000000
0.063782 0.422119 0.000000
0.091034 0.422119 0.000000
0.119965 0.422119 0.000000
0.150299 0.422119 0.000000
0.181976 0.422119 0.000000
0.214783 0.422119 0.000000
0.248718 0.422119 0.000000
0.283600 0.422119 0.000000
0.319519 0.422119 0.000000
0.356354 0.422119 0.000000
0.394165 0.422119 0.000000
0.432892 0.422119 0.000000
0.472504 0.422119 0.000000
0.512939 0.422119 0.000000
0.553497 0.422119 0.000000
0.593658 0.422119 0.000000
0.632751 0.422119 0.000000
0.670166 0.422119 0.000000
0.705902 0.422119 0.000000
0.740051 0.422119 0.000000
0.772736 0.422119 0.000000
0.804077 0.422119 0.000000
0.834229 0.422119 0.000000
0.863342 0.422119 0.000000
0.891602 0.422119 0.000000
0.919189 0.422119 0.000000
0.946320 0.422119 0.000000
0.973175 0.422119 0.000000
1.000000 0.422119 0.000000
0.000000 0.460419 0.000000
0.016449 0.460419 0.000000
0.038666 0.460419 0.000000
0.063782 0.460419 0.000000
0.091034 0.460419 0.000000
0.119965 0.460419 0.000000
0.150299 0.460419 0.000000
0.181976 0.460419 0.000000
0.214783 0.460419 0.000000
0.248718 0.460419 0.000000
0.283600 0.460419 0.000000
0.319519 0.460419 0.000000
0.356354 0.460419 0.000000
0.394165 0.460419 0.000000
0.432892 0.460419 0.000000
0.472504 0.460419 0.000000
0.512939 0.460419 0.000000
0.553497 0.460419 0.000000
0.593658 0.460419 0.000000
0.632751 0.460419 0.000000
0.670166 0.460419 0.000000
0.705902 0.460419 0.000000
0.740051 0.460419 0.000000
0.772736 0.460419 0.000000
0.804077 0.460419 0.000000
0.834229 0.460419 0.000000
0.863342 0.460419 0.000000
0.891602 0.460419 0.000000
0.919189 0.460419 0.000000
0.946320 0.460419 0.000000
0.973175 0.460419 0.000000
1.000000 0.460419 0.000000
0.000000 0.498749 0.000000
0.016449 0.498749 0.000000
0.038666 0.498749 0.000000
0.063782 0.498749 0.000000
0.091034 0.498749 0.000000
0.119965 0.498749 0.000000
0.150299 0.498749 0.000000
0.181976 0.498749 0.000000
0.214783 0.498749 0.000000
0.248718 0.498749 0.000000
0.283600 0.498749 0.000000
0.319519 0.498749 0.000000
0.356354 0.498749 0.000000
0.394165 0.498749 0.000000
0.432892 0.498749 0.000000
0.472504 0.498749 0.000000
0.512939 0.498749 0.000000
0.553497 0.498749 0.000000
0.593658 0.498749 0.000000
0.632751 0.498749 0.000000
0.670166 0.498749 0.000000
0.705902 0.498749 0.000000
0.740051 0.498749 0.000000
0.772736 0.498749 0.000000
0.804077 0.498749 0.000000
0.834229 0.498749 0.000000
0.863342 0.498749 0.000000
0.891602 0.498749 0.000000
0.919189 0.498749 0.000000
0.946320 0.498749 0.000000
0.973175 0.498749 0.000000
1.000000 0.498749 0.000000
0.000000 0.536896 0.000000
0.016449 0.536896 0.000000
0.038666 0.536896 0.000000
0.063782 0.536896 0.000000
0.091034 0.536896 0.000000
0.119965 0.536896 0.000000
0.150299 0.536896 0.000000
0.181976 0.536896 0.000000
0.214783 0.536896 0.000000
0.248718 0.536896 0.000000
0.283600 0.536896 0.000000
0.319519 0.536896 0.000000
0.356354 0.536896 0.000000
0.394165 0.536896 0.000000
0.432892 0.536896 0.000000
0.472504 0.536896 0.000000
0.512939 0.536896 0.000000
0.553497 0.536896 0.000000
0.593658 0.536896 0.000000
0.632751 0.536896 0.000000
0.670166 0.536896 0.000000
0.705902 0.536896 0.000000
0.740051 0.536896 0.000000
0.772736 0.536896 0.000000
0.804077 0.536896 0.000000
0.834229 0.536896 0.000000
0.863342 0.536896 0.000000
0.891602 0.536896 0.000000
0.919189 0.536896 0.000000
0.946320 0.536896 0.000000
0.973175 0.536896 0.000000
1.000000 0.536896 0.000000
0.000000 0.574280 0.000000
0.016449 0.574280 0.000000
0.038666 0.574280 0.000000
0.063782 0.574280 0.000000
0.091034 0.574280 0.000000
0.119965 0.574280 0.000000
0.150299 0.574280 0.000000
0.181976 0.574280 0.000000
0.214783 0.574280 0.000000
0.248718 0.574280 0.000000
0.283600 0.574280 0.000000
0.319519 0.574280 0.000000
0.356354 0.574280 0.000000
0.394165 0.574280 0.000000
0.432892 0.574280 0.000000
0.472504 0.574280 0.000000
0.512939 0.574280 0.000000
0.553497 0.574280 0.000000
0.593658 0.574280 0.000000
0.632751 0.574280 0.000000
0.670166 0.574280 0.000000
0.705902 0.574280 0.000000
0.740051 0.574280 0.000000
0.772736 0.574280 0.000000
0.804077 0.574280 0.000000
0.834229 0.574280 0.000000
0.863342 0.574280 0.000000
0.891602 0.574280 0.000000
0.919189 0.574280 0.000000
0.946320 0.574280 0.000000
0.973175 0.574280 0.000000
1.000000 0.574280 0.000000
0.000000 0.610535 0.000000
0.016449 0.610535 0.000000
0.038666 0.610535 0.000000
0.063782 0.610535 0.000000
0.091034 0.610535 0.000000
0.119965 0.610535 0.000000
0.150299 0.610535 0.000000
0.181976 0.610535 0.000000
0.214783 0.610535 0.000000
0.248718 0.610535 0.000000
0.283600 0.610535 0.000000
0.319519 0.610535 0.000000
0.356354 0.610535 0.000000
0.394165 0.610535 0.000000
0.432892 0.610535 0.000000
0.472504 0.610535 0.000000
0.512939 0.610535 0.000000
0.553497 0.610535 0.000000
0.593658 0.610535 0.000000
0.632751 0.610535 0.000000
0.670166 0.610535 0.000000
0.705902 0.610535 0.000000
0.740051 0.610535 0.000000
0.772736 0.610535 0.000000
0.804077 0.610535 0.000000
0.834229 0.610535 0.000000
0.863342 0.610535 0.000000
0.891602 0.610535 0.000000
0.919189 0.610535 0.000000
0.946320 0.610535 0.000000
0.973175 0.610535 0.000000
1.000000 0.610535 0.000000
0.000000 0.645172 0.000000
0.016449 0.645172 0.000000
0.038666 0.645172 0.000000
0.063782 0.645172 0.000000
0.091034 0.645172 0.000000
0.119965 0.645172 0.000000
0.150299 0.645172 0.000000
0.181976 0.645172 0.000000
0.214783 0.645172 0.000000
0.248718 0.645172 0.000000
0.283600 0.645172 0.000000
0.319519 0.645172 0.000000
0.356354 0.645172 0.000000
0.394165 0.645172 0.000000
0.432892 0.645172 0.000000
0.472504 0.645172 0.000000
0.512939 0.645172 0.000000
0.553497 0.645172 0.000000
0.593658 0.645172 0.000000
0.632751 0.645172 0.000000
0.670166 0.645172 0.000000
0.705902 0.645172 0.000000
0.740051 0.645172 0.000000
0.772736 0.645172 0.000000
0.804077 0.645172 0.000000
0.834229 0.645172 0.000000
0.863342 0.645172 0.000000
0.891602 0.645172 0.000000
0.919189 0.645172 0.000000
0.946320 0.645172 0.000000
0.973175 0.645172 0.000000
1.000000 0.645172 0.000000
0.000000 0.678040 0.000000
0.016449 0.678040 0.000000
0.038666 0.678040 0.000000
0.063782 0.678040 0.000000
0.091034 0.678040 0.000000
0.119965 0.678040 0.000000
0.150299 0.678040 0.000000
0.181976 0.678040 0.000000
0.214783 0.678040 0.000000
0.248718 0.678040 0.000000
0.283600 0.678040 0.000000
0.319519 0.678040 0.000000
0.356354 0.678040 0.000000
0.394165 0.678040 0.000000
0.432892 0.678040 0.000000
0.472504 0.678040 0.000000
0.512939 0.678040 0.000000
0.553497 0.678040 0.000000
0.593658 0.678040 0.000000
0.632751 0.678040 0.000000
0.670166 0.678040 0.000000
0.705902 0.678040 0.000000
0.740051 0.678040 0.000000
0.772736 0.678040 0.000000
0.804077 0.678040 0.000000
0.834229 0.678040 0.000000
0.863342 0.678040 0.000000
0.891602 0.678040 0.000000
0.919189 0.678040 0.000000
0.946320 0.678040 0.000000
0.973175 0.678040 0.000000
1.000000 0.678040 0.000000
0.000000 0.709167 0.000000
0.016449 0.709167 0.000000
0.038666 0.709167 0.000000
0.063782 0.709167 0.000000
0.091034 0.709167 0.000000
0.119965 0.709167 0.000000
0.150299 0.709167 0.000000
0.181976 0.709167 0.000000
0.214783 0.709167 0.000000
0.248718 0.709167 0.000000
0.283600 0.709167 0.000000
0.319519 0.709167 0.000000
0.356354 0.709167 0.000000
0.394165 0.709167 0.000000
0.432892 0.709167 0.000000
0.472504 0.709167 0.000000
0.512939 0.709167 0.000000
0.553497 0.709167 0.000000
0.593658 0.709167 0.000000
0.632751 0.709167 0.000000
0.670166 0.709167 0.000000
0.705902 0.709167 0.000000
0.740051 0.709167 0.000000
0.772736 0.709167 0.000000
0.804077 0.709167 0.000000
0.834229 0.709167 0.000000
0.863342 0.709167 0.000000
0.891602 0.709167 0.000000
0.919189 0.709167 0.000000
0.946320 0.709167 0.000000
0.973175 0.709167 0.000000
1.000000 0.709167 0.000000
0.000000 0.738800 0.000000
0.016449 0.738800 0.000000
0.038666 0.738800 0.000000
0.063782 0.738800 0.000000
0.091034 0.738800 0.000000
0.119965 0.738800 0.000000
0.150299 0.738800 0.000000
0.181976 0.738800 0.000000
0.214783 0.738800 0.000000
0.248718 0.738800 0.000000
0.283600 0.738800 0.000000
0.319519 0.738800 0.000000
0.356354 0.738800 0.000000
0.394165 0.738800 0.000000
0.432892 0.738800 0.000000
0.472504 0.738800 0.000000
0.512939 0.738800 0.000000
0.553497 0.738800 0.000000
0.593658 0.738800 0.000000
0.632751 0.738800 0.000000
0.670166 0.738800 0.000000
0.705902 0.738800 0.000000
0.740051 0.738800 0.000000
0.772736 0.738800 0.000000
0.804077 0.738800 0.000000
0.834229 0.738800 0.000000
0.863342 0.738800 0.000000
0.891602 0.738800 0.000000
0.919189 0.738800 0.000000
0.946320 0.738800 0.000000
0.973175 0.738800 0.000000
1.000000 0.738800 0.000000
0.000000 0.766998 0.000000
0.016449 0.766998 0.000000
0.038666 0.766998 0.000000
0.063782 0.766998 0.000000
0.091034 0.766998 0.000000
0.119965 0.766998 0.000000
0.150299 0.766998 0.000000
0.181976 0.766998 0.000000
0.214783 0.766998 0.000000
0.248718 0.766998 0.000000
0.283600 0.766998 0.000000
0.319519 0.766998 0.000000
0.356354 0.766998 0.000000
0.394165 0.766998 0.000000
0.432892 0.766998 0.000000
0.472504 0.766998 0.000000
0.512939 0.766998 0.000000
0.553497 0.766998 0.000000
0.593658 0.766998 0.000000
0.632751 0.766998 0.000000
0.670166 0.766998 0.000000
0.705902 0.766998 0.000000
0.740051 0.766998 0.000000
0.772736 0.766998 0.000000
0.804077 0.766998 0.000000
0.834229 0.766998 0.000000
0.863342 0.766998 0.000000
0.891602 0.766998 0.000000
0.919189 0.766998 0.000000
0.946320 0.766998 0.000000
0.973175 0.766998 0.000000
1.000000 0.766998 0.000000
0.000000 0.793915 0.000000
0.016449 0.793915 0.000000
0.038666 0.793915 0.000000
0.063782 0.793915 0.000000
0.091034 0.793915 0.000000
0.119965 0.793915 0.000000
0.150299 0.793915 0.000000
0.181976 0.793915 0.000000
0.214783 0.793915 0.000000
0.248718 0.793915 0.000000
0.283600 0.793915 0.000000
0.319519 0.793915 0.000000
0.356354 0.793915 0.000000
0.394165 0.793915 0.000000
0.432892 0.793915 0.000000
0.472504 0.793915 0.000000
0.512939 0.793915 0.000000
0.553497 0.793915 0.000000
0.593658 0.793915 0.000000
0.632751 0.793915 0.000000
0.670166 0.793915 0.000000
0.705902 0.793915 0.000000
0.740051 0.793915 0.000000
0.772736 0.793915 0.000000
0.804077 0.793915 0.000000
0.834229 0.793915 0.000000
0.863342 0.793915 0.000000
0.891602 0.793915 0.000000
0.919189 0.793915 0.000000
0.946320 0.793915 0.000000
0.973175 0.793915 0.000000
1.000000 0.793915 0.000000
0.000000 0.819702 0.000000
0.016449 0.819702 0.000000
0.038666 0.819702 0.000000
0.063782 0.819702 0.000000
0.091034 0.819702 0.000000
0.119965 0.819702 0.000000
0.150299 0.819702 0.000000
0.181976 0.819702 0.000000
0.214783 0.819702 0.000000
0.248718 0.819702 0.000000
0.283600 0.819702 0.000000
0.319519 0.819702 0.000000
0.356354 0.819702 0.000000
0.394165 0.819702 0.000000
0.432892 0.819702 0.000000
0.472504 0.819702 0.000000
0.512939 0.819702 0.000000
0.553497 0.819702 0.000000
0.593658 0.819702 0.000000
0.632751 0.819702 0.000000
0.670166 0.819702 0.000000
0.705902 0.819702 0.000000
0.740051 0.819702 0.000000
0.772736 0.819702 0.000000
0.804077 0.819702 0.000000
0.834229 0.819702 0.000000
0.863342 0.819702 0.000000
0.891602 0.819702 0.000000
0.919189 0.819702 0.000000
0.946320 0.819702 0.000000
0.973175 0.819702 0.000000
1.000000 0.819702 0.000000
0.000000 0.844482 0.000000
0.016449 0.844482 0.000000
0.038666 0.844482 0.000000
0.063782 0.844482 0.000000
0.091034 0.844482 0.000000
0.119965 0.844482 0.000000
0.150299 0.844482 0.000000
0.181976 0.844482 0.000000
0.214783 0.844482 0.000000
0.248718 0.844482 0.000000
0.283600 0.844482 0.000000
0.319519 0.844482 0.000000
0.356354 0.844482 0.000000
0.394165 0.844482 0.000000
0.432892 0.844482 0.000000
0.472504 0.844482 0.000000
0.512939 0.844482 0.000000
0.553497 0.844482 0.000000
0.593658 0.844482 0.000000
0.632751 0.844482 0.000000
0.670166 0.844482 0.000000
0.705902 0.844482 0.000000
0.740051 0.844482 0.000000
0.772736 0.844482 0.000000
0.804077 0.844482 0.000000
0.834229 0.844482 0.000000
0.863342 0.844482 0.000000
0.891602 0.844482 0.000000
0.919189 0.844482 0.000000
0.946320 0.844482 0.000000
0.973175 0.844482 0.000000
1.000000 0.844482 0.000000
0.000000 0.868347 0.000000
0.016449 0.868347 0.000000
0.038666 0.868347 0.000000
0.063782 0.868347 0.000000
0.091034 0.868347 0.000000
0.119965 0.868347 0.000000
0.150299 0.868347 0.000000
0.181976 0.868347 0.000000
0.214783 0.868347 0.000000
0.248718 0.868347 0.000000
0.283600 0.868347 0.000000
0.319519 0.868347 0.000000
0.356354 0.868347 0.000000
0.394165 0.868347 0.000000
0.432892 0.868347 0.000000
0.472504 0.868347 0.000000
0.512939 0.868347 0.000000
0.553497 0.868347 0.000000
0.593658 0.868347 0.000000
0.632751 0.868347 0.000000
0.670166 0.868347 0.000000
0.705902 0.868347 0.000000
0.740051 0.868347 0.000000
0.772736 0.868347 0.000000
0.804077 0.868347 0.000000
0.834229 0.868347 0.000000
0.863342 0.868347 0.000000
0.891602 0.868347 0.000000
0.919189 0.868347 0.000000
0.946320 0.868347 0.000000
0.973175 0.868347 0.000000
1.000000 0.868347 0.000000
0.000000 0.891479 0.000000
0.016449 0.891479 0.000000
0.038666 0.891479 0.000000
0.063782 0.891479 0.000000
0.091034 0.891479 0.000000
0.119965 0.891479 0.000000
0.150299 0.891479 0.000000
0.181976 0.891479 0.000000
0.214783 0.891479 0.000000
0.248718 0.891479 0.000000
0.283600 0.891479 0.000000
0.319519 0.891479 0.000000
0.356354 0.891479 0.000000
0.394165 0.891479 0.000000
0.432892 0.891479 0.000000
0.472504 0.891479 0.000000
0.512939 0.891479 0.000000
0.553497 0.891479 0.000000
0.593658 0.891479 0.000000
0.632751 0.891479 0.000000
0.670166 0.891479 0.000000
0.705902 0.891479 0.000000
0.740051 0.891479 0.000000
0.772736 0.891479 0.000000
0.804077 0.891479 0.000000
0.834229 0.891479 0.000000
0.863342 0.891479 0.000000
0.891602 0.891479 0.000000
0.919189 0.891479 0.000000
0.946320 0.891479 0.000000
0.973175 0.891479 0.000000
1.000000 0.891479 0.000000
0.000000 0.913940 0.000000
0.016449 0.913940 0.000000
0.038666 0.913940 0.000000
0.063782 0.913940 0.000000
0.091034 0.913940 0.000000
0.119965 0.913940 0.000000
0.150299 0.913940 0.000000
0.181976 0.913940 0.000000
0.214783 0.913940 0.000000
0.248718 0.913940 0.000000
0.283600 0.913940 0.000000
0.319519 0.913940 0.000000
0.356354 0.913940 0.000000
0.394165 0.913940 0.000000
0.432892 0.913940 0.000000
0.472504 0.913940 0.000000
0.512939 0.913940 0.000000
0.553497 0.913940 0.000000
