nxshell/module/image-editor/libimagevisualresult/filter_cube/print.CUBE
#Created by: Adobe Photoshop Export Color Lookup Plugin
TITLE "相机滤镜调试.psd"
#LUT size
LUT_3D_SIZE 5
#data domain
#LUT data points
DOMAIN_MIN 0.000000 0.000000 0.000000
DOMAIN_MAX 0.903226 0.903226 0.903226
0.000000 0.000000 0.000000
0.000000 0.000000 0.000000
0.246857 0.000000 0.000000
0.574371 0.000000 0.000000
0.921143 0.000000 0.000000
0.000000 0.353333 0.000000
0.000000 0.353333 0.000000
0.246857 0.353333 0.000000
0.574371 0.353333 0.000000
0.921143 0.353333 0.000000
0.000000 0.622711 0.000000
0.000000 0.622711 0.000000
0.246857 0.622711 0.000000
0.574371 0.622711 0.000000
0.921143 0.622711 0.000000
0.000000 0.830231 0.000000
0.000000 0.830231 0.000000
0.246857 0.830231 0.000000
0.574371 0.830231 0.000000
0.921143 0.830231 0.000000
0.000000 1.000000 0.000000
0.000000 1.000000 0.000000
0.246857 1.000000 0.000000
0.574371 1.000000 0.000000
0.921143 1.000000 0.000000
0.000000 0.000000 0.214630
0.000000 0.000000 0.214630
0.246857 0.000000 0.214630
0.574371 0.000000 0.214630
0.921143 0.000000 0.214630
0.000000 0.353333 0.214630
0.000000 0.353333 0.214630
0.246857 0.353333 0.214630
0.574371 0.353333 0.214630
0.921143 0.353333 0.214630
0.000000 0.622711 0.214630
0.000000 0.622711 0.214630
0.246857 0.622711 0.214630
0.574371 0.622711 0.214630
0.921143 0.622711 0.214630
0.000000 0.830231 0.214630
0.000000 0.830231 0.214630
0.246857 0.830231 0.214630
0.574371 0.830231 0.214630
0.921143 0.830231 0.214630
0.000000 1.000000 0.214630
0.000000 1.000000 0.214630
0.246857 1.000000 0.214630
0.574371 1.000000 0.214630
0.921143 1.000000 0.214630
0.000000 0.000000 0.513275
0.000000 0.000000 0.513275
0.246857 0.000000 0.513275
0.574371 0.000000 0.513275
0.921143 0.000000 0.513275
0.000000 0.353333 0.513275
0.000000 0.353333 0.513275
0.246857 0.353333 0.513275
0.574371 0.353333 0.513275
0.921143 0.353333 0.513275
0.000000 0.622711 0.513275
0.000000 0.622711 0.513275
0.246857 0.622711 0.513275
0.574371 0.622711 0.513275
0.921143 0.622711 0.513275
0.000000 0.830231 0.513275
0.000000 0.830231 0.513275
0.246857 0.830231 0.513275
0.574371 0.830231 0.513275
0.921143 0.830231 0.513275
0.000000 1.000000 0.513275
0.000000 1.000000 0.513275
0.246857 1.000000 0.513275
0.574371 1.000000 0.513275
0.921143 1.000000 0.513275
0.000000 0.000000 0.761963
0.000000 0.000000 0.761963
0.246857 0.000000 0.761963
0.574371 0.000000 0.761963
0.921143 0.000000 0.761963
0.000000 0.353333 0.761963
0.000000 0.353333 0.761963
0.246857 0.353333 0.761963
0.574371 0.353333 0.761963
0.921143 0.353333 0.761963
0.000000 0.622711 0.761963
0.000000 0.622711 0.761963
0.246857 0.622711 0.761963
0.574371 0.622711 0.761963
0.921143 0.622711 0.761963
0.000000 0.830231 0.761963
0.000000 0.830231 0.761963
0.246857 0.830231 0.761963
0.574371 0.830231 0.761963
0.921143 0.830231 0.761963
0.000000 1.000000 0.761963
0.000000 1.000000 0.761963
0.246857 1.000000 0.761963
0.574371 1.000000 0.761963
0.921143 1.000000 0.761963
0.000000 0.000000 0.985382
0.000000 0.000000 0.985382
0.246857 0.000000 0.985382
0.574371 0.000000 0.985382
0.921143 0.000000 0.985382
0.000000 0.353333 0.985382
0.000000 0.353333 0.985382
0.246857 0.353333 0.985382
0.574371 0.353333 0.985382
0.921143 0.353333 0.985382
0.000000 0.622711 0.985382
0.000000 0.622711 0.985382
0.246857 0.622711 0.985382
0.574371 0.622711 0.985382
0.921143 0.622711 0.985382
0.000000 0.830231 0.985382
0.000000 0.830231 0.985382
0.246857 0.830231 0.985382
0.574371 0.830231 0.985382
0.921143 0.830231 0.985382
0.000000 1.000000 0.985382
0.000000 1.000000 0.985382
0.246857 1.000000 0.985382
0.574371 1.000000 0.985382
0.921143 1.000000 0.985382
