nxshell/module/image-editor/libimagevisualresult/filter_cube/print.CUBE
#Created by: Adobe Photoshop Export Color Lookup Plugin
TITLE "相机滤镜调试.psd"
#LUT size
LUT_3D_SIZE 32
#data domain
DOMAIN_MIN 0.0 0.0 0.0
DOMAIN_MAX 1.0 1.0 1.0
#LUT data points
0.000000 0.000000 0.000000
0.000000 0.000000 0.000000
0.000000 0.000000 0.000000
0.000000 0.000000 0.000000
0.000000 0.000000 0.000000
0.000000 0.000000 0.000000
0.000000 0.000000 0.000000
0.000000 0.000000 0.000000
0.000000 0.000000 0.000000
0.002167 0.000000 0.000000
0.059906 0.000000 0.000000
0.108459 0.000000 0.000000
0.155243 0.000000 0.000000
0.201172 0.000000 0.000000
0.246857 0.000000 0.000000
0.292755 0.000000 0.000000
0.338989 0.000000 0.000000
0.385254 0.000000 0.000000
0.431976 0.000000 0.000000
0.479004 0.000000 0.000000
0.526520 0.000000 0.000000
0.574371 0.000000 0.000000
0.622711 0.000000 0.000000
0.671448 0.000000 0.000000
0.720459 0.000000 0.000000
0.770081 0.000000 0.000000
0.820038 0.000000 0.000000
0.870331 0.000000 0.000000
0.921143 0.000000 0.000000
0.972321 0.000000 0.000000
1.000000 0.000000 0.000000
1.000000 0.000000 0.000000
0.000000 0.000000 0.000000
0.000000 0.000000 0.000000
0.000000 0.000000 0.000000
0.000000 0.000000 0.000000
0.000000 0.000000 0.000000
0.000000 0.000000 0.000000
0.000000 0.000000 0.000000
0.000000 0.000000 0.000000
0.000000 0.000000 0.000000
0.002167 0.000000 0.000000
0.059906 0.000000 0.000000
0.108459 0.000000 0.000000
0.155243 0.000000 0.000000
0.201172 0.000000 0.000000
0.246857 0.000000 0.000000
0.292755 0.000000 0.000000
0.338989 0.000000 0.000000
0.385254 0.000000 0.000000
0.431976 0.000000 0.000000
0.479004 0.000000 0.000000
0.526520 0.000000 0.000000
0.574371 0.000000 0.000000
0.622711 0.000000 0.000000
0.671448 0.000000 0.000000
0.720459 0.000000 0.000000
0.770081 0.000000 0.000000
0.820038 0.000000 0.000000
0.870331 0.000000 0.000000
0.921143 0.000000 0.000000
0.972321 0.000000 0.000000
1.000000 0.000000 0.000000
1.000000 0.000000 0.000000
0.000000 0.022339 0.000000
0.000000 0.022339 0.000000
0.000000 0.022339 0.000000
0.000000 0.022339 0.000000
0.000000 0.022339 0.000000
0.000000 0.022339 0.000000
0.000000 0.022339 0.000000
0.000000 0.022339 0.000000
0.000000 0.022339 0.000000
0.002167 0.022339 0.000000
0.059906 0.022339 0.000000
0.108459 0.022339 0.000000
0.155243 0.022339 0.000000
0.201172 0.022339 0.000000
0.246857 0.022339 0.000000
0.292755 0.022339 0.000000
0.338989 0.022339 0.000000
0.385254 0.022339 0.000000
0.431976 0.022339 0.000000
0.479004 0.022339 0.000000
0.526520 0.022339 0.000000
0.574371 0.022339 0.000000
0.622711 0.022339 0.000000
0.671448 0.022339 0.000000
0.720459 0.022339 0.000000
0.770081 0.022339 0.000000
0.820038 0.022339 0.000000
0.870331 0.022339 0.000000
0.921143 0.022339 0.000000
0.972321 0.022339 0.000000
1.000000 0.022339 0.000000
1.000000 0.022339 0.000000
0.000000 0.123535 0.000000
0.000000 0.123535 0.000000
0.000000 0.123535 0.000000
0.000000 0.123535 0.000000
0.000000 0.123535 0.000000
0.000000 0.123535 0.000000
0.000000 0.123535 0.000000
0.000000 0.123535 0.000000
0.000000 0.123535 0.000000
0.002167 0.123535 0.000000
0.059906 0.123535 0.000000
0.108459 0.123535 0.000000
0.155243 0.123535 0.000000
0.201172 0.123535 0.000000
0.246857 0.123535 0.000000
0.292755 0.123535 0.000000
0.338989 0.123535 0.000000
0.385254 0.123535 0.000000
0.431976 0.123535 0.000000
0.479004 0.123535 0.000000
0.526520 0.123535 0.000000
0.574371 0.123535 0.000000
0.622711 0.123535 0.000000
0.671448 0.123535 0.000000
0.720459 0.123535 0.000000
0.770081 0.123535 0.000000
0.820038 0.123535 0.000000
0.870331 0.123535 0.000000
0.921143 0.123535 0.000000
0.972321 0.123535 0.000000
1.000000 0.123535 0.000000
1.000000 0.123535 0.000000
0.000000 0.192688 0.000000
0.000000 0.192688 0.000000
0.000000 0.192688 0.000000
0.000000 0.192688 0.000000
0.000000 0.192688 0.000000
0.000000 0.192688 0.000000
0.000000 0.192688 0.000000
0.000000 0.192688 0.000000
0.000000 0.192688 0.000000
0.002167 0.192688 0.000000
0.059906 0.192688 0.000000
0.108459 0.192688 0.000000
0.155243 0.192688 0.000000
0.201172 0.192688 0.000000
0.246857 0.192688 0.000000
0.292755 0.192688 0.000000
0.338989 0.192688 0.000000
0.385254 0.192688 0.000000
0.431976 0.192688 0.000000
0.479004 0.192688 0.000000
0.526520 0.192688 0.000000
0.574371 0.192688 0.000000
0.622711 0.192688 0.000000
0.671448 0.192688 0.000000
0.720459 0.192688 0.000000
0.770081 0.192688 0.000000
0.820038 0.192688 0.000000
0.870331 0.192688 0.000000
0.921143 0.192688 0.000000
0.972321 0.192688 0.000000
1.000000 0.192688 0.000000
1.000000 0.192688 0.000000
0.000000 0.251862 0.000000
0.000000 0.251862 0.000000
0.000000 0.251862 0.000000
0.000000 0.251862 0.000000
0.000000 0.251862 0.000000
0.000000 0.251862 0.000000
0.000000 0.251862 0.000000
0.000000 0.251862 0.000000
0.000000 0.251862 0.000000
0.002167 0.251862 0.000000
0.059906 0.251862 0.000000
0.108459 0.251862 0.000000
0.155243 0.251862 0.000000
0.201172 0.251862 0.000000
0.246857 0.251862 0.000000
0.292755 0.251862 0.000000
0.338989 0.251862 0.000000
0.385254 0.251862 0.000000
0.431976 0.251862 0.000000
0.479004 0.251862 0.000000
0.526520 0.251862 0.000000
0.574371 0.251862 0.000000
0.622711 0.251862 0.000000
0.671448 0.251862 0.000000
0.720459 0.251862 0.000000
0.770081 0.251862 0.000000
0.820038 0.251862 0.000000
0.870331 0.251862 0.000000
0.921143 0.251862 0.000000
0.972321 0.251862 0.000000
1.000000 0.251862 0.000000
1.000000 0.251862 0.000000
0.000000 0.305084 0.000000
0.000000 0.305084 0.000000
0.000000 0.305084 0.000000
0.000000 0.305084 0.000000
0.000000 0.305084 0.000000
0.000000 0.305084 0.000000
0.000000 0.305084 0.000000
0.000000 0.305084 0.000000
0.000000 0.305084 0.000000
0.002167 0.305084 0.000000
0.059906 0.305084 0.000000
0.108459 0.305084 0.000000
0.155243 0.305084 0.000000
0.201172 0.305084 0.000000
0.246857 0.305084 0.000000
0.292755 0.305084 0.000000
0.338989 0.305084 0.000000
0.385254 0.305084 0.000000
0.431976 0.305084 0.000000
0.479004 0.305084 0.000000
0.526520 0.305084 0.000000
0.574371 0.305084 0.000000
0.622711 0.305084 0.000000
0.671448 0.305084 0.000000
0.720459 0.305084 0.000000
0.770081 0.305084 0.000000
0.820038 0.305084 0.000000
0.870331 0.305084 0.000000
0.921143 0.305084 0.000000
0.972321 0.305084 0.000000
1.000000 0.305084 0.000000
1.000000 0.305084 0.000000
0.000000 0.353333 0.000000
0.000000 0.353333 0.000000
0.000000 0.353333 0.000000
0.000000 0.353333 0.000000
0.000000 0.353333 0.000000
0.000000 0.353333 0.000000
0.000000 0.353333 0.000000
0.000000 0.353333 0.000000
0.000000 0.353333 0.000000
0.002167 0.353333 0.000000
0.059906 0.353333 0.000000
0.108459 0.353333 0.000000
0.155243 0.353333 0.000000
0.201172 0.353333 0.000000
0.246857 0.353333 0.000000
0.292755 0.353333 0.000000
0.338989 0.353333 0.000000
0.385254 0.353333 0.000000
0.431976 0.353333 0.000000
0.479004 0.353333 0.000000
0.526520 0.353333 0.000000
0.574371 0.353333 0.000000
0.622711 0.353333 0.000000
0.671448 0.353333 0.000000
0.720459 0.353333 0.000000
0.770081 0.353333 0.000000
0.820038 0.353333 0.000000
0.870331 0.353333 0.000000
0.921143 0.353333 0.000000
0.972321 0.353333 0.000000
1.000000 0.353333 0.000000
1.000000 0.353333 0.000000
0.000000 0.398346 0.000000
0.000000 0.398346 0.000000
0.000000 0.398346 0.000000
0.000000 0.398346 0.000000
0.000000 0.398346 0.000000
0.000000 0.398346 0.000000
0.000000 0.398346 0.000000
0.000000 0.398346 0.000000
0.000000 0.398346 0.000000
0.002167 0.398346 0.000000
0.059906 0.398346 0.000000
0.108459 0.398346 0.000000
0.155243 0.398346 0.000000
0.201172 0.398346 0.000000
0.246857 0.398346 0.000000
0.292755 0.398346 0.000000
0.338989 0.398346 0.000000
0.385254 0.398346 0.000000
0.431976 0.398346 0.000000
0.479004 0.398346 0.000000
0.526520 0.398346 0.000000
0.574371 0.398346 0.000000
0.622711 0.398346 0.000000
0.671448 0.398346 0.000000
0.720459 0.398346 0.000000
0.770081 0.398346 0.000000
0.820038 0.398346 0.000000
0.870331 0.398346 0.000000
0.921143 0.398346 0.000000
0.972321 0.398346 0.000000
1.000000 0.398346 0.000000
1.000000 0.398346 0.000000
0.000000 0.440521 0.000000
0.000000 0.440521 0.000000
0.000000 0.440521 0.000000
0.000000 0.440521 0.000000
0.000000 0.440521 0.000000
0.000000 0.440521 0.000000
0.000000 0.440521 0.000000
0.000000 0.440521 0.000000
0.000000 0.440521 0.000000
0.002167 0.440521 0.000000
0.059906 0.440521 0.000000
0.108459 0.440521 0.000000
0.155243 0.440521 0.000000
0.201172 0.440521 0.000000
0.246857 0.440521 0.000000
0.292755 0.440521 0.000000
0.338989 0.440521 0.000000
0.385254 0.440521 0.000000
0.431976 0.440521 0.000000
0.479004 0.440521 0.000000
0.526520 0.440521 0.000000
0.574371 0.440521 0.000000
0.622711 0.440521 0.000000
0.671448 0.440521 0.000000
0.720459 0.440521 0.000000
0.770081 0.440521 0.000000
0.820038 0.440521 0.000000
0.870331 0.440521 0.000000
0.921143 0.440521 0.000000
0.972321 0.440521 0.000000
1.000000 0.440521 0.000000
1.000000 0.440521 0.000000
0.000000 0.480316 0.000000
0.000000 0.480316 0.000000
0.000000 0.480316 0.000000
0.000000 0.480316 0.000000
0.000000 0.480316 0.000000
0.000000 0.480316 0.000000
0.000000 0.480316 0.000000
0.000000 0.480316 0.000000
0.000000 0.480316 0.000000
0.002167 0.480316 0.000000
0.059906 0.480316 0.000000
0.108459 0.480316 0.000000
0.155243 0.480316 0.000000
0.201172 0.480316 0.000000
0.246857 0.480316 0.000000
0.292755 0.480316 0.000000
0.338989 0.480316 0.000000
0.385254 0.480316 0.000000
0.431976 0.480316 0.000000
0.479004 0.480316 0.000000
0.526520 0.480316 0.000000
0.574371 0.480316 0.000000
0.622711 0.480316 0.000000
0.671448 0.480316 0.000000
0.720459 0.480316 0.000000
0.770081 0.480316 0.000000
0.820038 0.480316 0.000000
0.870331 0.480316 0.000000
0.921143 0.480316 0.000000
0.972321 0.480316 0.000000
1.000000 0.480316 0.000000
1.000000 0.480316 0.000000
0.000000 0.518311 0.000000
0.000000 0.518311 0.000000
0.000000 0.518311 0.000000
0.000000 0.518311 0.000000
0.000000 0.518311 0.000000
0.000000 0.518311 0.000000
0.000000 0.518311 0.000000
0.000000 0.518311 0.000000
0.000000 0.518311 0.000000
0.002167 0.518311 0.000000
0.059906 0.518311 0.000000
0.108459 0.518311 0.000000
0.155243 0.518311 0.000000
0.201172 0.518311 0.000000
0.246857 0.518311 0.000000
0.292755 0.518311 0.000000
0.338989 0.518311 0.000000
0.385254 0.518311 0.000000
0.431976 0.518311 0.000000
0.479004 0.518311 0.000000
0.526520 0.518311 0.000000
0.574371 0.518311 0.000000
0.622711 0.518311 0.000000
0.671448 0.518311 0.000000
0.720459 0.518311 0.000000
0.770081 0.518311 0.000000
0.820038 0.518311 0.000000
0.870331 0.518311 0.000000
0.921143 0.518311 0.000000
0.972321 0.518311 0.000000
1.000000 0.518311 0.000000
1.000000 0.518311 0.000000
0.000000 0.554504 0.000000
0.000000 0.554504 0.000000
0.000000 0.554504 0.000000
0.000000 0.554504 0.000000
0.000000 0.554504 0.000000
0.000000 0.554504 0.000000
0.000000 0.554504 0.000000
0.000000 0.554504 0.000000
0.000000 0.554504 0.000000
0.002167 0.554504 0.000000
0.059906 0.554504 0.000000
0.108459 0.554504 0.000000
0.155243 0.554504 0.000000
0.201172 0.554504 0.000000
0.246857 0.554504 0.000000
0.292755 0.554504 0.000000
0.338989 0.554504 0.000000
0.385254 0.554504 0.000000
0.431976 0.554504 0.000000
0.479004 0.554504 0.000000
0.526520 0.554504 0.000000
0.574371 0.554504 0.000000
0.622711 0.554504 0.000000
0.671448 0.554504 0.000000
0.720459 0.554504 0.000000
0.770081 0.554504 0.000000
0.820038 0.554504 0.000000
0.870331 0.554504 0.000000
0.921143 0.554504 0.000000
0.972321 0.554504 0.000000
1.000000 0.554504 0.000000
1.000000 0.554504 0.000000
0.000000 0.589294 0.000000
0.000000 0.589294 0.000000
0.000000 0.589294 0.000000
0.000000 0.589294 0.000000
0.000000 0.589294 0.000000
0.000000 0.589294 0.000000
0.000000 0.589294 0.000000
0.000000 0.589294 0.000000
0.000000 0.589294 0.000000
0.002167 0.589294 0.000000
0.059906 0.589294 0.000000
0.108459 0.589294 0.000000
0.155243 0.589294 0.000000
0.201172 0.589294 0.000000
0.246857 0.589294 0.000000
0.292755 0.589294 0.000000
0.338989 0.589294 0.000000
0.385254 0.589294 0.000000
0.431976 0.589294 0.000000
0.479004 0.589294 0.000000
0.526520 0.589294 0.000000
0.574371 0.589294 0.000000
0.622711 0.589294 0.000000
0.671448 0.589294 0.000000
0.720459 0.589294 0.000000
0.770081 0.589294 0.000000
0.820038 0.589294 0.000000
0.870331 0.589294 0.000000
0.921143 0.589294 0.000000
0.972321 0.589294 0.000000
1.000000 0.589294 0.000000
1.000000 0.589294 0.000000
0.000000 0.622711 0.000000
0.000000 0.622711 0.000000
0.000000 0.622711 0.000000
0.000000 0.622711 0.000000
0.000000 0.622711 0.000000
0.000000 0.622711 0.000000
0.000000 0.622711 0.000000
0.000000 0.622711 0.000000
0.000000 0.622711 0.000000
0.002167 0.622711 0.000000
0.059906 0.622711 0.000000
0.108459 0.622711 0.000000
0.155243 0.622711 0.000000
0.201172 0.622711 0.000000
0.246857 0.622711 0.000000
0.292755 0.622711 0.000000
0.338989 0.622711 0.000000
0.385254 0.622711 0.000000
0.431976 0.622711 0.000000
0.479004 0.622711 0.000000
0.526520 0.622711 0.000000
0.574371 0.622711 0.000000
0.622711 0.622711 0.000000
0.671448 0.622711 0.000000
0.720459 0.622711 0.000000
0.770081 0.622711 0.000000
0.820038 0.622711 0.000000
0.870331 0.622711 0.000000
0.921143 0.622711 0.000000
0.972321 0.622711 0.000000
1.000000 0.622711 0.000000
1.000000 0.622711 0.000000
0.000000 0.654968 0.000000
0.000000 0.654968 0.000000
0.000000 0.654968 0.000000
0.000000 0.654968 0.000000
0.000000 0.654968 0.000000
0.000000 0.654968 0.000000
0.000000 0.654968 0.000000
0.000000 0.654968 0.000000
0.000000 0.654968 0.000000
0.002167 0.654968 0.000000
0.059906 0.654968 0.000000
0.108459 0.654968 0.000000
0.155243 0.654968 0.000000
0.201172 0.654968 0.000000
0.246857 0.654968 0.000000
0.292755 0.654968 0.000000
0.338989 0.654968 0.000000
0.385254 0.654968 0.000000
0.431976 0.654968 0.000000
0.479004 0.654968 0.000000
0.526520 0.654968 0.000000
0.574371 0.654968 0.000000
0.622711 0.654968 0.000000
0.671448 0.654968 0.000000
0.720459 0.654968 0.000000
0.770081 0.654968 0.000000
0.820038 0.654968 0.000000
0.870331 0.654968 0.000000
0.921143 0.654968 0.000000
0.972321 0.654968 0.000000
1.000000 0.654968 0.000000
1.000000 0.654968 0.000000
0.000000 0.686310 0.000000
0.000000 0.686310 0.000000
0.000000 0.686310 0.000000
0.000000 0.686310 0.000000
0.000000 0.686310 0.000000
0.000000 0.686310 0.000000
0.000000 0.686310 0.000000
0.000000 0.686310 0.000000
0.000000 0.686310 0.000000
0.002167 0.686310 0.000000
0.059906 0.686310 0.000000
0.108459 0.686310 0.000000
0.155243 0.686310 0.000000
0.201172 0.686310 0.000000
0.246857 0.686310 0.000000
0.292755 0.686310 0.000000
0.338989 0.686310 0.000000
0.385254 0.686310 0.000000
0.431976 0.686310 0.000000
0.479004 0.686310 0.000000
0.526520 0.686310 0.000000
0.574371 0.686310 0.000000
0.622711 0.686310 0.000000
0.671448 0.686310 0.000000
0.720459 0.686310 0.000000
0.770081 0.686310 0.000000
0.820038 0.686310 0.000000
0.870331 0.686310 0.000000
0.921143 0.686310 0.000000
0.972321 0.686310 0.000000
1.000000 0.686310 0.000000
1.000000 0.686310 0.000000
0.000000 0.716797 0.000000
0.000000 0.716797 0.000000
0.000000 0.716797 0.000000
0.000000 0.716797 0.000000
0.000000 0.716797 0.000000
0.000000 0.716797 0.000000
0.000000 0.716797 0.000000
0.000000 0.716797 0.000000
0.000000 0.716797 0.000000
0.002167 0.716797 0.000000
0.059906 0.716797 0.000000
0.108459 0.716797 0.000000
0.155243 0.716797 0.000000
0.201172 0.716797 0.000000
0.246857 0.716797 0.000000
0.292755 0.716797 0.000000
0.338989 0.716797 0.000000
0.385254 0.716797 0.000000
0.431976 0.716797 0.000000
0.479004 0.716797 0.000000
0.526520 0.716797 0.000000
0.574371 0.716797 0.000000
0.622711 0.716797 0.000000
0.671448 0.716797 0.000000
0.720459 0.716797 0.000000
0.770081 0.716797 0.000000
0.820038 0.716797 0.000000
0.870331 0.716797 0.000000
0.921143 0.716797 0.000000
0.972321 0.716797 0.000000
1.000000 0.716797 0.000000
1.000000 0.716797 0.000000
0.000000 0.746216 0.000000
0.000000 0.746216 0.000000
0.000000 0.746216 0.000000
0.000000 0.746216 0.000000
0.000000 0.746216 0.000000
0.000000 0.746216 0.000000
0.000000 0.746216 0.000000
0.000000 0.746216 0.000000
0.000000 0.746216 0.000000
0.002167 0.746216 0.000000
0.059906 0.746216 0.000000
0.108459 0.746216 0.000000
0.155243 0.746216 0.000000
0.201172 0.746216 0.000000
0.246857 0.746216 0.000000
0.292755 0.746216 0.000000
0.338989 0.746216 0.000000
0.385254 0.746216 0.000000
0.431976 0.746216 0.000000
0.479004 0.746216 0.000000
0.526520 0.746216 0.000000
0.574371 0.746216 0.000000
0.622711 0.746216 0.000000
0.671448 0.746216 0.000000
0.720459 0.746216 0.000000
0.770081 0.746216 0.000000
0.820038 0.746216 0.000000
0.870331 0.746216 0.000000
0.921143 0.746216 0.000000
0.972321 0.746216 0.000000
1.000000 0.746216 0.000000
1.000000 0.746216 0.000000
0.000000 0.774933 0.000000
0.000000 0.774933 0.000000
0.000000 0.774933 0.000000
0.000000 0.774933 0.000000
0.000000 0.774933 0.000000
0.000000 0.774933 0.000000
0.000000 0.774933 0.000000
0.000000 0.774933 0.000000
0.000000 0.774933 0.000000
0.002167 0.774933 0.000000
0.059906 0.774933 0.000000
0.108459 0.774933 0.000000
0.155243 0.774933 0.000000
0.201172 0.774933 0.000000
0.246857 0.774933 0.000000
0.292755 0.774933 0.000000
0.338989 0.774933 0.000000
0.385254 0.774933 0.000000
0.431976 0.774933 0.000000
0.479004 0.774933 0.000000
0.526520 0.774933 0.000000
0.574371 0.774933 0.000000
0.622711 0.774933 0.000000
0.671448 0.774933 0.000000
0.720459 0.774933 0.000000
0.770081 0.774933 0.000000
0.820038 0.774933 0.000000
0.870331 0.774933 0.000000
0.921143 0.774933 0.000000
0.972321 0.774933 0.000000
1.000000 0.774933 0.000000
1.000000 0.774933 0.000000
0.000000 0.802979 0.000000
0.000000 0.802979 0.000000
0.000000 0.802979 0.000000
0.000000 0.802979 0.000000
0.000000 0.802979 0.000000
0.000000 0.802979 0.000000
0.000000 0.802979 0.000000
0.000000 0.802979 0.000000
0.000000 0.802979 0.000000
0.002167 0.802979 0.000000
0.059906 0.802979 0.000000
0.108459 0.802979 0.000000
0.155243 0.802979 0.000000
0.201172 0.802979 0.000000
0.246857 0.802979 0.000000
0.292755 0.802979 0.000000
0.338989 0.802979 0.000000
0.385254 0.802979 0.000000
0.431976 0.802979 0.000000
0.479004 0.802979 0.000000
0.526520 0.802979 0.000000
0.574371 0.802979 0.000000
0.622711 0.802979 0.000000
0.671448 0.802979 0.000000
0.720459 0.802979 0.000000
0.770081 0.802979 0.000000
0.820038 0.802979 0.000000
0.870331 0.802979 0.000000
0.921143 0.802979 0.000000
0.972321 0.802979 0.000000
1.000000 0.802979 0.000000
1.000000 0.802979 0.000000
0.000000 0.830231 0.000000
0.000000 0.830231 0.000000
0.000000 0.830231 0.000000
0.000000 0.830231 0.000000
0.000000 0.830231 0.000000
0.000000 0.830231 0.000000
0.000000 0.830231 0.000000
0.000000 0.830231 0.000000
0.000000 0.830231 0.000000
0.002167 0.830231 0.000000
0.059906 0.830231 0.000000
0.108459 0.830231 0.000000
0.155243 0.830231 0.000000
0.201172 0.830231 0.000000
0.246857 0.830231 0.000000
0.292755 0.830231 0.000000
0.338989 0.830231 0.000000
0.385254 0.830231 0.000000
0.431976 0.830231 0.000000
0.479004 0.830231 0.000000
0.526520 0.830231 0.000000
0.574371 0.830231 0.000000
0.622711 0.830231 0.000000
0.671448 0.830231 0.000000
0.720459 0.830231 0.000000
0.770081 0.830231 0.000000
0.820038 0.830231 0.000000
0.870331 0.830231 0.000000
0.921143 0.830231 0.000000
0.972321 0.830231 0.000000
1.000000 0.830231 0.000000
1.000000 0.830231 0.000000
0.000000 0.857025 0.000000
0.000000 0.857025 0.000000
0.000000 0.857025 0.000000
0.000000 0.857025 0.000000
0.000000 0.857025 0.000000
0.000000 0.857025 0.000000
0.000000 0.857025 0.000000
0.000000 0.857025 0.000000
0.000000 0.857025 0.000000
0.002167 0.857025 0.000000
0.059906 0.857025 0.000000
0.108459 0.857025 0.000000
0.155243 0.857025 0.000000
0.201172 0.857025 0.000000
0.246857 0.857025 0.000000
0.292755 0.857025 0.000000
0.338989 0.857025 0.000000
0.385254 0.857025 0.000000
0.431976 0.857025 0.000000
0.479004 0.857025 0.000000
0.526520 0.857025 0.000000
0.574371 0.857025 0.000000
0.622711 0.857025 0.000000
0.671448 0.857025 0.000000
0.720459 0.857025 0.000000
0.770081 0.857025 0.000000
0.820038 0.857025 0.000000
0.870331 0.857025 0.000000
0.921143 0.857025 0.000000
0.972321 0.857025 0.000000
1.000000 0.857025 0.000000
1.000000 0.857025 0.000000
0.000000 0.883148 0.000000
0.000000 0.883148 0.000000
0.000000 0.883148 0.000000
0.000000 0.883148 0.000000
0.000000 0.883148 0.000000
0.000000 0.883148 0.000000
0.000000 0.883148 0.000000
0.000000 0.883148 0.000000
0.000000 0.883148 0.000000
0.002167 0.883148 0.000000
0.059906 0.883148 0.000000
0.108459 0.883148 0.000000
0.155243 0.883148 0.000000
0.201172 0.883148 0.000000
0.246857 0.883148 0.000000
0.292755 0.883148 0.000000
0.338989 0.883148 0.000000
0.385254 0.883148 0.000000
0.431976 0.883148 0.000000
0.479004 0.883148 0.000000
0.526520 0.883148 0.000000
0.574371 0.883148 0.000000
0.622711 0.883148 0.000000
0.671448 0.883148 0.000000
0.720459 0.883148 0.000000
0.770081 0.883148 0.000000
0.820038 0.883148 0.000000
0.870331 0.883148 0.000000
0.921143 0.883148 0.000000
0.972321 0.883148 0.000000
1.000000 0.883148 0.000000
1.000000 0.883148 0.000000
0.000000 0.908966 0.000000
0.000000 0.908966 0.000000
0.000000 0.908966 0.000000
0.000000 0.908966 0.000000
0.000000 0.908966 0.000000
0.000000 0.908966 0.000000
0.000000 0.908966 0.000000
0.000000 0.908966 0.000000
0.000000 0.908966 0.000000
0.002167 0.908966 0.000000
0.059906 0.908966 0.000000
0.108459 0.908966 0.000000
0.155243 0.908966 0.000000
0.201172 0.908966 0.000000
0.246857 0.908966 0.000000
0.292755 0.908966 0.000000
0.338989 0.908966 0.000000
0.385254 0.908966 0.000000
0.431976 0.908966 0.000000
0.479004 0.908966 0.000000
0.526520 0.908966 0.000000
0.574371 0.908966 0.000000
0.622711 0.908966 0.000000
0.671448 0.908966 0.000000
0.720459 0.908966 0.000000
0.770081 0.908966 0.000000
0.820038 0.908966 0.000000
0.870331 0.908966 0.000000
0.921143 0.908966 0.000000
0.972321 0.908966 0.000000
1.000000 0.908966 0.000000
1.000000 0.908966 0.000000
0.000000 0.934082 0.000000
0.000000 0.934082 0.000000
0.000000 0.934082 0.000000
0.000000 0.934082 0.000000
0.000000 0.934082 0.000000
0.000000 0.934082 0.000000
0.000000 0.934082 0.000000
0.000000 0.934082 0.000000
0.000000 0.934082 0.000000
0.002167 0.934082 0.000000
0.059906 0.934082 0.000000
0.108459 0.934082 0.000000
0.155243 0.934082 0.000000
0.201172 0.934082 0.000000
0.246857 0.934082 0.000000
0.292755 0.934082 0.000000
0.338989 0.934082 0.000000
0.385254 0.934082 0.000000
0.431976 0.934082 0.000000
0.479004 0.934082 0.000000
0.526520 0.934082 0.000000
0.574371 0.934082 0.000000
0.622711 0.934082 0.000000
0.671448 0.934082 0.000000
0.720459 0.934082 0.000000
0.770081 0.934082 0.000000
0.820038 0.934082 0.000000
0.870331 0.934082 0.000000
0.921143 0.934082 0.000000
0.972321 0.934082 0.000000
1.000000 0.934082 0.000000
1.000000 0.934082 0.000000
0.000000 0.958618 0.000000
0.000000 0.958618 0.000000
0.000000 0.958618 0.000000
0.000000 0.958618 0.000000
0.000000 0.958618 0.000000
0.000000 0.958618 0.000000
0.000000 0.958618 0.000000
0.000000 0.958618 0.000000
0.000000 0.958618 0.000000
0.002167 0.958618 0.000000
0.059906 0.958618 0.000000
0.108459 0.958618 0.000000
0.155243 0.958618 0.000000
0.201172 0.958618 0.000000
0.246857 0.958618 0.000000
0.292755 0.958618 0.000000
0.338989 0.958618 0.000000
0.385254 0.958618 0.000000
0.431976 0.958618 0.000000
0.479004 0.958618 0.000000
0.526520 0.958618 0.000000
0.574371 0.958618 0.000000
0.622711 0.958618 0.000000
0.671448 0.958618 0.000000
0.720459 0.958618 0.000000
0.770081 0.958618 0.000000
0.820038 0.958618 0.000000
0.870331 0.958618 0.000000
0.921143 0.958618 0.000000
0.972321 0.958618 0.000000
1.000000 0.958618 0.000000
1.000000 0.958618 0.000000
0.000000 0.982880 0.000000
0.000000 0.982880 0.000000
0.000000 0.982880 0.000000
0.000000 0.982880 0.000000
0.000000 0.982880 0.000000
0.000000 0.982880 0.000000
0.000000 0.982880 0.000000
0.000000 0.982880 0.000000
0.000000 0.982880 0.000000
0.002167 0.982880 0.000000
0.059906 0.982880 0.000000
0.108459 0.982880 0.000000
0.155243 0.982880 0.000000
0.201172 0.982880 0.000000
0.246857 0.982880 0.000000
0.292755 0.982880 0.000000
0.338989 0.982880 0.000000
0.385254 0.982880 0.000000
