nxshell/module/image-editor/libimagevisualresult/filter_cube/print.CUBE
#Created by: Adobe Photoshop Export Color Lookup Plugin
TITLE "相机滤镜调试.psd"
#LUT size
LUT_3D_SIZE 8
#data domain
#LUT data points
DOMAIN_MIN 0.000000 0.000000 0.000000
DOMAIN_MAX 0.903226 0.903226 0.903226
0.000000 0.000000 0.000000
0.000000 0.000000 0.000000
0.000000 0.000000 0.000000
0.155243 0.000000 0.000000
0.338989 0.000000 0.000000
0.526520 0.000000 0.000000
0.720459 0.000000 0.000000
0.921143 0.000000 0.000000
0.000000 0.192688 0.000000
0.000000 0.192688 0.000000
0.000000 0.192688 0.000000
0.155243 0.192688 0.000000
0.338989 0.192688 0.000000
0.526520 0.192688 0.000000
0.720459 0.192688 0.000000
0.921143 0.192688 0.000000
0.000000 0.398346 0.000000
0.000000 0.398346 0.000000
0.000000 0.398346 0.000000
0.155243 0.398346 0.000000
0.338989 0.398346 0.000000
0.526520 0.398346 0.000000
0.720459 0.398346 0.000000
0.921143 0.398346 0.000000
0.000000 0.554504 0.000000
0.000000 0.554504 0.000000
0.000000 0.554504 0.000000
0.155243 0.554504 0.000000
0.338989 0.554504 0.000000
0.526520 0.554504 0.000000
0.720459 0.554504 0.000000
0.921143 0.554504 0.000000
0.000000 0.686310 0.000000
0.000000 0.686310 0.000000
0.000000 0.686310 0.000000
0.155243 0.686310 0.000000
0.338989 0.686310 0.000000
0.526520 0.686310 0.000000
0.720459 0.686310 0.000000
0.921143 0.686310 0.000000
0.000000 0.802979 0.000000
0.000000 0.802979 0.000000
0.000000 0.802979 0.000000
0.155243 0.802979 0.000000
0.338989 0.802979 0.000000
0.526520 0.802979 0.000000
0.720459 0.802979 0.000000
0.921143 0.802979 0.000000
0.000000 0.908966 0.000000
0.000000 0.908966 0.000000
0.000000 0.908966 0.000000
0.155243 0.908966 0.000000
0.338989 0.908966 0.000000
0.526520 0.908966 0.000000
0.720459 0.908966 0.000000
0.921143 0.908966 0.000000
0.000000 1.000000 0.000000
0.000000 1.000000 0.000000
0.000000 1.000000 0.000000
0.155243 1.000000 0.000000
0.338989 1.000000 0.000000
0.526520 1.000000 0.000000
0.720459 1.000000 0.000000
0.921143 1.000000 0.000000
0.000000 0.000000 0.043060
0.000000 0.000000 0.043060
0.000000 0.000000 0.043060
0.155243 0.000000 0.043060
0.338989 0.000000 0.043060
0.526520 0.000000 0.043060
0.720459 0.000000 0.043060
0.921143 0.000000 0.043060
0.000000 0.192688 0.043060
0.000000 0.192688 0.043060
0.000000 0.192688 0.043060
0.155243 0.192688 0.043060
0.338989 0.192688 0.043060
0.526520 0.192688 0.043060
0.720459 0.192688 0.043060
0.921143 0.192688 0.043060
0.000000 0.398346 0.043060
0.000000 0.398346 0.043060
0.000000 0.398346 0.043060
0.155243 0.398346 0.043060
0.338989 0.398346 0.043060
0.526520 0.398346 0.043060
0.720459 0.398346 0.043060
0.921143 0.398346 0.043060
0.000000 0.554504 0.043060
0.000000 0.554504 0.043060
0.000000 0.554504 0.043060
0.155243 0.554504 0.043060
0.338989 0.554504 0.043060
0.526520 0.554504 0.043060
0.720459 0.554504 0.043060
0.921143 0.554504 0.043060
0.000000 0.686310 0.043060
0.000000 0.686310 0.043060
0.000000 0.686310 0.043060
0.155243 0.686310 0.043060
0.338989 0.686310 0.043060
0.526520 0.686310 0.043060
0.720459 0.686310 0.043060
0.921143 0.686310 0.043060
0.000000 0.802979 0.043060
0.000000 0.802979 0.043060
0.000000 0.802979 0.043060
0.155243 0.802979 0.043060
0.338989 0.802979 0.043060
0.526520 0.802979 0.043060
0.720459 0.802979 0.043060
0.921143 0.802979 0.043060
0.000000 0.908966 0.043060
0.000000 0.908966 0.043060
0.000000 0.908966 0.043060
0.155243 0.908966 0.043060
0.338989 0.908966 0.043060
0.526520 0.908966 0.043060
0.720459 0.908966 0.043060
0.921143 0.908966 0.043060
0.000000 1.000000 0.043060
0.000000 1.000000 0.043060
0.000000 1.000000 0.043060
0.155243 1.000000 0.043060
0.338989 1.000000 0.043060
0.526520 1.000000 0.043060
0.720459 1.000000 0.043060
0.921143 1.000000 0.043060
0.000000 0.000000 0.262573
0.000000 0.000000 0.262573
0.000000 0.000000 0.262573
0.155243 0.000000 0.262573
0.338989 0.000000 0.262573
0.526520 0.000000 0.262573
0.720459 0.000000 0.262573
0.921143 0.000000 0.262573
0.000000 0.192688 0.262573
0.000000 0.192688 0.262573
0.000000 0.192688 0.262573
0.155243 0.192688 0.262573
0.338989 0.192688 0.262573
0.526520 0.192688 0.262573
0.720459 0.192688 0.262573
0.921143 0.192688 0.262573
0.000000 0.398346 0.262573
0.000000 0.398346 0.262573
0.000000 0.398346 0.262573
0.155243 0.398346 0.262573
0.338989 0.398346 0.262573
0.526520 0.398346 0.262573
0.720459 0.398346 0.262573
0.921143 0.398346 0.262573
0.000000 0.554504 0.262573
0.000000 0.554504 0.262573
0.000000 0.554504 0.262573
0.155243 0.554504 0.262573
0.338989 0.554504 0.262573
0.526520 0.554504 0.262573
0.720459 0.554504 0.262573
0.921143 0.554504 0.262573
0.000000 0.686310 0.262573
0.000000 0.686310 0.262573
0.000000 0.686310 0.262573
0.155243 0.686310 0.262573
0.338989 0.686310 0.262573
0.526520 0.686310 0.262573
0.720459 0.686310 0.262573
0.921143 0.686310 0.262573
0.000000 0.802979 0.262573
0.000000 0.802979 0.262573
0.000000 0.802979 0.262573
0.155243 0.802979 0.262573
0.338989 0.802979 0.262573
0.526520 0.802979 0.262573
0.720459 0.802979 0.262573
0.921143 0.802979 0.262573
0.000000 0.908966 0.262573
0.000000 0.908966 0.262573
0.000000 0.908966 0.262573
0.155243 0.908966 0.262573
0.338989 0.908966 0.262573
0.526520 0.908966 0.262573
0.720459 0.908966 0.262573
0.921143 0.908966 0.262573
0.000000 1.000000 0.262573
0.000000 1.000000 0.262573
0.000000 1.000000 0.262573
0.155243 1.000000 0.262573
0.338989 1.000000 0.262573
0.526520 1.000000 0.262573
0.720459 1.000000 0.262573
0.921143 1.000000 0.262573
0.000000 0.000000 0.435028
0.000000 0.000000 0.435028
0.000000 0.000000 0.435028
0.155243 0.000000 0.435028
0.338989 0.000000 0.435028
0.526520 0.000000 0.435028
0.720459 0.000000 0.435028
0.921143 0.000000 0.435028
0.000000 0.192688 0.435028
0.000000 0.192688 0.435028
0.000000 0.192688 0.435028
0.155243 0.192688 0.435028
0.338989 0.192688 0.435028
0.526520 0.192688 0.435028
0.720459 0.192688 0.435028
0.921143 0.192688 0.435028
0.000000 0.398346 0.435028
0.000000 0.398346 0.435028
0.000000 0.398346 0.435028
0.155243 0.398346 0.435028
0.338989 0.398346 0.435028
0.526520 0.398346 0.435028
0.720459 0.398346 0.435028
0.921143 0.398346 0.435028
0.000000 0.554504 0.435028
0.000000 0.554504 0.435028
0.000000 0.554504 0.435028
0.155243 0.554504 0.435028
0.338989 0.554504 0.435028
0.526520 0.554504 0.435028
0.720459 0.554504 0.435028
0.921143 0.554504 0.435028
0.000000 0.686310 0.435028
0.000000 0.686310 0.435028
0.000000 0.686310 0.435028
0.155243 0.686310 0.435028
0.338989 0.686310 0.435028
0.526520 0.686310 0.435028
0.720459 0.686310 0.435028
0.921143 0.686310 0.435028
0.000000 0.802979 0.435028
0.000000 0.802979 0.435028
0.000000 0.802979 0.435028
0.155243 0.802979 0.435028
0.338989 0.802979 0.435028
0.526520 0.802979 0.435028
0.720459 0.802979 0.435028
0.921143 0.802979 0.435028
0.000000 0.908966 0.435028
0.000000 0.908966 0.435028
0.000000 0.908966 0.435028
0.155243 0.908966 0.435028
0.338989 0.908966 0.435028
0.526520 0.908966 0.435028
0.720459 0.908966 0.435028
0.921143 0.908966 0.435028
0.000000 1.000000 0.435028
0.000000 1.000000 0.435028
0.000000 1.000000 0.435028
0.155243 1.000000 0.435028
0.338989 1.000000 0.435028
0.526520 1.000000 0.435028
0.720459 1.000000 0.435028
0.921143 1.000000 0.435028
0.000000 0.000000 0.587708
0.000000 0.000000 0.587708
0.000000 0.000000 0.587708
0.155243 0.000000 0.587708
0.338989 0.000000 0.587708
0.526520 0.000000 0.587708
0.720459 0.000000 0.587708
0.921143 0.000000 0.587708
0.000000 0.192688 0.587708
0.000000 0.192688 0.587708
0.000000 0.192688 0.587708
0.155243 0.192688 0.587708
0.338989 0.192688 0.587708
0.526520 0.192688 0.587708
0.720459 0.192688 0.587708
0.921143 0.192688 0.587708
0.000000 0.398346 0.587708
0.000000 0.398346 0.587708
0.000000 0.398346 0.587708
0.155243 0.398346 0.587708
0.338989 0.398346 0.587708
0.526520 0.398346 0.587708
0.720459 0.398346 0.587708
0.921143 0.398346 0.587708
0.000000 0.554504 0.587708
0.000000 0.554504 0.587708
0.000000 0.554504 0.587708
0.155243 0.554504 0.587708
0.338989 0.554504 0.587708
0.526520 0.554504 0.587708
0.720459 0.554504 0.587708
0.921143 0.554504 0.587708
0.000000 0.686310 0.587708
0.000000 0.686310 0.587708
0.000000 0.686310 0.587708
0.155243 0.686310 0.587708
0.338989 0.686310 0.587708
0.526520 0.686310 0.587708
0.720459 0.686310 0.587708
0.921143 0.686310 0.587708
0.000000 0.802979 0.587708
0.000000 0.802979 0.587708
0.000000 0.802979 0.587708
0.155243 0.802979 0.587708
0.338989 0.802979 0.587708
0.526520 0.802979 0.587708
0.720459 0.802979 0.587708
0.921143 0.802979 0.587708
0.000000 0.908966 0.587708
0.000000 0.908966 0.587708
0.000000 0.908966 0.587708
0.155243 0.908966 0.587708
0.338989 0.908966 0.587708
0.526520 0.908966 0.587708
0.720459 0.908966 0.587708
0.921143 0.908966 0.587708
0.000000 1.000000 0.587708
0.000000 1.000000 0.587708
0.000000 1.000000 0.587708
0.155243 1.000000 0.587708
0.338989 1.000000 0.587708
0.526520 1.000000 0.587708
0.720459 1.000000 0.587708
0.921143 1.000000 0.587708
0.000000 0.000000 0.728271
0.000000 0.000000 0.728271
0.000000 0.000000 0.728271
0.155243 0.000000 0.728271
0.338989 0.000000 0.728271
0.526520 0.000000 0.728271
0.720459 0.000000 0.728271
0.921143 0.000000 0.728271
0.000000 0.192688 0.728271
0.000000 0.192688 0.728271
0.000000 0.192688 0.728271
0.155243 0.192688 0.728271
0.338989 0.192688 0.728271
0.526520 0.192688 0.728271
0.720459 0.192688 0.728271
0.921143 0.192688 0.728271
0.000000 0.398346 0.728271
0.000000 0.398346 0.728271
0.000000 0.398346 0.728271
0.155243 0.398346 0.728271
0.338989 0.398346 0.728271
0.526520 0.398346 0.728271
0.720459 0.398346 0.728271
0.921143 0.398346 0.728271
0.000000 0.554504 0.728271
0.000000 0.554504 0.728271
0.000000 0.554504 0.728271
0.155243 0.554504 0.728271
0.338989 0.554504 0.728271
0.526520 0.554504 0.728271
0.720459 0.554504 0.728271
0.921143 0.554504 0.728271
0.000000 0.686310 0.728271
0.000000 0.686310 0.728271
0.000000 0.686310 0.728271
0.155243 0.686310 0.728271
0.338989 0.686310 0.728271
0.526520 0.686310 0.728271
0.720459 0.686310 0.728271
0.921143 0.686310 0.728271
0.000000 0.802979 0.728271
0.000000 0.802979 0.728271
0.000000 0.802979 0.728271
0.155243 0.802979 0.728271
0.338989 0.802979 0.728271
0.526520 0.802979 0.728271
0.720459 0.802979 0.728271
0.921143 0.802979 0.728271
0.000000 0.908966 0.728271
0.000000 0.908966 0.728271
0.000000 0.908966 0.728271
0.155243 0.908966 0.728271
0.338989 0.908966 0.728271
0.526520 0.908966 0.728271
0.720459 0.908966 0.728271
0.921143 0.908966 0.728271
0.000000 1.000000 0.728271
0.000000 1.000000 0.728271
0.000000 1.000000 0.728271
0.155243 1.000000 0.728271
0.338989 1.000000 0.728271
0.526520 1.000000 0.728271
0.720459 1.000000 0.728271
0.921143 1.000000 0.728271
0.000000 0.000000 0.860229
0.000000 0.000000 0.860229
0.000000 0.000000 0.860229
0.155243 0.000000 0.860229
0.338989 0.000000 0.860229
0.526520 0.000000 0.860229
0.720459 0.000000 0.860229
0.921143 0.000000 0.860229
0.000000 0.192688 0.860229
0.000000 0.192688 0.860229
0.000000 0.192688 0.860229
0.155243 0.192688 0.860229
0.338989 0.192688 0.860229
0.526520 0.192688 0.860229
0.720459 0.192688 0.860229
0.921143 0.192688 0.860229
0.000000 0.398346 0.860229
0.000000 0.398346 0.860229
0.000000 0.398346 0.860229
0.155243 0.398346 0.860229
0.338989 0.398346 0.860229
0.526520 0.398346 0.860229
0.720459 0.398346 0.860229
0.921143 0.398346 0.860229
0.000000 0.554504 0.860229
0.000000 0.554504 0.860229
0.000000 0.554504 0.860229
0.155243 0.554504 0.860229
0.338989 0.554504 0.860229
0.526520 0.554504 0.860229
0.720459 0.554504 0.860229
0.921143 0.554504 0.860229
0.000000 0.686310 0.860229
0.000000 0.686310 0.860229
0.000000 0.686310 0.860229
0.155243 0.686310 0.860229
0.338989 0.686310 0.860229
0.526520 0.686310 0.860229
0.720459 0.686310 0.860229
0.921143 0.686310 0.860229
0.000000 0.802979 0.860229
0.000000 0.802979 0.860229
0.000000 0.802979 0.860229
0.155243 0.802979 0.860229
0.338989 0.802979 0.860229
0.526520 0.802979 0.860229
0.720459 0.802979 0.860229
0.921143 0.802979 0.860229
0.000000 0.908966 0.860229
0.000000 0.908966 0.860229
0.000000 0.908966 0.860229
0.155243 0.908966 0.860229
0.338989 0.908966 0.860229
0.526520 0.908966 0.860229
0.720459 0.908966 0.860229
0.921143 0.908966 0.860229
0.000000 1.000000 0.860229
0.000000 1.000000 0.860229
0.000000 1.000000 0.860229
0.155243 1.000000 0.860229
0.338989 1.000000 0.860229
0.526520 1.000000 0.860229
0.720459 1.000000 0.860229
0.921143 1.000000 0.860229
0.000000 0.000000 0.985382
0.000000 0.000000 0.985382
0.000000 0.000000 0.985382
0.155243 0.000000 0.985382
0.338989 0.000000 0.985382
0.526520 0.000000 0.985382
0.720459 0.000000 0.985382
0.921143 0.000000 0.985382
0.000000 0.192688 0.985382
0.000000 0.192688 0.985382
0.000000 0.192688 0.985382
0.155243 0.192688 0.985382
0.338989 0.192688 0.985382
0.526520 0.192688 0.985382
0.720459 0.192688 0.985382
0.921143 0.192688 0.985382
0.000000 0.398346 0.985382
0.000000 0.398346 0.985382
0.000000 0.398346 0.985382
0.155243 0.398346 0.985382
0.338989 0.398346 0.985382
0.526520 0.398346 0.985382
0.720459 0.398346 0.985382
0.921143 0.398346 0.985382
0.000000 0.554504 0.985382
0.000000 0.554504 0.985382
0.000000 0.554504 0.985382
0.155243 0.554504 0.985382
0.338989 0.554504 0.985382
0.526520 0.554504 0.985382
0.720459 0.554504 0.985382
0.921143 0.554504 0.985382
0.000000 0.686310 0.985382
0.000000 0.686310 0.985382
0.000000 0.686310 0.985382
0.155243 0.686310 0.985382
0.338989 0.686310 0.985382
0.526520 0.686310 0.985382
0.720459 0.686310 0.985382
0.921143 0.686310 0.985382
0.000000 0.802979 0.985382
0.000000 0.802979 0.985382
0.000000 0.802979 0.985382
0.155243 0.802979 0.985382
0.338989 0.802979 0.985382
0.526520 0.802979 0.985382
0.720459 0.802979 0.985382
0.921143 0.802979 0.985382
0.000000 0.908966 0.985382
0.000000 0.908966 0.985382
0.000000 0.908966 0.985382
0.155243 0.908966 0.985382
0.338989 0.908966 0.985382
0.526520 0.908966 0.985382
0.720459 0.908966 0.985382
0.921143 0.908966 0.985382
0.000000 1.000000 0.985382
0.000000 1.000000 0.985382
0.000000 1.000000 0.985382
0.155243 1.000000 0.985382
0.338989 1.000000 0.985382
0.526520 1.000000 0.985382
0.720459 1.000000 0.985382
0.921143 1.000000 0.985382
