nxshell/module/image-editor/libimagevisualresult/filter_cube/warm.CUBE
#Created by: Adobe Photoshop Export Color Lookup Plugin
TITLE "相机滤镜调试.psd"
#LUT size
LUT_3D_SIZE 8
#data domain
#LUT data points
DOMAIN_MIN 0.000000 0.000000 0.000000
DOMAIN_MAX 0.903226 0.903226 0.903226
0.000000 0.000000 0.000000
0.215607 0.000000 0.000000
0.386627 0.000000 0.000000
0.548035 0.000000 0.000000
0.688080 0.000000 0.000000
0.796173 0.000000 0.000000
0.880890 0.000000 0.000000
0.951599 0.000000 0.000000
0.000000 0.112122 0.000000
0.215607 0.112122 0.000000
0.386627 0.112122 0.000000
0.548035 0.112122 0.000000
0.688080 0.112122 0.000000
0.796173 0.112122 0.000000
0.880890 0.112122 0.000000
0.951599 0.112122 0.000000
0.000000 0.248413 0.000000
0.215607 0.248413 0.000000
0.386627 0.248413 0.000000
0.548035 0.248413 0.000000
0.688080 0.248413 0.000000
0.796173 0.248413 0.000000
0.880890 0.248413 0.000000
0.951599 0.248413 0.000000
0.000000 0.399689 0.000000
0.215607 0.399689 0.000000
0.386627 0.399689 0.000000
0.548035 0.399689 0.000000
0.688080 0.399689 0.000000
0.796173 0.399689 0.000000
0.880890 0.399689 0.000000
0.951599 0.399689 0.000000
0.000000 0.563019 0.000000
0.215607 0.563019 0.000000
0.386627 0.563019 0.000000
0.548035 0.563019 0.000000
0.688080 0.563019 0.000000
0.796173 0.563019 0.000000
0.880890 0.563019 0.000000
0.951599 0.563019 0.000000
0.000000 0.714569 0.000000
0.215607 0.714569 0.000000
0.386627 0.714569 0.000000
0.548035 0.714569 0.000000
0.688080 0.714569 0.000000
0.796173 0.714569 0.000000
0.880890 0.714569 0.000000
0.951599 0.714569 0.000000
0.000000 0.835327 0.000000
0.215607 0.835327 0.000000
0.386627 0.835327 0.000000
0.548035 0.835327 0.000000
0.688080 0.835327 0.000000
0.796173 0.835327 0.000000
0.880890 0.835327 0.000000
0.951599 0.835327 0.000000
0.000000 0.933441 0.000000
0.215607 0.933441 0.000000
0.386627 0.933441 0.000000
0.548035 0.933441 0.000000
0.688080 0.933441 0.000000
0.796173 0.933441 0.000000
0.880890 0.933441 0.000000
0.951599 0.933441 0.000000
0.000000 0.000000 0.091614
0.215607 0.000000 0.091614
0.386627 0.000000 0.091614
0.548035 0.000000 0.091614
0.688080 0.000000 0.091614
0.796173 0.000000 0.091614
0.880890 0.000000 0.091614
0.951599 0.000000 0.091614
0.000000 0.112122 0.091614
0.215607 0.112122 0.091614
0.386627 0.112122 0.091614
0.548035 0.112122 0.091614
0.688080 0.112122 0.091614
0.796173 0.112122 0.091614
0.880890 0.112122 0.091614
0.951599 0.112122 0.091614
0.000000 0.248413 0.091614
0.215607 0.248413 0.091614
0.386627 0.248413 0.091614
0.548035 0.248413 0.091614
0.688080 0.248413 0.091614
0.796173 0.248413 0.091614
0.880890 0.248413 0.091614
0.951599 0.248413 0.091614
0.000000 0.399689 0.091614
0.215607 0.399689 0.091614
0.386627 0.399689 0.091614
0.548035 0.399689 0.091614
0.688080 0.399689 0.091614
0.796173 0.399689 0.091614
0.880890 0.399689 0.091614
0.951599 0.399689 0.091614
0.000000 0.563019 0.091614
0.215607 0.563019 0.091614
0.386627 0.563019 0.091614
0.548035 0.563019 0.091614
0.688080 0.563019 0.091614
0.796173 0.563019 0.091614
0.880890 0.563019 0.091614
0.951599 0.563019 0.091614
0.000000 0.714569 0.091614
0.215607 0.714569 0.091614
0.386627 0.714569 0.091614
0.548035 0.714569 0.091614
0.688080 0.714569 0.091614
0.796173 0.714569 0.091614
0.880890 0.714569 0.091614
0.951599 0.714569 0.091614
0.000000 0.835327 0.091614
0.215607 0.835327 0.091614
0.386627 0.835327 0.091614
0.548035 0.835327 0.091614
0.688080 0.835327 0.091614
0.796173 0.835327 0.091614
0.880890 0.835327 0.091614
0.951599 0.835327 0.091614
0.000000 0.933441 0.091614
0.215607 0.933441 0.091614
0.386627 0.933441 0.091614
0.548035 0.933441 0.091614
0.688080 0.933441 0.091614
0.796173 0.933441 0.091614
0.880890 0.933441 0.091614
0.951599 0.933441 0.091614
0.000000 0.000000 0.216919
0.215607 0.000000 0.216919
0.386627 0.000000 0.216919
0.548035 0.000000 0.216919
0.688080 0.000000 0.216919
0.796173 0.000000 0.216919
0.880890 0.000000 0.216919
0.951599 0.000000 0.216919
0.000000 0.112122 0.216919
0.215607 0.112122 0.216919
0.386627 0.112122 0.216919
0.548035 0.112122 0.216919
0.688080 0.112122 0.216919
0.796173 0.112122 0.216919
0.880890 0.112122 0.216919
0.951599 0.112122 0.216919
0.000000 0.248413 0.216919
0.215607 0.248413 0.216919
0.386627 0.248413 0.216919
0.548035 0.248413 0.216919
0.688080 0.248413 0.216919
0.796173 0.248413 0.216919
0.880890 0.248413 0.216919
0.951599 0.248413 0.216919
0.000000 0.399689 0.216919
0.215607 0.399689 0.216919
0.386627 0.399689 0.216919
0.548035 0.399689 0.216919
0.688080 0.399689 0.216919
0.796173 0.399689 0.216919
0.880890 0.399689 0.216919
0.951599 0.399689 0.216919
0.000000 0.563019 0.216919
0.215607 0.563019 0.216919
0.386627 0.563019 0.216919
0.548035 0.563019 0.216919
0.688080 0.563019 0.216919
0.796173 0.563019 0.216919
0.880890 0.563019 0.216919
0.951599 0.563019 0.216919
0.000000 0.714569 0.216919
0.215607 0.714569 0.216919
0.386627 0.714569 0.216919
0.548035 0.714569 0.216919
0.688080 0.714569 0.216919
0.796173 0.714569 0.216919
0.880890 0.714569 0.216919
0.951599 0.714569 0.216919
0.000000 0.835327 0.216919
0.215607 0.835327 0.216919
0.386627 0.835327 0.216919
0.548035 0.835327 0.216919
0.688080 0.835327 0.216919
0.796173 0.835327 0.216919
0.880890 0.835327 0.216919
0.951599 0.835327 0.216919
0.000000 0.933441 0.216919
0.215607 0.933441 0.216919
0.386627 0.933441 0.216919
0.548035 0.933441 0.216919
0.688080 0.933441 0.216919
0.796173 0.933441 0.216919
0.880890 0.933441 0.216919
0.951599 0.933441 0.216919
0.000000 0.000000 0.362579
0.215607 0.000000 0.362579
0.386627 0.000000 0.362579
0.548035 0.000000 0.362579
0.688080 0.000000 0.362579
0.796173 0.000000 0.362579
0.880890 0.000000 0.362579
0.951599 0.000000 0.362579
0.000000 0.112122 0.362579
0.215607 0.112122 0.362579
0.386627 0.112122 0.362579
0.548035 0.112122 0.362579
0.688080 0.112122 0.362579
0.796173 0.112122 0.362579
0.880890 0.112122 0.362579
0.951599 0.112122 0.362579
0.000000 0.248413 0.362579
0.215607 0.248413 0.362579
0.386627 0.248413 0.362579
0.548035 0.248413 0.362579
0.688080 0.248413 0.362579
0.796173 0.248413 0.362579
0.880890 0.248413 0.362579
0.951599 0.248413 0.362579
0.000000 0.399689 0.362579
0.215607 0.399689 0.362579
0.386627 0.399689 0.362579
0.548035 0.399689 0.362579
0.688080 0.399689 0.362579
0.796173 0.399689 0.362579
0.880890 0.399689 0.362579
0.951599 0.399689 0.362579
0.000000 0.563019 0.362579
0.215607 0.563019 0.362579
0.386627 0.563019 0.362579
0.548035 0.563019 0.362579
0.688080 0.563019 0.362579
0.796173 0.563019 0.362579
0.880890 0.563019 0.362579
0.951599 0.563019 0.362579
0.000000 0.714569 0.362579
0.215607 0.714569 0.362579
0.386627 0.714569 0.362579
0.548035 0.714569 0.362579
0.688080 0.714569 0.362579
0.796173 0.714569 0.362579
0.880890 0.714569 0.362579
0.951599 0.714569 0.362579
0.000000 0.835327 0.362579
0.215607 0.835327 0.362579
0.386627 0.835327 0.362579
0.548035 0.835327 0.362579
0.688080 0.835327 0.362579
0.796173 0.835327 0.362579
0.880890 0.835327 0.362579
0.951599 0.835327 0.362579
0.000000 0.933441 0.362579
0.215607 0.933441 0.362579
0.386627 0.933441 0.362579
0.548035 0.933441 0.362579
0.688080 0.933441 0.362579
0.796173 0.933441 0.362579
0.880890 0.933441 0.362579
0.951599 0.933441 0.362579
0.000000 0.000000 0.526642
0.215607 0.000000 0.526642
0.386627 0.000000 0.526642
0.548035 0.000000 0.526642
0.688080 0.000000 0.526642
0.796173 0.000000 0.526642
0.880890 0.000000 0.526642
0.951599 0.000000 0.526642
0.000000 0.112122 0.526642
0.215607 0.112122 0.526642
0.386627 0.112122 0.526642
0.548035 0.112122 0.526642
0.688080 0.112122 0.526642
0.796173 0.112122 0.526642
0.880890 0.112122 0.526642
0.951599 0.112122 0.526642
0.000000 0.248413 0.526642
0.215607 0.248413 0.526642
0.386627 0.248413 0.526642
0.548035 0.248413 0.526642
0.688080 0.248413 0.526642
0.796173 0.248413 0.526642
0.880890 0.248413 0.526642
0.951599 0.248413 0.526642
0.000000 0.399689 0.526642
0.215607 0.399689 0.526642
0.386627 0.399689 0.526642
0.548035 0.399689 0.526642
0.688080 0.399689 0.526642
0.796173 0.399689 0.526642
0.880890 0.399689 0.526642
0.951599 0.399689 0.526642
0.000000 0.563019 0.526642
0.215607 0.563019 0.526642
0.386627 0.563019 0.526642
0.548035 0.563019 0.526642
0.688080 0.563019 0.526642
0.796173 0.563019 0.526642
0.880890 0.563019 0.526642
0.951599 0.563019 0.526642
0.000000 0.714569 0.526642
0.215607 0.714569 0.526642
0.386627 0.714569 0.526642
0.548035 0.714569 0.526642
0.688080 0.714569 0.526642
0.796173 0.714569 0.526642
0.880890 0.714569 0.526642
0.951599 0.714569 0.526642
0.000000 0.835327 0.526642
0.215607 0.835327 0.526642
0.386627 0.835327 0.526642
0.548035 0.835327 0.526642
0.688080 0.835327 0.526642
0.796173 0.835327 0.526642
0.880890 0.835327 0.526642
0.951599 0.835327 0.526642
0.000000 0.933441 0.526642
0.215607 0.933441 0.526642
0.386627 0.933441 0.526642
0.548035 0.933441 0.526642
0.688080 0.933441 0.526642
0.796173 0.933441 0.526642
0.880890 0.933441 0.526642
0.951599 0.933441 0.526642
0.000000 0.000000 0.688721
0.215607 0.000000 0.688721
0.386627 0.000000 0.688721
0.548035 0.000000 0.688721
0.688080 0.000000 0.688721
0.796173 0.000000 0.688721
0.880890 0.000000 0.688721
0.951599 0.000000 0.688721
0.000000 0.112122 0.688721
0.215607 0.112122 0.688721
0.386627 0.112122 0.688721
0.548035 0.112122 0.688721
0.688080 0.112122 0.688721
0.796173 0.112122 0.688721
0.880890 0.112122 0.688721
0.951599 0.112122 0.688721
0.000000 0.248413 0.688721
0.215607 0.248413 0.688721
0.386627 0.248413 0.688721
0.548035 0.248413 0.688721
0.688080 0.248413 0.688721
0.796173 0.248413 0.688721
0.880890 0.248413 0.688721
0.951599 0.248413 0.688721
0.000000 0.399689 0.688721
0.215607 0.399689 0.688721
0.386627 0.399689 0.688721
0.548035 0.399689 0.688721
0.688080 0.399689 0.688721
0.796173 0.399689 0.688721
0.880890 0.399689 0.688721
0.951599 0.399689 0.688721
0.000000 0.563019 0.688721
0.215607 0.563019 0.688721
0.386627 0.563019 0.688721
0.548035 0.563019 0.688721
0.688080 0.563019 0.688721
0.796173 0.563019 0.688721
0.880890 0.563019 0.688721
0.951599 0.563019 0.688721
0.000000 0.714569 0.688721
0.215607 0.714569 0.688721
0.386627 0.714569 0.688721
0.548035 0.714569 0.688721
0.688080 0.714569 0.688721
0.796173 0.714569 0.688721
0.880890 0.714569 0.688721
0.951599 0.714569 0.688721
0.000000 0.835327 0.688721
0.215607 0.835327 0.688721
0.386627 0.835327 0.688721
0.548035 0.835327 0.688721
0.688080 0.835327 0.688721
0.796173 0.835327 0.688721
0.880890 0.835327 0.688721
0.951599 0.835327 0.688721
0.000000 0.933441 0.688721
0.215607 0.933441 0.688721
0.386627 0.933441 0.688721
0.548035 0.933441 0.688721
0.688080 0.933441 0.688721
0.796173 0.933441 0.688721
0.880890 0.933441 0.688721
0.951599 0.933441 0.688721
0.000000 0.000000 0.821045
0.215607 0.000000 0.821045
0.386627 0.000000 0.821045
0.548035 0.000000 0.821045
0.688080 0.000000 0.821045
0.796173 0.000000 0.821045
0.880890 0.000000 0.821045
0.951599 0.000000 0.821045
0.000000 0.112122 0.821045
0.215607 0.112122 0.821045
0.386627 0.112122 0.821045
0.548035 0.112122 0.821045
0.688080 0.112122 0.821045
0.796173 0.112122 0.821045
0.880890 0.112122 0.821045
0.951599 0.112122 0.821045
0.000000 0.248413 0.821045
0.215607 0.248413 0.821045
0.386627 0.248413 0.821045
0.548035 0.248413 0.821045
0.688080 0.248413 0.821045
0.796173 0.248413 0.821045
0.880890 0.248413 0.821045
0.951599 0.248413 0.821045
0.000000 0.399689 0.821045
0.215607 0.399689 0.821045
0.386627 0.399689 0.821045
0.548035 0.399689 0.821045
0.688080 0.399689 0.821045
0.796173 0.399689 0.821045
0.880890 0.399689 0.821045
0.951599 0.399689 0.821045
0.000000 0.563019 0.821045
0.215607 0.563019 0.821045
0.386627 0.563019 0.821045
0.548035 0.563019 0.821045
0.688080 0.563019 0.821045
0.796173 0.563019 0.821045
0.880890 0.563019 0.821045
0.951599 0.563019 0.821045
0.000000 0.714569 0.821045
0.215607 0.714569 0.821045
0.386627 0.714569 0.821045
0.548035 0.714569 0.821045
0.688080 0.714569 0.821045
0.796173 0.714569 0.821045
0.880890 0.714569 0.821045
0.951599 0.714569 0.821045
0.000000 0.835327 0.821045
0.215607 0.835327 0.821045
0.386627 0.835327 0.821045
0.548035 0.835327 0.821045
0.688080 0.835327 0.821045
0.796173 0.835327 0.821045
0.880890 0.835327 0.821045
0.951599 0.835327 0.821045
0.000000 0.933441 0.821045
0.215607 0.933441 0.821045
0.386627 0.933441 0.821045
0.548035 0.933441 0.821045
0.688080 0.933441 0.821045
0.796173 0.933441 0.821045
0.880890 0.933441 0.821045
0.951599 0.933441 0.821045
0.000000 0.000000 0.927856
0.215607 0.000000 0.927856
0.386627 0.000000 0.927856
0.548035 0.000000 0.927856
0.688080 0.000000 0.927856
0.796173 0.000000 0.927856
0.880890 0.000000 0.927856
0.951599 0.000000 0.927856
0.000000 0.112122 0.927856
0.215607 0.112122 0.927856
0.386627 0.112122 0.927856
0.548035 0.112122 0.927856
0.688080 0.112122 0.927856
0.796173 0.112122 0.927856
0.880890 0.112122 0.927856
0.951599 0.112122 0.927856
0.000000 0.248413 0.927856
0.215607 0.248413 0.927856
0.386627 0.248413 0.927856
0.548035 0.248413 0.927856
0.688080 0.248413 0.927856
0.796173 0.248413 0.927856
0.880890 0.248413 0.927856
0.951599 0.248413 0.927856
0.000000 0.399689 0.927856
0.215607 0.399689 0.927856
0.386627 0.399689 0.927856
0.548035 0.399689 0.927856
0.688080 0.399689 0.927856
0.796173 0.399689 0.927856
0.880890 0.399689 0.927856
0.951599 0.399689 0.927856
0.000000 0.563019 0.927856
0.215607 0.563019 0.927856
0.386627 0.563019 0.927856
0.548035 0.563019 0.927856
0.688080 0.563019 0.927856
0.796173 0.563019 0.927856
0.880890 0.563019 0.927856
0.951599 0.563019 0.927856
0.000000 0.714569 0.927856
0.215607 0.714569 0.927856
0.386627 0.714569 0.927856
0.548035 0.714569 0.927856
0.688080 0.714569 0.927856
0.796173 0.714569 0.927856
0.880890 0.714569 0.927856
0.951599 0.714569 0.927856
0.000000 0.835327 0.927856
0.215607 0.835327 0.927856
0.386627 0.835327 0.927856
0.548035 0.835327 0.927856
0.688080 0.835327 0.927856
0.796173 0.835327 0.927856
0.880890 0.835327 0.927856
0.951599 0.835327 0.927856
0.000000 0.933441 0.927856
0.215607 0.933441 0.927856
0.386627 0.933441 0.927856
0.548035 0.933441 0.927856
0.688080 0.933441 0.927856
0.796173 0.933441 0.927856
0.880890 0.933441 0.927856
0.951599 0.933441 0.927856
