nxshell/module/image-editor/libimagevisualresult/filter_cube/warm.CUBE
#Created by: Adobe Photoshop Export Color Lookup Plugin
TITLE "相机滤镜调试.psd"
#LUT size
LUT_3D_SIZE 32
#data domain
DOMAIN_MIN 0.0 0.0 0.0
DOMAIN_MAX 1.0 1.0 1.0
#LUT data points
0.000000 0.000000 0.000000
0.068756 0.000000 0.000000
0.121552 0.000000 0.000000
0.169830 0.000000 0.000000
0.215607 0.000000 0.000000
0.259705 0.000000 0.000000
0.302734 0.000000 0.000000
0.344940 0.000000 0.000000
0.386627 0.000000 0.000000
0.427917 0.000000 0.000000
0.468750 0.000000 0.000000
0.508942 0.000000 0.000000
0.548035 0.000000 0.000000
0.585724 0.000000 0.000000
0.621857 0.000000 0.000000
0.656036 0.000000 0.000000
0.688080 0.000000 0.000000
0.717896 0.000000 0.000000
0.745758 0.000000 0.000000
0.771790 0.000000 0.000000
0.796173 0.000000 0.000000
0.819183 0.000000 0.000000
0.840851 0.000000 0.000000
0.861389 0.000000 0.000000
0.880890 0.000000 0.000000
0.899567 0.000000 0.000000
0.917511 0.000000 0.000000
0.934814 0.000000 0.000000
0.951599 0.000000 0.000000
0.967987 0.000000 0.000000
0.984100 0.000000 0.000000
1.000000 0.000000 0.000000
0.000000 0.023163 0.000000
0.068756 0.023163 0.000000
0.121552 0.023163 0.000000
0.169830 0.023163 0.000000
0.215607 0.023163 0.000000
0.259705 0.023163 0.000000
0.302734 0.023163 0.000000
0.344940 0.023163 0.000000
0.386627 0.023163 0.000000
0.427917 0.023163 0.000000
0.468750 0.023163 0.000000
0.508942 0.023163 0.000000
0.548035 0.023163 0.000000
0.585724 0.023163 0.000000
0.621857 0.023163 0.000000
0.656036 0.023163 0.000000
0.688080 0.023163 0.000000
0.717896 0.023163 0.000000
0.745758 0.023163 0.000000
0.771790 0.023163 0.000000
0.796173 0.023163 0.000000
0.819183 0.023163 0.000000
0.840851 0.023163 0.000000
0.861389 0.023163 0.000000
0.880890 0.023163 0.000000
0.899567 0.023163 0.000000
0.917511 0.023163 0.000000
0.934814 0.023163 0.000000
0.951599 0.023163 0.000000
0.967987 0.023163 0.000000
0.984100 0.023163 0.000000
1.000000 0.023163 0.000000
0.000000 0.050934 0.000000
0.068756 0.050934 0.000000
0.121552 0.050934 0.000000
0.169830 0.050934 0.000000
0.215607 0.050934 0.000000
0.259705 0.050934 0.000000
0.302734 0.050934 0.000000
0.344940 0.050934 0.000000
0.386627 0.050934 0.000000
0.427917 0.050934 0.000000
0.468750 0.050934 0.000000
0.508942 0.050934 0.000000
0.548035 0.050934 0.000000
0.585724 0.050934 0.000000
0.621857 0.050934 0.000000
0.656036 0.050934 0.000000
0.688080 0.050934 0.000000
0.717896 0.050934 0.000000
0.745758 0.050934 0.000000
0.771790 0.050934 0.000000
0.796173 0.050934 0.000000
0.819183 0.050934 0.000000
0.840851 0.050934 0.000000
0.861389 0.050934 0.000000
0.880890 0.050934 0.000000
0.899567 0.050934 0.000000
0.917511 0.050934 0.000000
0.934814 0.050934 0.000000
0.951599 0.050934 0.000000
0.967987 0.050934 0.000000
0.984100 0.050934 0.000000
1.000000 0.050934 0.000000
0.000000 0.080750 0.000000
0.068756 0.080750 0.000000
0.121552 0.080750 0.000000
0.169830 0.080750 0.000000
0.215607 0.080750 0.000000
0.259705 0.080750 0.000000
0.302734 0.080750 0.000000
0.344940 0.080750 0.000000
0.386627 0.080750 0.000000
0.427917 0.080750 0.000000
0.468750 0.080750 0.000000
0.508942 0.080750 0.000000
0.548035 0.080750 0.000000
0.585724 0.080750 0.000000
0.621857 0.080750 0.000000
0.656036 0.080750 0.000000
0.688080 0.080750 0.000000
0.717896 0.080750 0.000000
0.745758 0.080750 0.000000
0.771790 0.080750 0.000000
0.796173 0.080750 0.000000
0.819183 0.080750 0.000000
0.840851 0.080750 0.000000
0.861389 0.080750 0.000000
0.880890 0.080750 0.000000
0.899567 0.080750 0.000000
0.917511 0.080750 0.000000
0.934814 0.080750 0.000000
0.951599 0.080750 0.000000
0.967987 0.080750 0.000000
0.984100 0.080750 0.000000
1.000000 0.080750 0.000000
0.000000 0.112122 0.000000
0.068756 0.112122 0.000000
0.121552 0.112122 0.000000
0.169830 0.112122 0.000000
0.215607 0.112122 0.000000
0.259705 0.112122 0.000000
0.302734 0.112122 0.000000
0.344940 0.112122 0.000000
0.386627 0.112122 0.000000
0.427917 0.112122 0.000000
0.468750 0.112122 0.000000
0.508942 0.112122 0.000000
0.548035 0.112122 0.000000
0.585724 0.112122 0.000000
0.621857 0.112122 0.000000
0.656036 0.112122 0.000000
0.688080 0.112122 0.000000
0.717896 0.112122 0.000000
0.745758 0.112122 0.000000
0.771790 0.112122 0.000000
0.796173 0.112122 0.000000
0.819183 0.112122 0.000000
0.840851 0.112122 0.000000
0.861389 0.112122 0.000000
0.880890 0.112122 0.000000
0.899567 0.112122 0.000000
0.917511 0.112122 0.000000
0.934814 0.112122 0.000000
0.951599 0.112122 0.000000
0.967987 0.112122 0.000000
0.984100 0.112122 0.000000
1.000000 0.112122 0.000000
0.000000 0.144653 0.000000
0.068756 0.144653 0.000000
0.121552 0.144653 0.000000
0.169830 0.144653 0.000000
0.215607 0.144653 0.000000
0.259705 0.144653 0.000000
0.302734 0.144653 0.000000
0.344940 0.144653 0.000000
0.386627 0.144653 0.000000
0.427917 0.144653 0.000000
0.468750 0.144653 0.000000
0.508942 0.144653 0.000000
0.548035 0.144653 0.000000
0.585724 0.144653 0.000000
0.621857 0.144653 0.000000
0.656036 0.144653 0.000000
0.688080 0.144653 0.000000
0.717896 0.144653 0.000000
0.745758 0.144653 0.000000
0.771790 0.144653 0.000000
0.796173 0.144653 0.000000
0.819183 0.144653 0.000000
0.840851 0.144653 0.000000
0.861389 0.144653 0.000000
0.880890 0.144653 0.000000
0.899567 0.144653 0.000000
0.917511 0.144653 0.000000
0.934814 0.144653 0.000000
0.951599 0.144653 0.000000
0.967987 0.144653 0.000000
0.984100 0.144653 0.000000
1.000000 0.144653 0.000000
0.000000 0.178253 0.000000
0.068756 0.178253 0.000000
0.121552 0.178253 0.000000
0.169830 0.178253 0.000000
0.215607 0.178253 0.000000
0.259705 0.178253 0.000000
0.302734 0.178253 0.000000
0.344940 0.178253 0.000000
0.386627 0.178253 0.000000
0.427917 0.178253 0.000000
0.468750 0.178253 0.000000
0.508942 0.178253 0.000000
0.548035 0.178253 0.000000
0.585724 0.178253 0.000000
0.621857 0.178253 0.000000
0.656036 0.178253 0.000000
0.688080 0.178253 0.000000
0.717896 0.178253 0.000000
0.745758 0.178253 0.000000
0.771790 0.178253 0.000000
0.796173 0.178253 0.000000
0.819183 0.178253 0.000000
0.840851 0.178253 0.000000
0.861389 0.178253 0.000000
0.880890 0.178253 0.000000
0.899567 0.178253 0.000000
0.917511 0.178253 0.000000
0.934814 0.178253 0.000000
0.951599 0.178253 0.000000
0.967987 0.178253 0.000000
0.984100 0.178253 0.000000
1.000000 0.178253 0.000000
0.000000 0.212860 0.000000
0.068756 0.212860 0.000000
0.121552 0.212860 0.000000
0.169830 0.212860 0.000000
0.215607 0.212860 0.000000
0.259705 0.212860 0.000000
0.302734 0.212860 0.000000
0.344940 0.212860 0.000000
0.386627 0.212860 0.000000
0.427917 0.212860 0.000000
0.468750 0.212860 0.000000
0.508942 0.212860 0.000000
0.548035 0.212860 0.000000
0.585724 0.212860 0.000000
0.621857 0.212860 0.000000
0.656036 0.212860 0.000000
0.688080 0.212860 0.000000
0.717896 0.212860 0.000000
0.745758 0.212860 0.000000
0.771790 0.212860 0.000000
0.796173 0.212860 0.000000
0.819183 0.212860 0.000000
0.840851 0.212860 0.000000
0.861389 0.212860 0.000000
0.880890 0.212860 0.000000
0.899567 0.212860 0.000000
0.917511 0.212860 0.000000
0.934814 0.212860 0.000000
0.951599 0.212860 0.000000
0.967987 0.212860 0.000000
0.984100 0.212860 0.000000
1.000000 0.212860 0.000000
0.000000 0.248413 0.000000
0.068756 0.248413 0.000000
0.121552 0.248413 0.000000
0.169830 0.248413 0.000000
0.215607 0.248413 0.000000
0.259705 0.248413 0.000000
0.302734 0.248413 0.000000
0.344940 0.248413 0.000000
0.386627 0.248413 0.000000
0.427917 0.248413 0.000000
0.468750 0.248413 0.000000
0.508942 0.248413 0.000000
0.548035 0.248413 0.000000
0.585724 0.248413 0.000000
0.621857 0.248413 0.000000
0.656036 0.248413 0.000000
0.688080 0.248413 0.000000
0.717896 0.248413 0.000000
0.745758 0.248413 0.000000
0.771790 0.248413 0.000000
0.796173 0.248413 0.000000
0.819183 0.248413 0.000000
0.840851 0.248413 0.000000
0.861389 0.248413 0.000000
0.880890 0.248413 0.000000
0.899567 0.248413 0.000000
0.917511 0.248413 0.000000
0.934814 0.248413 0.000000
0.951599 0.248413 0.000000
0.967987 0.248413 0.000000
0.984100 0.248413 0.000000
1.000000 0.248413 0.000000
0.000000 0.284851 0.000000
0.068756 0.284851 0.000000
0.121552 0.284851 0.000000
0.169830 0.284851 0.000000
0.215607 0.284851 0.000000
0.259705 0.284851 0.000000
0.302734 0.284851 0.000000
0.344940 0.284851 0.000000
0.386627 0.284851 0.000000
0.427917 0.284851 0.000000
0.468750 0.284851 0.000000
0.508942 0.284851 0.000000
0.548035 0.284851 0.000000
0.585724 0.284851 0.000000
0.621857 0.284851 0.000000
0.656036 0.284851 0.000000
0.688080 0.284851 0.000000
0.717896 0.284851 0.000000
0.745758 0.284851 0.000000
0.771790 0.284851 0.000000
0.796173 0.284851 0.000000
0.819183 0.284851 0.000000
0.840851 0.284851 0.000000
0.861389 0.284851 0.000000
0.880890 0.284851 0.000000
0.899567 0.284851 0.000000
0.917511 0.284851 0.000000
0.934814 0.284851 0.000000
0.951599 0.284851 0.000000
0.967987 0.284851 0.000000
0.984100 0.284851 0.000000
1.000000 0.284851 0.000000
0.000000 0.322174 0.000000
0.068756 0.322174 0.000000
0.121552 0.322174 0.000000
0.169830 0.322174 0.000000
0.215607 0.322174 0.000000
0.259705 0.322174 0.000000
0.302734 0.322174 0.000000
0.344940 0.322174 0.000000
0.386627 0.322174 0.000000
0.427917 0.322174 0.000000
0.468750 0.322174 0.000000
0.508942 0.322174 0.000000
0.548035 0.322174 0.000000
0.585724 0.322174 0.000000
0.621857 0.322174 0.000000
0.656036 0.322174 0.000000
0.688080 0.322174 0.000000
0.717896 0.322174 0.000000
0.745758 0.322174 0.000000
0.771790 0.322174 0.000000
0.796173 0.322174 0.000000
0.819183 0.322174 0.000000
0.840851 0.322174 0.000000
0.861389 0.322174 0.000000
0.880890 0.322174 0.000000
0.899567 0.322174 0.000000
0.917511 0.322174 0.000000
0.934814 0.322174 0.000000
0.951599 0.322174 0.000000
0.967987 0.322174 0.000000
0.984100 0.322174 0.000000
1.000000 0.322174 0.000000
0.000000 0.360474 0.000000
0.068756 0.360474 0.000000
0.121552 0.360474 0.000000
0.169830 0.360474 0.000000
0.215607 0.360474 0.000000
0.259705 0.360474 0.000000
0.302734 0.360474 0.000000
0.344940 0.360474 0.000000
0.386627 0.360474 0.000000
0.427917 0.360474 0.000000
0.468750 0.360474 0.000000
0.508942 0.360474 0.000000
0.548035 0.360474 0.000000
0.585724 0.360474 0.000000
0.621857 0.360474 0.000000
0.656036 0.360474 0.000000
0.688080 0.360474 0.000000
0.717896 0.360474 0.000000
0.745758 0.360474 0.000000
0.771790 0.360474 0.000000
0.796173 0.360474 0.000000
0.819183 0.360474 0.000000
0.840851 0.360474 0.000000
0.861389 0.360474 0.000000
0.880890 0.360474 0.000000
0.899567 0.360474 0.000000
0.917511 0.360474 0.000000
0.934814 0.360474 0.000000
0.951599 0.360474 0.000000
0.967987 0.360474 0.000000
0.984100 0.360474 0.000000
1.000000 0.360474 0.000000
0.000000 0.399689 0.000000
0.068756 0.399689 0.000000
0.121552 0.399689 0.000000
0.169830 0.399689 0.000000
0.215607 0.399689 0.000000
0.259705 0.399689 0.000000
0.302734 0.399689 0.000000
0.344940 0.399689 0.000000
0.386627 0.399689 0.000000
0.427917 0.399689 0.000000
0.468750 0.399689 0.000000
0.508942 0.399689 0.000000
0.548035 0.399689 0.000000
0.585724 0.399689 0.000000
0.621857 0.399689 0.000000
0.656036 0.399689 0.000000
0.688080 0.399689 0.000000
0.717896 0.399689 0.000000
0.745758 0.399689 0.000000
0.771790 0.399689 0.000000
0.796173 0.399689 0.000000
0.819183 0.399689 0.000000
0.840851 0.399689 0.000000
0.861389 0.399689 0.000000
0.880890 0.399689 0.000000
0.899567 0.399689 0.000000
0.917511 0.399689 0.000000
0.934814 0.399689 0.000000
0.951599 0.399689 0.000000
0.967987 0.399689 0.000000
0.984100 0.399689 0.000000
1.000000 0.399689 0.000000
0.000000 0.439850 0.000000
0.068756 0.439850 0.000000
0.121552 0.439850 0.000000
0.169830 0.439850 0.000000
0.215607 0.439850 0.000000
0.259705 0.439850 0.000000
0.302734 0.439850 0.000000
0.344940 0.439850 0.000000
0.386627 0.439850 0.000000
0.427917 0.439850 0.000000
0.468750 0.439850 0.000000
0.508942 0.439850 0.000000
0.548035 0.439850 0.000000
0.585724 0.439850 0.000000
0.621857 0.439850 0.000000
0.656036 0.439850 0.000000
0.688080 0.439850 0.000000
0.717896 0.439850 0.000000
0.745758 0.439850 0.000000
0.771790 0.439850 0.000000
0.796173 0.439850 0.000000
0.819183 0.439850 0.000000
0.840851 0.439850 0.000000
0.861389 0.439850 0.000000
0.880890 0.439850 0.000000
0.899567 0.439850 0.000000
0.917511 0.439850 0.000000
0.934814 0.439850 0.000000
0.951599 0.439850 0.000000
0.967987 0.439850 0.000000
0.984100 0.439850 0.000000
1.000000 0.439850 0.000000
0.000000 0.480835 0.000000
0.068756 0.480835 0.000000
0.121552 0.480835 0.000000
0.169830 0.480835 0.000000
0.215607 0.480835 0.000000
0.259705 0.480835 0.000000
0.302734 0.480835 0.000000
0.344940 0.480835 0.000000
0.386627 0.480835 0.000000
0.427917 0.480835 0.000000
0.468750 0.480835 0.000000
0.508942 0.480835 0.000000
0.548035 0.480835 0.000000
0.585724 0.480835 0.000000
0.621857 0.480835 0.000000
0.656036 0.480835 0.000000
0.688080 0.480835 0.000000
0.717896 0.480835 0.000000
0.745758 0.480835 0.000000
0.771790 0.480835 0.000000
0.796173 0.480835 0.000000
0.819183 0.480835 0.000000
0.840851 0.480835 0.000000
0.861389 0.480835 0.000000
0.880890 0.480835 0.000000
0.899567 0.480835 0.000000
0.917511 0.480835 0.000000
0.934814 0.480835 0.000000
0.951599 0.480835 0.000000
0.967987 0.480835 0.000000
0.984100 0.480835 0.000000
1.000000 0.480835 0.000000
0.000000 0.522003 0.000000
0.068756 0.522003 0.000000
0.121552 0.522003 0.000000
0.169830 0.522003 0.000000
0.215607 0.522003 0.000000
0.259705 0.522003 0.000000
0.302734 0.522003 0.000000
0.344940 0.522003 0.000000
0.386627 0.522003 0.000000
0.427917 0.522003 0.000000
0.468750 0.522003 0.000000
0.508942 0.522003 0.000000
0.548035 0.522003 0.000000
0.585724 0.522003 0.000000
0.621857 0.522003 0.000000
0.656036 0.522003 0.000000
0.688080 0.522003 0.000000
0.717896 0.522003 0.000000
0.745758 0.522003 0.000000
0.771790 0.522003 0.000000
0.796173 0.522003 0.000000
0.819183 0.522003 0.000000
0.840851 0.522003 0.000000
0.861389 0.522003 0.000000
0.880890 0.522003 0.000000
0.899567 0.522003 0.000000
0.917511 0.522003 0.000000
0.934814 0.522003 0.000000
0.951599 0.522003 0.000000
0.967987 0.522003 0.000000
0.984100 0.522003 0.000000
1.000000 0.522003 0.000000
0.000000 0.563019 0.000000
0.068756 0.563019 0.000000
0.121552 0.563019 0.000000
0.169830 0.563019 0.000000
0.215607 0.563019 0.000000
0.259705 0.563019 0.000000
0.302734 0.563019 0.000000
0.344940 0.563019 0.000000
0.386627 0.563019 0.000000
0.427917 0.563019 0.000000
0.468750 0.563019 0.000000
0.508942 0.563019 0.000000
0.548035 0.563019 0.000000
0.585724 0.563019 0.000000
0.621857 0.563019 0.000000
0.656036 0.563019 0.000000
0.688080 0.563019 0.000000
0.717896 0.563019 0.000000
0.745758 0.563019 0.000000
0.771790 0.563019 0.000000
0.796173 0.563019 0.000000
0.819183 0.563019 0.000000
0.840851 0.563019 0.000000
0.861389 0.563019 0.000000
0.880890 0.563019 0.000000
0.899567 0.563019 0.000000
0.917511 0.563019 0.000000
0.934814 0.563019 0.000000
0.951599 0.563019 0.000000
0.967987 0.563019 0.000000
0.984100 0.563019 0.000000
1.000000 0.563019 0.000000
0.000000 0.603241 0.000000
0.068756 0.603241 0.000000
0.121552 0.603241 0.000000
0.169830 0.603241 0.000000
0.215607 0.603241 0.000000
0.259705 0.603241 0.000000
0.302734 0.603241 0.000000
0.344940 0.603241 0.000000
0.386627 0.603241 0.000000
0.427917 0.603241 0.000000
0.468750 0.603241 0.000000
0.508942 0.603241 0.000000
0.548035 0.603241 0.000000
0.585724 0.603241 0.000000
0.621857 0.603241 0.000000
0.656036 0.603241 0.000000
0.688080 0.603241 0.000000
0.717896 0.603241 0.000000
0.745758 0.603241 0.000000
0.771790 0.603241 0.000000
0.796173 0.603241 0.000000
0.819183 0.603241 0.000000
0.840851 0.603241 0.000000
0.861389 0.603241 0.000000
0.880890 0.603241 0.000000
0.899567 0.603241 0.000000
0.917511 0.603241 0.000000
0.934814 0.603241 0.000000
0.951599 0.603241 0.000000
0.967987 0.603241 0.000000
0.984100 0.603241 0.000000
1.000000 0.603241 0.000000
0.000000 0.642242 0.000000
0.068756 0.642242 0.000000
0.121552 0.642242 0.000000
0.169830 0.642242 0.000000
0.215607 0.642242 0.000000
0.259705 0.642242 0.000000
0.302734 0.642242 0.000000
0.344940 0.642242 0.000000
0.386627 0.642242 0.000000
0.427917 0.642242 0.000000
0.468750 0.642242 0.000000
0.508942 0.642242 0.000000
0.548035 0.642242 0.000000
0.585724 0.642242 0.000000
0.621857 0.642242 0.000000
0.656036 0.642242 0.000000
0.688080 0.642242 0.000000
0.717896 0.642242 0.000000
0.745758 0.642242 0.000000
0.771790 0.642242 0.000000
0.796173 0.642242 0.000000
0.819183 0.642242 0.000000
0.840851 0.642242 0.000000
0.861389 0.642242 0.000000
0.880890 0.642242 0.000000
0.899567 0.642242 0.000000
0.917511 0.642242 0.000000
0.934814 0.642242 0.000000
0.951599 0.642242 0.000000
0.967987 0.642242 0.000000
0.984100 0.642242 0.000000
1.000000 0.642242 0.000000
0.000000 0.679504 0.000000
0.068756 0.679504 0.000000
0.121552 0.679504 0.000000
0.169830 0.679504 0.000000
0.215607 0.679504 0.000000
0.259705 0.679504 0.000000
0.302734 0.679504 0.000000
0.344940 0.679504 0.000000
0.386627 0.679504 0.000000
0.427917 0.679504 0.000000
0.468750 0.679504 0.000000
0.508942 0.679504 0.000000
0.548035 0.679504 0.000000
0.585724 0.679504 0.000000
0.621857 0.679504 0.000000
0.656036 0.679504 0.000000
0.688080 0.679504 0.000000
0.717896 0.679504 0.000000
0.745758 0.679504 0.000000
0.771790 0.679504 0.000000
0.796173 0.679504 0.000000
0.819183 0.679504 0.000000
0.840851 0.679504 0.000000
0.861389 0.679504 0.000000
0.880890 0.679504 0.000000
0.899567 0.679504 0.000000
0.917511 0.679504 0.000000
0.934814 0.679504 0.000000
0.951599 0.679504 0.000000
0.967987 0.679504 0.000000
0.984100 0.679504 0.000000
1.000000 0.679504 0.000000
0.000000 0.714569 0.000000
0.068756 0.714569 0.000000
0.121552 0.714569 0.000000
0.169830 0.714569 0.000000
0.215607 0.714569 0.000000
0.259705 0.714569 0.000000
0.302734 0.714569 0.000000
0.344940 0.714569 0.000000
0.386627 0.714569 0.000000
0.427917 0.714569 0.000000
0.468750 0.714569 0.000000
0.508942 0.714569 0.000000
0.548035 0.714569 0.000000
0.585724 0.714569 0.000000
0.621857 0.714569 0.000000
0.656036 0.714569 0.000000
0.688080 0.714569 0.000000
0.717896 0.714569 0.000000
0.745758 0.714569 0.000000
0.771790 0.714569 0.000000
0.796173 0.714569 0.000000
0.819183 0.714569 0.000000
0.840851 0.714569 0.000000
0.861389 0.714569 0.000000
0.880890 0.714569 0.000000
0.899567 0.714569 0.000000
0.917511 0.714569 0.000000
0.934814 0.714569 0.000000
0.951599 0.714569 0.000000
0.967987 0.714569 0.000000
0.984100 0.714569 0.000000
1.000000 0.714569 0.000000
0.000000 0.747528 0.000000
0.068756 0.747528 0.000000
0.121552 0.747528 0.000000
0.169830 0.747528 0.000000
0.215607 0.747528 0.000000
0.259705 0.747528 0.000000
0.302734 0.747528 0.000000
0.344940 0.747528 0.000000
0.386627 0.747528 0.000000
0.427917 0.747528 0.000000
0.468750 0.747528 0.000000
0.508942 0.747528 0.000000
0.548035 0.747528 0.000000
0.585724 0.747528 0.000000
0.621857 0.747528 0.000000
0.656036 0.747528 0.000000
0.688080 0.747528 0.000000
0.717896 0.747528 0.000000
0.745758 0.747528 0.000000
0.771790 0.747528 0.000000
0.796173 0.747528 0.000000
0.819183 0.747528 0.000000
0.840851 0.747528 0.000000
0.861389 0.747528 0.000000
0.880890 0.747528 0.000000
0.899567 0.747528 0.000000
0.917511 0.747528 0.000000
0.934814 0.747528 0.000000
0.951599 0.747528 0.000000
0.967987 0.747528 0.000000
0.984100 0.747528 0.000000
1.000000 0.747528 0.000000
0.000000 0.778534 0.000000
0.068756 0.778534 0.000000
0.121552 0.778534 0.000000
0.169830 0.778534 0.000000
0.215607 0.778534 0.000000
0.259705 0.778534 0.000000
0.302734 0.778534 0.000000
0.344940 0.778534 0.000000
0.386627 0.778534 0.000000
0.427917 0.778534 0.000000
0.468750 0.778534 0.000000
0.508942 0.778534 0.000000
0.548035 0.778534 0.000000
0.585724 0.778534 0.000000
0.621857 0.778534 0.000000
0.656036 0.778534 0.000000
0.688080 0.778534 0.000000
0.717896 0.778534 0.000000
0.745758 0.778534 0.000000
0.771790 0.778534 0.000000
0.796173 0.778534 0.000000
0.819183 0.778534 0.000000
0.840851 0.778534 0.000000
0.861389 0.778534 0.000000
0.880890 0.778534 0.000000
0.899567 0.778534 0.000000
0.917511 0.778534 0.000000
0.934814 0.778534 0.000000
0.951599 0.778534 0.000000
0.967987 0.778534 0.000000
0.984100 0.778534 0.000000
1.000000 0.778534 0.000000
0.000000 0.807739 0.000000
0.068756 0.807739 0.000000
0.121552 0.807739 0.000000
0.169830 0.807739 0.000000
0.215607 0.807739 0.000000
0.259705 0.807739 0.000000
0.302734 0.807739 0.000000
0.344940 0.807739 0.000000
0.386627 0.807739 0.000000
0.427917 0.807739 0.000000
0.468750 0.807739 0.000000
0.508942 0.807739 0.000000
0.548035 0.807739 0.000000
0.585724 0.807739 0.000000
0.621857 0.807739 0.000000
0.656036 0.807739 0.000000
0.688080 0.807739 0.000000
0.717896 0.807739 0.000000
0.745758 0.807739 0.000000
0.771790 0.807739 0.000000
0.796173 0.807739 0.000000
0.819183 0.807739 0.000000
0.840851 0.807739 0.000000
0.861389 0.807739 0.000000
0.880890 0.807739 0.000000
0.899567 0.807739 0.000000
0.917511 0.807739 0.000000
0.934814 0.807739 0.000000
0.951599 0.807739 0.000000
0.967987 0.807739 0.000000
0.984100 0.807739 0.000000
1.000000 0.807739 0.000000
0.000000 0.835327 0.000000
0.068756 0.835327 0.000000
0.121552 0.835327 0.000000
0.169830 0.835327 0.000000
0.215607 0.835327 0.000000
0.259705 0.835327 0.000000
0.302734 0.835327 0.000000
0.344940 0.835327 0.000000
0.386627 0.835327 0.000000
0.427917 0.835327 0.000000
0.468750 0.835327 0.000000
0.508942 0.835327 0.000000
0.548035 0.835327 0.000000
0.585724 0.835327 0.000000
0.621857 0.835327 0.000000
0.656036 0.835327 0.000000
0.688080 0.835327 0.000000
0.717896 0.835327 0.000000
0.745758 0.835327 0.000000
0.771790 0.835327 0.000000
0.796173 0.835327 0.000000
0.819183 0.835327 0.000000
0.840851 0.835327 0.000000
0.861389 0.835327 0.000000
0.880890 0.835327 0.000000
0.899567 0.835327 0.000000
0.917511 0.835327 0.000000
0.934814 0.835327 0.000000
0.951599 0.835327 0.000000
0.967987 0.835327 0.000000
0.984100 0.835327 0.000000
1.000000 0.835327 0.000000
0.000000 0.861511 0.000000
0.068756 0.861511 0.000000
0.121552 0.861511 0.000000
0.169830 0.861511 0.000000
0.215607 0.861511 0.000000
0.259705 0.861511 0.000000
0.302734 0.861511 0.000000
0.344940 0.861511 0.000000
0.386627 0.861511 0.000000
0.427917 0.861511 0.000000
0.468750 0.861511 0.000000
0.508942 0.861511 0.000000
0.548035 0.861511 0.000000
0.585724 0.861511 0.000000
0.621857 0.861511 0.000000
0.656036 0.861511 0.000000
0.688080 0.861511 0.000000
0.717896 0.861511 0.000000
0.745758 0.861511 0.000000
0.771790 0.861511 0.000000
0.796173 0.861511 0.000000
0.819183 0.861511 0.000000
0.840851 0.861511 0.000000
0.861389 0.861511 0.000000
0.880890 0.861511 0.000000
0.899567 0.861511 0.000000
0.917511 0.861511 0.000000
0.934814 0.861511 0.000000
0.951599 0.861511 0.000000
0.967987 0.861511 0.000000
0.984100 0.861511 0.000000
1.000000 0.861511 0.000000
0.000000 0.886414 0.000000
0.068756 0.886414 0.000000
0.121552 0.886414 0.000000
0.169830 0.886414 0.000000
0.215607 0.886414 0.000000
0.259705 0.886414 0.000000
0.302734 0.886414 0.000000
0.344940 0.886414 0.000000
0.386627 0.886414 0.000000
0.427917 0.886414 0.000000
0.468750 0.886414 0.000000
0.508942 0.886414 0.000000
0.548035 0.886414 0.000000
0.585724 0.886414 0.000000
0.621857 0.886414 0.000000
0.656036 0.886414 0.000000
0.688080 0.886414 0.000000
0.717896 0.886414 0.000000
0.745758 0.886414 0.000000
0.771790 0.886414 0.000000
0.796173 0.886414 0.000000
0.819183 0.886414 0.000000
0.840851 0.886414 0.000000
0.861389 0.886414 0.000000
0.880890 0.886414 0.000000
0.899567 0.886414 0.000000
0.917511 0.886414 0.000000
0.934814 0.886414 0.000000
0.951599 0.886414 0.000000
0.967987 0.886414 0.000000
0.984100 0.886414 0.000000
1.000000 0.886414 0.000000
0.000000 0.910370 0.000000
0.068756 0.910370 0.000000
0.121552 0.910370 0.000000
0.169830 0.910370 0.000000
0.215607 0.910370 0.000000
0.259705 0.910370 0.000000
0.302734 0.910370 0.000000
0.344940 0.910370 0.000000
0.386627 0.910370 0.000000
0.427917 0.910370 0.000000
0.468750 0.910370 0.000000
0.508942 0.910370 0.000000
0.548035 0.910370 0.000000
0.585724 0.910370 0.000000
0.621857 0.910370 0.000000
0.656036 0.910370 0.000000
0.688080 0.910370 0.000000
0.717896 0.910370 0.000000
