nxshell/module/image-editor/libimagevisualresult/filter_cube/warm.CUBE
#Created by: Adobe Photoshop Export Color Lookup Plugin
TITLE "相机滤镜调试.psd"
#LUT size
LUT_3D_SIZE 5
#data domain
#LUT data points
DOMAIN_MIN 0.000000 0.000000 0.000000
DOMAIN_MAX 0.903226 0.903226 0.903226
0.000000 0.000000 0.000000
0.344940 0.000000 0.000000
0.621857 0.000000 0.000000
0.819183 0.000000 0.000000
0.951599 0.000000 0.000000
0.000000 0.212860 0.000000
0.344940 0.212860 0.000000
0.621857 0.212860 0.000000
0.819183 0.212860 0.000000
0.951599 0.212860 0.000000
0.000000 0.480835 0.000000
0.344940 0.480835 0.000000
0.621857 0.480835 0.000000
0.819183 0.480835 0.000000
0.951599 0.480835 0.000000
0.000000 0.747528 0.000000
0.344940 0.747528 0.000000
0.621857 0.747528 0.000000
0.819183 0.747528 0.000000
0.951599 0.747528 0.000000
0.000000 0.933441 0.000000
0.344940 0.933441 0.000000
0.621857 0.933441 0.000000
0.819183 0.933441 0.000000
0.951599 0.933441 0.000000
0.000000 0.000000 0.183563
0.344940 0.000000 0.183563
0.621857 0.000000 0.183563
0.819183 0.000000 0.183563
0.951599 0.000000 0.183563
0.000000 0.212860 0.183563
0.344940 0.212860 0.183563
0.621857 0.212860 0.183563
0.819183 0.212860 0.183563
0.951599 0.212860 0.183563
0.000000 0.480835 0.183563
0.344940 0.480835 0.183563
0.621857 0.480835 0.183563
0.819183 0.480835 0.183563
0.951599 0.480835 0.183563
0.000000 0.747528 0.183563
0.344940 0.747528 0.183563
0.621857 0.747528 0.183563
0.819183 0.747528 0.183563
0.951599 0.747528 0.183563
0.000000 0.933441 0.183563
0.344940 0.933441 0.183563
0.621857 0.933441 0.183563
0.819183 0.933441 0.183563
0.951599 0.933441 0.183563
0.000000 0.000000 0.442749
0.344940 0.000000 0.442749
0.621857 0.000000 0.442749
0.819183 0.000000 0.442749
0.951599 0.000000 0.442749
0.000000 0.212860 0.442749
0.344940 0.212860 0.442749
0.621857 0.212860 0.442749
0.819183 0.212860 0.442749
0.951599 0.212860 0.442749
0.000000 0.480835 0.442749
0.344940 0.480835 0.442749
0.621857 0.480835 0.442749
0.819183 0.480835 0.442749
0.951599 0.480835 0.442749
0.000000 0.747528 0.442749
0.344940 0.747528 0.442749
0.621857 0.747528 0.442749
0.819183 0.747528 0.442749
0.951599 0.747528 0.442749
0.000000 0.933441 0.442749
0.344940 0.933441 0.442749
0.621857 0.933441 0.442749
0.819183 0.933441 0.442749
0.951599 0.933441 0.442749
0.000000 0.000000 0.724854
0.344940 0.000000 0.724854
0.621857 0.000000 0.724854
0.819183 0.000000 0.724854
0.951599 0.000000 0.724854
0.000000 0.212860 0.724854
0.344940 0.212860 0.724854
0.621857 0.212860 0.724854
0.819183 0.212860 0.724854
0.951599 0.212860 0.724854
0.000000 0.480835 0.724854
0.344940 0.480835 0.724854
0.621857 0.480835 0.724854
0.819183 0.480835 0.724854
0.951599 0.480835 0.724854
0.000000 0.747528 0.724854
0.344940 0.747528 0.724854
0.621857 0.747528 0.724854
0.819183 0.747528 0.724854
0.951599 0.747528 0.724854
0.000000 0.933441 0.724854
0.344940 0.933441 0.724854
0.621857 0.933441 0.724854
0.819183 0.933441 0.724854
0.951599 0.933441 0.724854
0.000000 0.000000 0.927856
0.344940 0.000000 0.927856
0.621857 0.000000 0.927856
0.819183 0.000000 0.927856
0.951599 0.000000 0.927856
0.000000 0.212860 0.927856
0.344940 0.212860 0.927856
0.621857 0.212860 0.927856
0.819183 0.212860 0.927856
0.951599 0.212860 0.927856
0.000000 0.480835 0.927856
0.344940 0.480835 0.927856
0.621857 0.480835 0.927856
0.819183 0.480835 0.927856
0.951599 0.480835 0.927856
0.000000 0.747528 0.927856
0.344940 0.747528 0.927856
0.621857 0.747528 0.927856
0.819183 0.747528 0.927856
0.951599 0.747528 0.927856
0.000000 0.933441 0.927856
0.344940 0.933441 0.927856
0.621857 0.933441 0.927856
0.819183 0.933441 0.927856
0.951599 0.933441 0.927856
